P3
1040 48
255
16 16 32
16 16 32
16 16 32
16 16 32
16 16 32
16 16 32
16 16 32
16 16 32
255 255 255
255 255 255
16 16 32
16 16 32
16 16 32
16 16 32
16 16 32
16 16 32
255 255 255
255 255 255
16 16 32
16 16 32
16 16 32
16 16 32
16 16 32
16 16 32
16 16 32
16 16 32
16 16 32
16 16 32
16 16 32
16 16 32
16 16 32
16 16 32
16 16 32
16 16 32
16 16 32
16 16 32
16 16 32
16 16 32
16 16 32
16 16 32
255 255 255
255 255 255
255 255 255
255 255 255
255 255 255
255 255 255
255 255 255
255 255 255
255 255 255
255 255 255
16 16 32
16 16 32
16 16 32
16 16 32
16 16 32
16 16 32
16 16 32
16 16 32
16 16 32
16 16 32
16 16 32
16 16 32
16 16 32
16 16 32
16 16 32
16 16 32
16 16 32
16 16 32
16 16 32
16 16 32
16 16 32
16 16 32
16 16 32
16 16 32
255 255 255
255 255 255
255 255 255
255 255 255
255 255 255
255 255 255
16 16 32
16 16 32
16 16 32
16 16 32
16 16 32
16 16 32
16 16 32
16 16 32
255 255 255
255 255 255
255 255 255
255 255 255
255 255 255
255 255 255
255 255 255
255 255 255
255 255 255
255 255 255
16 16 32
16 16 32
16 16 32
16 16 32
16 16 32
16 16 32
16 16 32
16 16 32
255 255 255
255 255 255
255 255 255
255 255 255
255 255 255
255 255 255
255 255 255
255 255 255
16 16 32
16 16 32
16 16 32
16 16 32
16 16 32
16 16 32
255 255 255
255 255 255
255 255 255
255 255 255
255 255 255
255 255 255
255 255 255
255 255 255
255 255 255
255 255 255
16 16 32
16 16 32
16 16 32
16 16 32
16 16 32
16 16 32
255 255 255
255 255 255
16 16 32
16 16 32
16 16 32
16 16 32
16 16 32
16 16 32
255 255 255
255 255 255
16 16 32
16 16 32
16 16 32
16 16 32
16 16 32
16 16 32
255 255 255
255 255 255
255 255 255
255 255 255
255 255 255
255 255 255
255 255 255
255 255 255
16 16 32
16 16 32
16 16 32
16 16 32
16 16 32
16 16 32
16 16 32
16 16 32
255 255 255
255 255 255
255 255 255
255 255 255
255 255 255
255 255 255
255 255 255
255 255 255
255 255 255
255 255 255
16 16 32
16 16 32
16 16 32
16 16 32
16 16 32
16 16 32
16 16 32
16 16 32
16 16 32
16 16 32
16 16 32
16 16 32
16 16 32
16 16 32
16 16 32
16 16 32
16 16 32
16 16 32
16 16 32
16 16 32
16 16 32
16 16 32
16 16 32
16 16 32
16 16 32
16 16 32
16 16 32
16 16 32
16 16 32
16 16 32
16 16 32
16 16 32
16 16 32
16 16 32
16 16 32
16 16 32
16 16 32
16 16 32
16 16 32
16 16 32
16 16 32
16 16 32
16 16 32
16 16 32
16 16 32
16 16 32
16 16 32
16 16 32
16 16 32
16 16 32
16 16 32
16 16 32
16 16 32
16 16 32
16 16 32
16 16 32
16 16 32
16 16 32
16 16 32
16 16 32
16 16 32
16 16 32
16 16 32
16 16 32
16 16 32
16 16 32
16 16 32
16 16 32
16 16 32
16 16 32
255 255 255
255 255 255
255 255 255
255 255 255
255 255 255
255 255 255
255 255 255
255 255 255
16 16 32
16 16 32
16 16 32
16 16 32
16 16 32
16 16 32
16 16 32
16 16 32
16 16 32
16 16 32
255 255 255
255 255 255
255 255 255
255 255 255
255 255 255
255 255 255
16 16 32
16 16 32
16 16 32
16 16 32
16 16 32
16 16 32
16 16 32
16 16 32
16 16 32
16 16 32
16 16 32
16 16 32
16 16 32
16 16 32
16 16 32
16 16 32
16 16 32
16 16 32
16 16 32
16 16 32
16 16 32
16 16 32
16 16 32
16 16 32
16 16 32
16 16 32
16 16 32
16 16 32
255 255 255
255 255 255
16 16 32
16 16 32
16 16 32
16 16 32
16 16 32
16 16 32
16 16 32
16 16 32
16 16 32
16 16 32
16 16 32
16 16 32
255 255 255
255 255 255
255 255 255
255 255 255
255 255 255
255 255 255
16 16 32
16 16 32
16 16 32
16 16 32
16 16 32
16 16 32
16 16 32
16 16 32
16 16 32
16 16 32
16 16 32
16 16 32
16 16 32
16 16 32
16 16 32
16 16 32
16 16 32
16 16 32
16 16 32
16 16 32
16 16 32
16 16 32
16 16 32
16 16 32
16 16 32
16 16 32
255 255 255
255 255 255
255 255 255
255 255 255
255 255 255
255 255 255
16 16 32
16 16 32
16 16 32
16 16 32
16 16 32
16 16 32
16 16 32
16 16 32
16 16 32
16 16 32
16 16 32
16 16 32
16 16 32
16 16 32
16 16 32
16 16 32
16 16 32
16 16 32
16 16 32
16 16 32
16 16 32
16 16 32
16 16 32
16 16 32
255 255 255
255 255 255
255 255 255
255 255 255
255 255 255
255 255 255
255 255 255
255 255 255
255 255 255
255 255 255
16 16 32
16 16 32
16 16 32
16 16 32
16 16 32
16 16 32
255 255 255
255 255 255
255 255 255
255 255 255
255 255 255
255 255 255
255 255 255
255 255 255
255 255 255
255 255 255
16 16 32
16 16 32
16 16 32
16 16 32
16 16 32
16 16 32
16 16 32
16 16 32
255 255 255
255 255 255
255 255 255
255 255 255
255 255 255
255 255 255
255 255 255
255 255 255
16 16 32
16 16 32
16 16 32
16 16 32
16 16 32
16 16 32
255 255 255
255 255 255
255 255 255
255 255 255
255 255 255
255 255 255
255 255 255
255 255 255
255 255 255
255 255 255
16 16 32
16 16 32
16 16 32
16 16 32
16 16 32
16 16 32
16 16 32
16 16 32
16 16 32
16 16 32
16 16 32
16 16 32
16 16 32
16 16 32
16 16 32
16 16 32
16 16 32
16 16 32
16 16 32
16 16 32
16 16 32
16 16 32
16 16 32
16 16 32
16 16 32
16 16 32
16 16 32
16 16 32
16 16 32
16 16 32
16 16 32
16 16 32
16 16 32
16 16 32
16 16 32
16 16 32
16 16 32
16 16 32
16 16 32
16 16 32
16 16 32
16 16 32
16 16 32
16 16 32
16 16 32
16 16 32
16 16 32
16 16 32
16 16 32
16 16 32
16 16 32
16 16 32
16 16 32
16 16 32
255 255 255
255 255 255
255 255 255
255 255 255
255 255 255
255 255 255
255 255 255
255 255 255
255 255 255
255 255 255
16 16 32
16 16 32
16 16 32
16 16 32
16 16 32
16 16 32
16 16 32
16 16 32
16 16 32
16 16 32
16 16 32
16 16 32
16 16 32
16 16 32
16 16 32
16 16 32
16 16 32
16 16 32
16 16 32
16 16 32
16 16 32
16 16 32
16 16 32
16 16 32
255 255 255
255 255 255
255 255 255
255 255 255
255 255 255
255 255 255
16 16 32
16 16 32
16 16 32
16 16 32
16 16 32
16 16 32
16 16 32
16 16 32
16 16 32
16 16 32
255 255 255
255 255 255
255 255 255
255 255 255
255 255 255
255 255 255
16 16 32
16 16 32
16 16 32
16 16 32
16 16 32
16 16 32
16 16 32
16 16 32
16 16 32
16 16 32
255 255 255
255 255 255
255 255 255
255 255 255
255 255 255
255 255 255
16 16 32
16 16 32
16 16 32
16 16 32
16 16 32
16 16 32
16 16 32
16 16 32
16 16 32
16 16 32
255 255 255
255 255 255
255 255 255
255 255 255
255 255 255
255 255 255
16 16 32
16 16 32
16 16 32
16 16 32
16 16 32
16 16 32
16 16 32
16 16 32
16 16 32
16 16 32
255 255 255
255 255 255
255 255 255
255 255 255
255 255 255
255 255 255
16 16 32
16 16 32
16 16 32
16 16 32
16 16 32
16 16 32
16 16 32
16 16 32
16 16 32
16 16 32
255 255 255
255 255 255
255 255 255
255 255 255
255 255 255
255 255 255
16 16 32
16 16 32
16 16 32
16 16 32
16 16 32
16 16 32
16 16 32
16 16 32
16 16 32
16 16 32
16 16 32
16 16 32
16 16 32
16 16 32
16 16 32
16 16 32
16 16 32
16 16 32
16 16 32
16 16 32
16 16 32
16 16 32
16 16 32
16 16 32
16 16 32
16 16 32
16 16 32
16 16 32
16 16 32
16 16 32
16 16 32
16 16 32
255 255 255
255 255 255
16 16 32
16 16 32
16 16 32
16 16 32
16 16 32
16 16 32
16 16 32
16 16 32
16 16 32
16 16 32
255 255 255
255 255 255
16 16 32
16 16 32
16 16 32
16 16 32
16 16 32
16 16 32
16 16 32
16 16 32
16 16 32
16 16 32
16 16 32
16 16 32
255 255 255
255 255 255
255 255 255
255 255 255
255 255 255
255 255 255
16 16 32
16 16 32
16 16 32
16 16 32
16 16 32
16 16 32
16 16 32
16 16 32
16 16 32
16 16 32
255 255 255
255 255 255
255 255 255
255 255 255
255 255 255
255 255 255
16 16 32
16 16 32
16 16 32
16 16 32
16 16 32
16 16 32
16 16 32
16 16 32
16 16 32
16 16 32
255 255 255
255 255 255
255 255 255
255 255 255
255 255 255
255 255 255
16 16 32
16 16 32
16 16 32
16 16 32
16 16 32
16 16 32
16 16 32
16 16 32
16 16 32
16 16 32
16 16 32
16 16 32
16 16 32
16 16 32
16 16 32
16 16 32
16 16 32
16 16 32
16 16 32
16 16 32
16 16 32
16 16 32
16 16 32
16 16 32
16 16 32
16 16 32
255 255 255
255 255 255
255 255 255
255 255 255
255 255 255
255 255 255
16 16 32
16 16 32
16 16 32
16 16 32
16 16 32
16 16 32
16 16 32
16 16 32
16 16 32
16 16 32
16 16 32
16 16 32
16 16 32
16 16 32
16 16 32
16 16 32
16 16 32
16 16 32
16 16 32
16 16 32
16 16 32
16 16 32
16 16 32
16 16 32
16 16 32
16 16 32
255 255 255
255 255 255
255 255 255
255 255 255
255 255 255
255 255 255
16 16 32
16 16 32
16 16 32
16 16 32
16 16 32
16 16 32
16 16 32
16 16 32
16 16 32
16 16 32
255 255 255
255 255 255
255 255 255
255 255 255
255 255 255
255 255 255
16 16 32
16 16 32
16 16 32
16 16 32
16 16 32
16 16 32
16 16 32
16 16 32
255 255 255
255 255 255
255 255 255
255 255 255
255 255 255
255 255 255
255 255 255
255 255 255
255 255 255
255 255 255
16 16 32
16 16 32
16 16 32
16 16 32
16 16 32
16 16 32
255 255 255
255 255 255
255 255 255
255 255 255
255 255 255
255 255 255
255 255 255
255 255 255
255 255 255
255 255 255
16 16 32
16 16 32
16 16 32
16 16 32
16 16 32
16 16 32
16 16 32
16 16 32
255 255 255
255 255 255
255 255 255
255 255 255
255 255 255
255 255 255
16 16 32
16 16 32
16 16 32
16 16 32
16 16 32
16 16 32
16 16 32
16 16 32
16 16 32
16 16 32
16 16 32
16 16 32
16 16 32
16 16 32
255 255 255
255 255 255
16 16 32
16 16 32
16 16 32
16 16 32
16 16 32
16 16 32
16 16 32
16 16 32
16 16 32
16 16 32
16 16 32
16 16 32
16 16 32
16 16 32
16 16 32
16 16 32
16 16 32
16 16 32
16 16 32
16 16 32
16 16 32
16 16 32
16 16 32
16 16 32
255 255 255
255 255 255
255 255 255
255 255 255
255 255 255
255 255 255
255 255 255
255 255 255
16 16 32
16 16 32
16 16 32
16 16 32
16 16 32
16 16 32
16 16 32
16 16 32
16 16 32
16 16 32
16 16 32
16 16 32
16 16 32
16 16 32
16 16 32
16 16 32
16 16 32
16 16 32
16 16 32
16 16 32
16 16 32
16 16 32
16 16 32
16 16 32
16 16 32
16 16 32
255 255 255
255 255 255
255 255 255
255 255 255
255 255 255
255 255 255
16 16 32
16 16 32
16 16 32
16 16 32
16 16 32
16 16 32
16 16 32
16 16 32
16 16 32
16 16 32
255 255 255
255 255 255
255 255 255
255 255 255
255 255 255
255 255 255
16 16 32
16 16 32
16 16 32
16 16 32
16 16 32
16 16 32
16 16 32
16 16 32
16 16 32
16 16 32
16 16 32
16 16 32
255 255 255
255 255 255
16 16 32
16 16 32
16 16 32
16 16 32
16 16 32
16 16 32
16 16 32
16 16 32
16 16 32
16 16 32
16 16 32
16 16 32
255 255 255
255 255 255
255 255 255
255 255 255
255 255 255
255 255 255
16 16 32
16 16 32
16 16 32
16 16 32
16 16 32
16 16 32
16 16 32
16 16 32
16 16 32
16 16 32
255 255 255
255 255 255
255 255 255
255 255 255
255 255 255
255 255 255
16 16 32
16 16 32
16 16 32
16 16 32
16 16 32
16 16 32
16 16 32
16 16 32
16 16 32
16 16 32
255 255 255
255 255 255
255 255 255
255 255 255
255 255 255
255 255 255
16 16 32
16 16 32
16 16 32
16 16 32
16 16 32
16 16 32
16 16 32
16 16 32
16 16 32
16 16 32
16 16 32
16 16 32
16 16 32
16 16 32
16 16 32
16 16 32
16 16 32
16 16 32
16 16 32
16 16 32
16 16 32
16 16 32
16 16 32
16 16 32
16 16 32
16 16 32
16 16 32
16 16 32
16 16 32
16 16 32
16 16 32
16 16 32
16 16 32
16 16 32
16 16 32
16 16 32
16 16 32
16 16 32
16 16 32
16 16 32
16 16 32
16 16 32
16 16 32
16 16 32
16 16 32
16 16 32
16 16 32
16 16 32
16 16 32
16 16 32
16 16 32
16 16 32
16 16 32
16 16 32
16 16 32
16 16 32
255 255 255
255 255 255
16 16 32
16 16 32
16 16 32
16 16 32
16 16 32
16 16 32
255 255 255
255 255 255
16 16 32
16 16 32
16 16 32
16 16 32
16 16 32
16 16 32
16 16 32
16 16 32
16 16 32
16 16 32
16 16 32
16 16 32
16 16 32
16 16 32
16 16 32
16 16 32
16 16 32
16 16 32
16 16 32
16 16 32
16 16 32
16 16 32
255 255 255
255 255 255
255 255 255
255 255 255
255 255 255
255 255 255
255 255 255
255 255 255
255 255 255
255 255 255
16 16 32
16 16 32
16 16 32
16 16 32
16 16 32
16 16 32
16 16 32
16 16 32
16 16 32
16 16 32
16 16 32
16 16 32
16 16 32
16 16 32
16 16 32
16 16 32
16 16 32
16 16 32
16 16 32
16 16 32
16 16 32
16 16 32
16 16 32
16 16 32
255 255 255
255 255 255
255 255 255
255 255 255
255 255 255
255 255 255
16 16 32
16 16 32
16 16 32
16 16 32
16 16 32
16 16 32
16 16 32
16 16 32
255 255 255
255 255 255
255 255 255
255 255 255
255 255 255
255 255 255
255 255 255
255 255 255
255 255 255
255 255 255
16 16 32
16 16 32
16 16 32
16 16 32
16 16 32
16 16 32
16 16 32
16 16 32
255 255 255
255 255 255
255 255 255
255 255 255
255 255 255
255 255 255
255 255 255
255 255 255
16 16 32
16 16 32
16 16 32
16 16 32
16 16 32
16 16 32
255 255 255
255 255 255
255 255 255
255 255 255
255 255 255
255 255 255
255 255 255
255 255 255
255 255 255
255 255 255
16 16 32
16 16 32
16 16 32
16 16 32
16 16 32
16 16 32
255 255 255
255 255 255
16 16 32
16 16 32
16 16 32
16 16 32
16 16 32
16 16 32
255 255 255
255 255 255
16 16 32
16 16 32
16 16 32
16 16 32
16 16 32
16 16 32
255 255 255
255 255 255
255 255 255
255 255 255
255 255 255
255 255 255
255 255 255
255 255 255
16 16 32
16 16 32
16 16 32
16 16 32
16 16 32
16 16 32
16 16 32
16 16 32
255 255 255
255 255 255
255 255 255
255 255 255
255 255 255
255 255 255
255 255 255
255 255 255
255 255 255
255 255 255
16 16 32
16 16 32
16 16 32
16 16 32
16 16 32
16 16 32
16 16 32
16 16 32
16 16 32
16 16 32
16 16 32
16 16 32
16 16 32
16 16 32
16 16 32
16 16 32
16 16 32
16 16 32
16 16 32
16 16 32
16 16 32
16 16 32
16 16 32
16 16 32
16 16 32
16 16 32
16 16 32
16 16 32
16 16 32
16 16 32
16 16 32
16 16 32
16 16 32
16 16 32
16 16 32
16 16 32
16 16 32
16 16 32
16 16 32
16 16 32
16 16 32
16 16 32
16 16 32
16 16 32
16 16 32
16 16 32
16 16 32
16 16 32
16 16 32
16 16 32
16 16 32
16 16 32
16 16 32
16 16 32
16 16 32
16 16 32
16 16 32
16 16 32
16 16 32
16 16 32
16 16 32
16 16 32
16 16 32
16 16 32
16 16 32
16 16 32
16 16 32
16 16 32
16 16 32
16 16 32
255 255 255
255 255 255
255 255 255
255 255 255
255 255 255
255 255 255
255 255 255
255 255 255
16 16 32
16 16 32
16 16 32
16 16 32
16 16 32
16 16 32
16 16 32
16 16 32
16 16 32
16 16 32
255 255 255
255 255 255
255 255 255
255 255 255
255 255 255
255 255 255
16 16 32
16 16 32
16 16 32
16 16 32
16 16 32
16 16 32
16 16 32
16 16 32
16 16 32
16 16 32
16 16 32
16 16 32
16 16 32
16 16 32
16 16 32
16 16 32
16 16 32
16 16 32
16 16 32
16 16 32
16 16 32
16 16 32
16 16 32
16 16 32
16 16 32
16 16 32
16 16 32
16 16 32
255 255 255
255 255 255
16 16 32
16 16 32
16 16 32
16 16 32
16 16 32
16 16 32
16 16 32
16 16 32
16 16 32
16 16 32
16 16 32
16 16 32
255 255 255
255 255 255
255 255 255
255 255 255
255 255 255
255 255 255
16 16 32
16 16 32
16 16 32
16 16 32
16 16 32
16 16 32
16 16 32
16 16 32
16 16 32
16 16 32
16 16 32
16 16 32
16 16 32
16 16 32
16 16 32
16 16 32
16 16 32
16 16 32
16 16 32
16 16 32
16 16 32
16 16 32
16 16 32
16 16 32
16 16 32
16 16 32
255 255 255
255 255 255
255 255 255
255 255 255
255 255 255
255 255 255
16 16 32
16 16 32
16 16 32
16 16 32
16 16 32
16 16 32
16 16 32
16 16 32
16 16 32
16 16 32
16 16 32
16 16 32
16 16 32
16 16 32
16 16 32
16 16 32
16 16 32
16 16 32
16 16 32
16 16 32
16 16 32
16 16 32
16 16 32
16 16 32
255 255 255
255 255 255
255 255 255
255 255 255
255 255 255
255 255 255
255 255 255
255 255 255
255 255 255
255 255 255
16 16 32
16 16 32
16 16 32
16 16 32
16 16 32
16 16 32
255 255 255
255 255 255
255 255 255
255 255 255
255 255 255
255 255 255
255 255 255
255 255 255
255 255 255
255 255 255
16 16 32
16 16 32
16 16 32
16 16 32
16 16 32
16 16 32
16 16 32
16 16 32
255 255 255
255 255 255
255 255 255
255 255 255
255 255 255
255 255 255
255 255 255
255 255 255
16 16 32
16 16 32
16 16 32
16 16 32
16 16 32
16 16 32
255 255 255
255 255 255
255 255 255
255 255 255
255 255 255
255 255 255
255 255 255
255 255 255
255 255 255
255 255 255
16 16 32
16 16 32
16 16 32
16 16 32
16 16 32
16 16 32
16 16 32
16 16 32
16 16 32
16 16 32
16 16 32
16 16 32
16 16 32
16 16 32
16 16 32
16 16 32
16 16 32
16 16 32
16 16 32
16 16 32
16 16 32
16 16 32
16 16 32
16 16 32
16 16 32
16 16 32
16 16 32
16 16 32
16 16 32
16 16 32
16 16 32
16 16 32
16 16 32
16 16 32
16 16 32
16 16 32
16 16 32
16 16 32
16 16 32
16 16 32
16 16 32
16 16 32
16 16 32
16 16 32
16 16 32
16 16 32
16 16 32
16 16 32
16 16 32
16 16 32
16 16 32
16 16 32
16 16 32
16 16 32
255 255 255
255 255 255
255 255 255
255 255 255
255 255 255
255 255 255
255 255 255
255 255 255
255 255 255
255 255 255
16 16 32
16 16 32
16 16 32
16 16 32
16 16 32
16 16 32
16 16 32
16 16 32
16 16 32
16 16 32
16 16 32
16 16 32
16 16 32
16 16 32
16 16 32
16 16 32
16 16 32
16 16 32
16 16 32
16 16 32
16 16 32
16 16 32
16 16 32
16 16 32
255 255 255
255 255 255
255 255 255
255 255 255
255 255 255
255 255 255
16 16 32
16 16 32
16 16 32
16 16 32
16 16 32
16 16 32
16 16 32
16 16 32
16 16 32
16 16 32
255 255 255
255 255 255
255 255 255
255 255 255
255 255 255
255 255 255
16 16 32
16 16 32
16 16 32
16 16 32
16 16 32
16 16 32
16 16 32
16 16 32
16 16 32
16 16 32
255 255 255
255 255 255
255 255 255
255 255 255
255 255 255
255 255 255
16 16 32
16 16 32
16 16 32
16 16 32
16 16 32
16 16 32
16 16 32
16 16 32
16 16 32
16 16 32
255 255 255
255 255 255
255 255 255
255 255 255
255 255 255
255 255 255
16 16 32
16 16 32
16 16 32
16 16 32
16 16 32
16 16 32
16 16 32
16 16 32
16 16 32
16 16 32
255 255 255
255 255 255
255 255 255
255 255 255
255 255 255
255 255 255
16 16 32
16 16 32
16 16 32
16 16 32
16 16 32
16 16 32
16 16 32
16 16 32
16 16 32
16 16 32
255 255 255
255 255 255
255 255 255
255 255 255
255 255 255
255 255 255
16 16 32
16 16 32
16 16 32
16 16 32
16 16 32
16 16 32
16 16 32
16 16 32
16 16 32
16 16 32
16 16 32
16 16 32
16 16 32
16 16 32
16 16 32
16 16 32
16 16 32
16 16 32
16 16 32
16 16 32
16 16 32
16 16 32
16 16 32
16 16 32
16 16 32
16 16 32
16 16 32
16 16 32
16 16 32
16 16 32
16 16 32
16 16 32
255 255 255
255 255 255
16 16 32
16 16 32
16 16 32
16 16 32
16 16 32
16 16 32
16 16 32
16 16 32
16 16 32
16 16 32
255 255 255
255 255 255
16 16 32
16 16 32
16 16 32
16 16 32
16 16 32
16 16 32
16 16 32
16 16 32
16 16 32
16 16 32
16 16 32
16 16 32
255 255 255
255 255 255
255 255 255
255 255 255
255 255 255
255 255 255
16 16 32
16 16 32
16 16 32
16 16 32
16 16 32
16 16 32
16 16 32
16 16 32
16 16 32
16 16 32
255 255 255
255 255 255
255 255 255
255 255 255
255 255 255
255 255 255
16 16 32
16 16 32
16 16 32
16 16 32
16 16 32
16 16 32
16 16 32
16 16 32
16 16 32
16 16 32
255 255 255
255 255 255
255 255 255
255 255 255
255 255 255
255 255 255
16 16 32
16 16 32
16 16 32
16 16 32
16 16 32
16 16 32
16 16 32
16 16 32
16 16 32
16 16 32
16 16 32
16 16 32
16 16 32
16 16 32
16 16 32
16 16 32
16 16 32
16 16 32
16 16 32
16 16 32
16 16 32
16 16 32
16 16 32
16 16 32
16 16 32
16 16 32
255 255 255
255 255 255
255 255 255
255 255 255
255 255 255
255 255 255
16 16 32
16 16 32
16 16 32
16 16 32
16 16 32
16 16 32
16 16 32
16 16 32
16 16 32
16 16 32
16 16 32
16 16 32
16 16 32
16 16 32
16 16 32
16 16 32
16 16 32
16 16 32
16 16 32
16 16 32
16 16 32
16 16 32
16 16 32
16 16 32
16 16 32
16 16 32
255 255 255
255 255 255
255 255 255
255 255 255
255 255 255
255 255 255
16 16 32
16 16 32
16 16 32
16 16 32
16 16 32
16 16 32
16 16 32
16 16 32
16 16 32
16 16 32
255 255 255
255 255 255
255 255 255
255 255 255
255 255 255
255 255 255
16 16 32
16 16 32
16 16 32
16 16 32
16 16 32
16 16 32
16 16 32
16 16 32
255 255 255
255 255 255
255 255 255
255 255 255
255 255 255
255 255 255
255 255 255
255 255 255
255 255 255
255 255 255
16 16 32
16 16 32
16 16 32
16 16 32
16 16 32
16 16 32
255 255 255
255 255 255
255 255 255
255 255 255
255 255 255
255 255 255
255 255 255
255 255 255
255 255 255
255 255 255
16 16 32
16 16 32
16 16 32
16 16 32
16 16 32
16 16 32
16 16 32
16 16 32
255 255 255
255 255 255
255 255 255
255 255 255
255 255 255
255 255 255
16 16 32
16 16 32
16 16 32
16 16 32
16 16 32
16 16 32
16 16 32
16 16 32
16 16 32
16 16 32
16 16 32
16 16 32
16 16 32
16 16 32
255 255 255
255 255 255
16 16 32
16 16 32
16 16 32
16 16 32
16 16 32
16 16 32
16 16 32
16 16 32
16 16 32
16 16 32
16 16 32
16 16 32
16 16 32
16 16 32
16 16 32
16 16 32
16 16 32
16 16 32
16 16 32
16 16 32
16 16 32
16 16 32
16 16 32
16 16 32
255 255 255
255 255 255
255 255 255
255 255 255
255 255 255
255 255 255
255 255 255
255 255 255
16 16 32
16 16 32
16 16 32
16 16 32
16 16 32
16 16 32
16 16 32
16 16 32
16 16 32
16 16 32
16 16 32
16 16 32
16 16 32
16 16 32
16 16 32
16 16 32
16 16 32
16 16 32
16 16 32
16 16 32
16 16 32
16 16 32
16 16 32
16 16 32
16 16 32
16 16 32
255 255 255
255 255 255
255 255 255
255 255 255
255 255 255
255 255 255
16 16 32
16 16 32
16 16 32
16 16 32
16 16 32
16 16 32
16 16 32
16 16 32
16 16 32
16 16 32
255 255 255
255 255 255
255 255 255
255 255 255
255 255 255
255 255 255
16 16 32
16 16 32
16 16 32
16 16 32
16 16 32
16 16 32
16 16 32
16 16 32
16 16 32
16 16 32
16 16 32
16 16 32
255 255 255
255 255 255
16 16 32
16 16 32
16 16 32
16 16 32
16 16 32
16 16 32
16 16 32
16 16 32
16 16 32
16 16 32
16 16 32
16 16 32
255 255 255
255 255 255
255 255 255
255 255 255
255 255 255
255 255 255
16 16 32
16 16 32
16 16 32
16 16 32
16 16 32
16 16 32
16 16 32
16 16 32
16 16 32
16 16 32
255 255 255
255 255 255
255 255 255
255 255 255
255 255 255
255 255 255
16 16 32
16 16 32
16 16 32
16 16 32
16 16 32
16 16 32
16 16 32
16 16 32
16 16 32
16 16 32
255 255 255
255 255 255
255 255 255
255 255 255
255 255 255
255 255 255
16 16 32
16 16 32
16 16 32
16 16 32
16 16 32
16 16 32
16 16 32
16 16 32
16 16 32
16 16 32
16 16 32
16 16 32
16 16 32
16 16 32
16 16 32
16 16 32
16 16 32
16 16 32
16 16 32
16 16 32
16 16 32
16 16 32
16 16 32
16 16 32
16 16 32
16 16 32
16 16 32
16 16 32
16 16 32
16 16 32
16 16 32
16 16 32
16 16 32
16 16 32
16 16 32
16 16 32
16 16 32
16 16 32
16 16 32
16 16 32
16 16 32
16 16 32
16 16 32
16 16 32
16 16 32
16 16 32
16 16 32
16 16 32
16 16 32
16 16 32
16 16 32
16 16 32
16 16 32
16 16 32
16 16 32
16 16 32
255 255 255
255 255 255
255 255 255
255 255 255
16 16 32
16 16 32
255 255 255
255 255 255
255 255 255
255 255 255
16 16 32
16 16 32
16 16 32
16 16 32
16 16 32
16 16 32
16 16 32
16 16 32
16 16 32
16 16 32
255 255 255
255 255 255
16 16 32
16 16 32
16 16 32
16 16 32
16 16 32
16 16 32
16 16 32
16 16 32
16 16 32
16 16 32
16 16 32
16 16 32
16 16 32
16 16 32
16 16 32
16 16 32
16 16 32
16 16 32
255 255 255
255 255 255
16 16 32
16 16 32
16 16 32
16 16 32
16 16 32
16 16 32
16 16 32
16 16 32
16 16 32
16 16 32
16 16 32
16 16 32
16 16 32
16 16 32
16 16 32
16 16 32
16 16 32
16 16 32
16 16 32
16 16 32
16 16 32
16 16 32
255 255 255
255 255 255
16 16 32
16 16 32
16 16 32
16 16 32
16 16 32
16 16 32
255 255 255
255 255 255
16 16 32
16 16 32
16 16 32
16 16 32
16 16 32
16 16 32
255 255 255
255 255 255
16 16 32
16 16 32
16 16 32
16 16 32
16 16 32
16 16 32
16 16 32
16 16 32
16 16 32
16 16 32
16 16 32
16 16 32
16 16 32
16 16 32
255 255 255
255 255 255
16 16 32
16 16 32
16 16 32
16 16 32
16 16 32
16 16 32
16 16 32
16 16 32
16 16 32
16 16 32
16 16 32
16 16 32
16 16 32
16 16 32
16 16 32
16 16 32
16 16 32
16 16 32
255 255 255
255 255 255
16 16 32
16 16 32
16 16 32
16 16 32
16 16 32
16 16 32
16 16 32
16 16 32
16 16 32
16 16 32
255 255 255
255 255 255
16 16 32
16 16 32
16 16 32
16 16 32
16 16 32
16 16 32
255 255 255
255 255 255
16 16 32
16 16 32
16 16 32
16 16 32
16 16 32
16 16 32
255 255 255
255 255 255
16 16 32
16 16 32
16 16 32
16 16 32
16 16 32
16 16 32
255 255 255
255 255 255
16 16 32
16 16 32
16 16 32
16 16 32
16 16 32
16 16 32
255 255 255
255 255 255
16 16 32
16 16 32
16 16 32
16 16 32
16 16 32
16 16 32
16 16 32
16 16 32
16 16 32
16 16 32
16 16 32
16 16 32
16 16 32
16 16 32
16 16 32
16 16 32
16 16 32
16 16 32
16 16 32
16 16 32
16 16 32
16 16 32
16 16 32
16 16 32
16 16 32
16 16 32
16 16 32
16 16 32
16 16 32
16 16 32
16 16 32
16 16 32
16 16 32
16 16 32
16 16 32
16 16 32
16 16 32
16 16 32
16 16 32
16 16 32
16 16 32
16 16 32
16 16 32
16 16 32
16 16 32
16 16 32
16 16 32
16 16 32
16 16 32
16 16 32
16 16 32
16 16 32
16 16 32
16 16 32
16 16 32
16 16 32
16 16 32
16 16 32
16 16 32
16 16 32
16 16 32
16 16 32
16 16 32
16 16 32
16 16 32
16 16 32
16 16 32
16 16 32
16 16 32
16 16 32
16 16 32
16 16 32
16 16 32
16 16 32
16 16 32
16 16 32
16 16 32
16 16 32
255 255 255
255 255 255
16 16 32
16 16 32
16 16 32
16 16 32
16 16 32
16 16 32
255 255 255
255 255 255
16 16 32
16 16 32
16 16 32
16 16 32
16 16 32
16 16 32
255 255 255
255 255 255
16 16 32
16 16 32
16 16 32
16 16 32
16 16 32
16 16 32
255 255 255
255 255 255
16 16 32
16 16 32
16 16 32
16 16 32
16 16 32
16 16 32
16 16 32
16 16 32
16 16 32
16 16 32
255 255 255
255 255 255
16 16 32
16 16 32
16 16 32
16 16 32
16 16 32
16 16 32
16 16 32
16 16 32
16 16 32
16 16 32
16 16 32
16 16 32
255 255 255
255 255 255
255 255 255
255 255 255
16 16 32
16 16 32
16 16 32
16 16 32
16 16 32
16 16 32
16 16 32
16 16 32
16 16 32
16 16 32
255 255 255
255 255 255
16 16 32
16 16 32
16 16 32
16 16 32
16 16 32
16 16 32
255 255 255
255 255 255
16 16 32
16 16 32
16 16 32
16 16 32
16 16 32
16 16 32
16 16 32
16 16 32
16 16 32
16 16 32
16 16 32
16 16 32
16 16 32
16 16 32
16 16 32
16 16 32
16 16 32
16 16 32
16 16 32
16 16 32
16 16 32
16 16 32
255 255 255
255 255 255
16 16 32
16 16 32
16 16 32
16 16 32
16 16 32
16 16 32
255 255 255
255 255 255
16 16 32
16 16 32
16 16 32
16 16 32
16 16 32
16 16 32
16 16 32
16 16 32
16 16 32
16 16 32
255 255 255
255 255 255
16 16 32
16 16 32
16 16 32
16 16 32
16 16 32
16 16 32
16 16 32
16 16 32
16 16 32
16 16 32
255 255 255
255 255 255
16 16 32
16 16 32
16 16 32
16 16 32
16 16 32
16 16 32
16 16 32
16 16 32
16 16 32
16 16 32
16 16 32
16 16 32
16 16 32
16 16 32
16 16 32
16 16 32
16 16 32
16 16 32
255 255 255
255 255 255
16 16 32
16 16 32
16 16 32
16 16 32
16 16 32
16 16 32
16 16 32
16 16 32
16 16 32
16 16 32
255 255 255
255 255 255
16 16 32
16 16 32
16 16 32
16 16 32
16 16 32
16 16 32
16 16 32
16 16 32
16 16 32
16 16 32
16 16 32
16 16 32
16 16 32
16 16 32
16 16 32
16 16 32
16 16 32
16 16 32
255 255 255
255 255 255
16 16 32
16 16 32
16 16 32
16 16 32
16 16 32
16 16 32
16 16 32
16 16 32
16 16 32
16 16 32
16 16 32
16 16 32
16 16 32
16 16 32
16 16 32
16 16 32
16 16 32
16 16 32
16 16 32
16 16 32
16 16 32
16 16 32
16 16 32
16 16 32
16 16 32
16 16 32
16 16 32
16 16 32
16 16 32
16 16 32
16 16 32
16 16 32
16 16 32
16 16 32
16 16 32
16 16 32
16 16 32
16 16 32
16 16 32
16 16 32
16 16 32
16 16 32
16 16 32
16 16 32
16 16 32
16 16 32
16 16 32
16 16 32
16 16 32
16 16 32
16 16 32
16 16 32
16 16 32
16 16 32
16 16 32
16 16 32
16 16 32
16 16 32
255 255 255
255 255 255
16 16 32
16 16 32
16 16 32
16 16 32
16 16 32
16 16 32
16 16 32
16 16 32
16 16 32
16 16 32
16 16 32
16 16 32
16 16 32
16 16 32
16 16 32
16 16 32
16 16 32
16 16 32
255 255 255
255 255 255
16 16 32
16 16 32
16 16 32
16 16 32
16 16 32
16 16 32
16 16 32
16 16 32
16 16 32
16 16 32
255 255 255
255 255 255
16 16 32
16 16 32
16 16 32
16 16 32
16 16 32
16 16 32
255 255 255
255 255 255
16 16 32
16 16 32
16 16 32
16 16 32
16 16 32
16 16 32
255 255 255
255 255 255
16 16 32
16 16 32
16 16 32
16 16 32
16 16 32
16 16 32
255 255 255
255 255 255
16 16 32
16 16 32
16 16 32
16 16 32
16 16 32
16 16 32
255 255 255
255 255 255
16 16 32
16 16 32
16 16 32
16 16 32
16 16 32
16 16 32
255 255 255
255 255 255
16 16 32
16 16 32
16 16 32
16 16 32
16 16 32
16 16 32
255 255 255
255 255 255
16 16 32
16 16 32
16 16 32
16 16 32
16 16 32
16 16 32
255 255 255
255 255 255
16 16 32
16 16 32
16 16 32
16 16 32
16 16 32
16 16 32
255 255 255
255 255 255
16 16 32
16 16 32
16 16 32
16 16 32
16 16 32
16 16 32
255 255 255
255 255 255
16 16 32
16 16 32
16 16 32
16 16 32
16 16 32
16 16 32
255 255 255
255 255 255
16 16 32
16 16 32
16 16 32
16 16 32
16 16 32
16 16 32
255 255 255
255 255 255
16 16 32
16 16 32
16 16 32
16 16 32
16 16 32
16 16 32
16 16 32
16 16 32
16 16 32
16 16 32
16 16 32
16 16 32
16 16 32
16 16 32
16 16 32
16 16 32
16 16 32
16 16 32
16 16 32
16 16 32
16 16 32
16 16 32
16 16 32
16 16 32
16 16 32
16 16 32
16 16 32
16 16 32
255 255 255
255 255 255
16 16 32
16 16 32
16 16 32
16 16 32
16 16 32
16 16 32
16 16 32
16 16 32
16 16 32
16 16 32
255 255 255
255 255 255
255 255 255
255 255 255
16 16 32
16 16 32
16 16 32
16 16 32
16 16 32
16 16 32
16 16 32
16 16 32
16 16 32
16 16 32
255 255 255
255 255 255
16 16 32
16 16 32
16 16 32
16 16 32
16 16 32
16 16 32
255 255 255
255 255 255
16 16 32
16 16 32
16 16 32
16 16 32
16 16 32
16 16 32
255 255 255
255 255 255
16 16 32
16 16 32
16 16 32
16 16 32
16 16 32
16 16 32
255 255 255
255 255 255
16 16 32
16 16 32
16 16 32
16 16 32
16 16 32
16 16 32
255 255 255
255 255 255
16 16 32
16 16 32
16 16 32
16 16 32
16 16 32
16 16 32
255 255 255
255 255 255
16 16 32
16 16 32
16 16 32
16 16 32
16 16 32
16 16 32
16 16 32
16 16 32
16 16 32
16 16 32
16 16 32
16 16 32
16 16 32
16 16 32
16 16 32
16 16 32
16 16 32
16 16 32
16 16 32
16 16 32
16 16 32
16 16 32
255 255 255
255 255 255
16 16 32
16 16 32
16 16 32
16 16 32
16 16 32
16 16 32
255 255 255
255 255 255
16 16 32
16 16 32
16 16 32
16 16 32
16 16 32
16 16 32
16 16 32
16 16 32
16 16 32
16 16 32
255 255 255
255 255 255
16 16 32
16 16 32
16 16 32
16 16 32
16 16 32
16 16 32
16 16 32
16 16 32
16 16 32
16 16 32
255 255 255
255 255 255
16 16 32
16 16 32
16 16 32
16 16 32
16 16 32
16 16 32
255 255 255
255 255 255
16 16 32
16 16 32
16 16 32
16 16 32
16 16 32
16 16 32
255 255 255
255 255 255
16 16 32
16 16 32
16 16 32
16 16 32
16 16 32
16 16 32
16 16 32
16 16 32
16 16 32
16 16 32
16 16 32
16 16 32
16 16 32
16 16 32
255 255 255
255 255 255
16 16 32
16 16 32
16 16 32
16 16 32
16 16 32
16 16 32
16 16 32
16 16 32
16 16 32
16 16 32
16 16 32
16 16 32
16 16 32
16 16 32
255 255 255
255 255 255
16 16 32
16 16 32
16 16 32
16 16 32
16 16 32
16 16 32
16 16 32
16 16 32
16 16 32
16 16 32
16 16 32
16 16 32
16 16 32
16 16 32
255 255 255
255 255 255
16 16 32
16 16 32
16 16 32
16 16 32
16 16 32
16 16 32
255 255 255
255 255 255
16 16 32
16 16 32
16 16 32
16 16 32
16 16 32
16 16 32
16 16 32
16 16 32
16 16 32
16 16 32
255 255 255
255 255 255
255 255 255
255 255 255
16 16 32
16 16 32
16 16 32
16 16 32
16 16 32
16 16 32
16 16 32
16 16 32
16 16 32
16 16 32
16 16 32
16 16 32
16 16 32
16 16 32
16 16 32
16 16 32
16 16 32
16 16 32
16 16 32
16 16 32
16 16 32
16 16 32
16 16 32
16 16 32
255 255 255
255 255 255
16 16 32
16 16 32
16 16 32
16 16 32
16 16 32
16 16 32
255 255 255
255 255 255
16 16 32
16 16 32
16 16 32
16 16 32
16 16 32
16 16 32
16 16 32
16 16 32
16 16 32
16 16 32
255 255 255
255 255 255
16 16 32
16 16 32
16 16 32
16 16 32
16 16 32
16 16 32
16 16 32
16 16 32
16 16 32
16 16 32
255 255 255
255 255 255
16 16 32
16 16 32
16 16 32
16 16 32
16 16 32
16 16 32
255 255 255
255 255 255
16 16 32
16 16 32
16 16 32
16 16 32
16 16 32
16 16 32
255 255 255
255 255 255
16 16 32
16 16 32
16 16 32
16 16 32
16 16 32
16 16 32
255 255 255
255 255 255
16 16 32
16 16 32
16 16 32
16 16 32
16 16 32
16 16 32
16 16 32
16 16 32
255 255 255
255 255 255
255 255 255
255 255 255
16 16 32
16 16 32
16 16 32
16 16 32
16 16 32
16 16 32
16 16 32
16 16 32
16 16 32
16 16 32
255 255 255
255 255 255
16 16 32
16 16 32
16 16 32
16 16 32
16 16 32
16 16 32
255 255 255
255 255 255
16 16 32
16 16 32
16 16 32
16 16 32
16 16 32
16 16 32
255 255 255
255 255 255
16 16 32
16 16 32
16 16 32
16 16 32
16 16 32
16 16 32
255 255 255
255 255 255
16 16 32
16 16 32
16 16 32
16 16 32
16 16 32
16 16 32
255 255 255
255 255 255
16 16 32
16 16 32
16 16 32
16 16 32
16 16 32
16 16 32
255 255 255
255 255 255
16 16 32
16 16 32
16 16 32
16 16 32
16 16 32
16 16 32
16 16 32
16 16 32
16 16 32
16 16 32
16 16 32
16 16 32
16 16 32
16 16 32
16 16 32
16 16 32
16 16 32
16 16 32
16 16 32
16 16 32
16 16 32
16 16 32
16 16 32
16 16 32
16 16 32
16 16 32
16 16 32
16 16 32
16 16 32
16 16 32
16 16 32
16 16 32
16 16 32
16 16 32
16 16 32
16 16 32
16 16 32
16 16 32
16 16 32
16 16 32
16 16 32
16 16 32
16 16 32
16 16 32
16 16 32
16 16 32
16 16 32
16 16 32
16 16 32
16 16 32
16 16 32
16 16 32
16 16 32
16 16 32
255 255 255
255 255 255
255 255 255
255 255 255
16 16 32
16 16 32
255 255 255
255 255 255
255 255 255
255 255 255
16 16 32
16 16 32
16 16 32
16 16 32
16 16 32
16 16 32
16 16 32
16 16 32
16 16 32
16 16 32
255 255 255
255 255 255
16 16 32
16 16 32
16 16 32
16 16 32
16 16 32
16 16 32
16 16 32
16 16 32
16 16 32
16 16 32
16 16 32
16 16 32
16 16 32
16 16 32
16 16 32
16 16 32
16 16 32
16 16 32
255 255 255
255 255 255
16 16 32
16 16 32
16 16 32
16 16 32
16 16 32
16 16 32
16 16 32
16 16 32
16 16 32
16 16 32
16 16 32
16 16 32
16 16 32
16 16 32
16 16 32
16 16 32
16 16 32
16 16 32
16 16 32
16 16 32
16 16 32
16 16 32
255 255 255
255 255 255
16 16 32
16 16 32
16 16 32
16 16 32
16 16 32
16 16 32
255 255 255
255 255 255
16 16 32
16 16 32
16 16 32
16 16 32
16 16 32
16 16 32
255 255 255
255 255 255
16 16 32
16 16 32
16 16 32
16 16 32
16 16 32
16 16 32
16 16 32
16 16 32
16 16 32
16 16 32
16 16 32
16 16 32
16 16 32
16 16 32
255 255 255
255 255 255
16 16 32
16 16 32
16 16 32
16 16 32
16 16 32
16 16 32
16 16 32
16 16 32
16 16 32
16 16 32
16 16 32
16 16 32
16 16 32
16 16 32
16 16 32
16 16 32
16 16 32
16 16 32
255 255 255
255 255 255
16 16 32
16 16 32
16 16 32
16 16 32
16 16 32
16 16 32
16 16 32
16 16 32
16 16 32
16 16 32
255 255 255
255 255 255
16 16 32
16 16 32
16 16 32
16 16 32
16 16 32
16 16 32
255 255 255
255 255 255
16 16 32
16 16 32
16 16 32
16 16 32
16 16 32
16 16 32
255 255 255
255 255 255
16 16 32
16 16 32
16 16 32
16 16 32
16 16 32
16 16 32
255 255 255
255 255 255
16 16 32
16 16 32
16 16 32
16 16 32
16 16 32
16 16 32
255 255 255
255 255 255
16 16 32
16 16 32
16 16 32
16 16 32
16 16 32
16 16 32
16 16 32
16 16 32
16 16 32
16 16 32
16 16 32
16 16 32
16 16 32
16 16 32
16 16 32
16 16 32
16 16 32
16 16 32
16 16 32
16 16 32
16 16 32
16 16 32
16 16 32
16 16 32
16 16 32
16 16 32
16 16 32
16 16 32
16 16 32
16 16 32
16 16 32
16 16 32
16 16 32
16 16 32
16 16 32
16 16 32
16 16 32
16 16 32
16 16 32
16 16 32
16 16 32
16 16 32
16 16 32
16 16 32
16 16 32
16 16 32
16 16 32
16 16 32
16 16 32
16 16 32
16 16 32
16 16 32
16 16 32
16 16 32
16 16 32
16 16 32
16 16 32
16 16 32
16 16 32
16 16 32
16 16 32
16 16 32
16 16 32
16 16 32
16 16 32
16 16 32
16 16 32
16 16 32
16 16 32
16 16 32
16 16 32
16 16 32
16 16 32
16 16 32
16 16 32
16 16 32
16 16 32
16 16 32
255 255 255
255 255 255
16 16 32
16 16 32
16 16 32
16 16 32
16 16 32
16 16 32
255 255 255
255 255 255
16 16 32
16 16 32
16 16 32
16 16 32
16 16 32
16 16 32
255 255 255
255 255 255
16 16 32
16 16 32
16 16 32
16 16 32
16 16 32
16 16 32
255 255 255
255 255 255
16 16 32
16 16 32
16 16 32
16 16 32
16 16 32
16 16 32
16 16 32
16 16 32
16 16 32
16 16 32
255 255 255
255 255 255
16 16 32
16 16 32
16 16 32
16 16 32
16 16 32
16 16 32
16 16 32
16 16 32
16 16 32
16 16 32
16 16 32
16 16 32
255 255 255
255 255 255
255 255 255
255 255 255
16 16 32
16 16 32
16 16 32
16 16 32
16 16 32
16 16 32
16 16 32
16 16 32
16 16 32
16 16 32
255 255 255
255 255 255
16 16 32
16 16 32
16 16 32
16 16 32
16 16 32
16 16 32
255 255 255
255 255 255
16 16 32
16 16 32
16 16 32
16 16 32
16 16 32
16 16 32
16 16 32
16 16 32
16 16 32
16 16 32
16 16 32
16 16 32
16 16 32
16 16 32
16 16 32
16 16 32
16 16 32
16 16 32
16 16 32
16 16 32
16 16 32
16 16 32
255 255 255
255 255 255
16 16 32
16 16 32
16 16 32
16 16 32
16 16 32
16 16 32
255 255 255
255 255 255
16 16 32
16 16 32
16 16 32
16 16 32
16 16 32
16 16 32
16 16 32
16 16 32
16 16 32
16 16 32
255 255 255
255 255 255
16 16 32
16 16 32
16 16 32
16 16 32
16 16 32
16 16 32
16 16 32
16 16 32
16 16 32
16 16 32
255 255 255
255 255 255
16 16 32
16 16 32
16 16 32
16 16 32
16 16 32
16 16 32
16 16 32
16 16 32
16 16 32
16 16 32
16 16 32
16 16 32
16 16 32
16 16 32
16 16 32
16 16 32
16 16 32
16 16 32
255 255 255
255 255 255
16 16 32
16 16 32
16 16 32
16 16 32
16 16 32
16 16 32
16 16 32
16 16 32
16 16 32
16 16 32
255 255 255
255 255 255
16 16 32
16 16 32
16 16 32
16 16 32
16 16 32
16 16 32
16 16 32
16 16 32
16 16 32
16 16 32
16 16 32
16 16 32
16 16 32
16 16 32
16 16 32
16 16 32
16 16 32
16 16 32
255 255 255
255 255 255
16 16 32
16 16 32
16 16 32
16 16 32
16 16 32
16 16 32
16 16 32
16 16 32
16 16 32
16 16 32
16 16 32
16 16 32
16 16 32
16 16 32
16 16 32
16 16 32
16 16 32
16 16 32
16 16 32
16 16 32
16 16 32
16 16 32
16 16 32
16 16 32
16 16 32
16 16 32
16 16 32
16 16 32
16 16 32
16 16 32
16 16 32
16 16 32
16 16 32
16 16 32
16 16 32
16 16 32
16 16 32
16 16 32
16 16 32
16 16 32
16 16 32
16 16 32
16 16 32
16 16 32
16 16 32
16 16 32
16 16 32
16 16 32
16 16 32
16 16 32
16 16 32
16 16 32
16 16 32
16 16 32
16 16 32
16 16 32
16 16 32
16 16 32
255 255 255
255 255 255
16 16 32
16 16 32
16 16 32
16 16 32
16 16 32
16 16 32
16 16 32
16 16 32
16 16 32
16 16 32
16 16 32
16 16 32
16 16 32
16 16 32
16 16 32
16 16 32
16 16 32
16 16 32
255 255 255
255 255 255
16 16 32
16 16 32
16 16 32
16 16 32
16 16 32
16 16 32
16 16 32
16 16 32
16 16 32
16 16 32
255 255 255
255 255 255
16 16 32
16 16 32
16 16 32
16 16 32
16 16 32
16 16 32
255 255 255
255 255 255
16 16 32
16 16 32
16 16 32
16 16 32
16 16 32
16 16 32
255 255 255
255 255 255
16 16 32
16 16 32
16 16 32
16 16 32
16 16 32
16 16 32
255 255 255
255 255 255
16 16 32
16 16 32
16 16 32
16 16 32
16 16 32
16 16 32
255 255 255
255 255 255
16 16 32
16 16 32
16 16 32
16 16 32
16 16 32
16 16 32
255 255 255
255 255 255
16 16 32
16 16 32
16 16 32
16 16 32
16 16 32
16 16 32
255 255 255
255 255 255
16 16 32
16 16 32
16 16 32
16 16 32
16 16 32
16 16 32
255 255 255
255 255 255
16 16 32
16 16 32
16 16 32
16 16 32
16 16 32
16 16 32
255 255 255
255 255 255
16 16 32
16 16 32
16 16 32
16 16 32
16 16 32
16 16 32
255 255 255
255 255 255
16 16 32
16 16 32
16 16 32
16 16 32
16 16 32
16 16 32
255 255 255
255 255 255
16 16 32
16 16 32
16 16 32
16 16 32
16 16 32
16 16 32
255 255 255
255 255 255
16 16 32
16 16 32
16 16 32
16 16 32
16 16 32
16 16 32
16 16 32
16 16 32
16 16 32
16 16 32
16 16 32
16 16 32
16 16 32
16 16 32
16 16 32
16 16 32
16 16 32
16 16 32
16 16 32
16 16 32
16 16 32
16 16 32
16 16 32
16 16 32
16 16 32
16 16 32
16 16 32
16 16 32
255 255 255
255 255 255
16 16 32
16 16 32
16 16 32
16 16 32
16 16 32
16 16 32
16 16 32
16 16 32
16 16 32
16 16 32
255 255 255
255 255 255
255 255 255
255 255 255
16 16 32
16 16 32
16 16 32
16 16 32
16 16 32
16 16 32
16 16 32
16 16 32
16 16 32
16 16 32
255 255 255
255 255 255
16 16 32
16 16 32
16 16 32
16 16 32
16 16 32
16 16 32
255 255 255
255 255 255
16 16 32
16 16 32
16 16 32
16 16 32
16 16 32
16 16 32
255 255 255
255 255 255
16 16 32
16 16 32
16 16 32
16 16 32
16 16 32
16 16 32
255 255 255
255 255 255
16 16 32
16 16 32
16 16 32
16 16 32
16 16 32
16 16 32
255 255 255
255 255 255
16 16 32
16 16 32
16 16 32
16 16 32
16 16 32
16 16 32
255 255 255
255 255 255
16 16 32
16 16 32
16 16 32
16 16 32
16 16 32
16 16 32
16 16 32
16 16 32
16 16 32
16 16 32
16 16 32
16 16 32
16 16 32
16 16 32
16 16 32
16 16 32
16 16 32
16 16 32
16 16 32
16 16 32
16 16 32
16 16 32
255 255 255
255 255 255
16 16 32
16 16 32
16 16 32
16 16 32
16 16 32
16 16 32
255 255 255
255 255 255
16 16 32
16 16 32
16 16 32
16 16 32
16 16 32
16 16 32
16 16 32
16 16 32
16 16 32
16 16 32
255 255 255
255 255 255
16 16 32
16 16 32
16 16 32
16 16 32
16 16 32
16 16 32
16 16 32
16 16 32
16 16 32
16 16 32
255 255 255
255 255 255
16 16 32
16 16 32
16 16 32
16 16 32
16 16 32
16 16 32
255 255 255
255 255 255
16 16 32
16 16 32
16 16 32
16 16 32
16 16 32
16 16 32
255 255 255
255 255 255
16 16 32
16 16 32
16 16 32
16 16 32
16 16 32
16 16 32
16 16 32
16 16 32
16 16 32
16 16 32
16 16 32
16 16 32
16 16 32
16 16 32
255 255 255
255 255 255
16 16 32
16 16 32
16 16 32
16 16 32
16 16 32
16 16 32
16 16 32
16 16 32
16 16 32
16 16 32
16 16 32
16 16 32
16 16 32
16 16 32
255 255 255
255 255 255
16 16 32
16 16 32
16 16 32
16 16 32
16 16 32
16 16 32
16 16 32
16 16 32
16 16 32
16 16 32
16 16 32
16 16 32
16 16 32
16 16 32
255 255 255
255 255 255
16 16 32
16 16 32
16 16 32
16 16 32
16 16 32
16 16 32
255 255 255
255 255 255
16 16 32
16 16 32
16 16 32
16 16 32
16 16 32
16 16 32
16 16 32
16 16 32
16 16 32
16 16 32
255 255 255
255 255 255
255 255 255
255 255 255
16 16 32
16 16 32
16 16 32
16 16 32
16 16 32
16 16 32
16 16 32
16 16 32
16 16 32
16 16 32
16 16 32
16 16 32
16 16 32
16 16 32
16 16 32
16 16 32
16 16 32
16 16 32
16 16 32
16 16 32
16 16 32
16 16 32
16 16 32
16 16 32
255 255 255
255 255 255
16 16 32
16 16 32
16 16 32
16 16 32
16 16 32
16 16 32
255 255 255
255 255 255
16 16 32
16 16 32
16 16 32
16 16 32
16 16 32
16 16 32
16 16 32
16 16 32
16 16 32
16 16 32
255 255 255
255 255 255
16 16 32
16 16 32
16 16 32
16 16 32
16 16 32
16 16 32
16 16 32
16 16 32
16 16 32
16 16 32
255 255 255
255 255 255
16 16 32
16 16 32
16 16 32
16 16 32
16 16 32
16 16 32
255 255 255
255 255 255
16 16 32
16 16 32
16 16 32
16 16 32
16 16 32
16 16 32
255 255 255
255 255 255
16 16 32
16 16 32
16 16 32
16 16 32
16 16 32
16 16 32
255 255 255
255 255 255
16 16 32
16 16 32
16 16 32
16 16 32
16 16 32
16 16 32
16 16 32
16 16 32
255 255 255
255 255 255
255 255 255
255 255 255
16 16 32
16 16 32
16 16 32
16 16 32
16 16 32
16 16 32
16 16 32
16 16 32
16 16 32
16 16 32
255 255 255
255 255 255
16 16 32
16 16 32
16 16 32
16 16 32
16 16 32
16 16 32
255 255 255
255 255 255
16 16 32
16 16 32
16 16 32
16 16 32
16 16 32
16 16 32
255 255 255
255 255 255
16 16 32
16 16 32
16 16 32
16 16 32
16 16 32
16 16 32
255 255 255
255 255 255
16 16 32
16 16 32
16 16 32
16 16 32
16 16 32
16 16 32
255 255 255
255 255 255
16 16 32
16 16 32
16 16 32
16 16 32
16 16 32
16 16 32
255 255 255
255 255 255
16 16 32
16 16 32
16 16 32
16 16 32
16 16 32
16 16 32
16 16 32
16 16 32
16 16 32
16 16 32
16 16 32
16 16 32
16 16 32
16 16 32
16 16 32
16 16 32
16 16 32
16 16 32
16 16 32
16 16 32
16 16 32
16 16 32
16 16 32
16 16 32
16 16 32
16 16 32
16 16 32
16 16 32
16 16 32
16 16 32
16 16 32
16 16 32
16 16 32
16 16 32
16 16 32
16 16 32
16 16 32
16 16 32
16 16 32
16 16 32
16 16 32
16 16 32
16 16 32
16 16 32
16 16 32
16 16 32
16 16 32
16 16 32
16 16 32
16 16 32
16 16 32
16 16 32
16 16 32
16 16 32
255 255 255
255 255 255
16 16 32
16 16 32
255 255 255
255 255 255
16 16 32
16 16 32
255 255 255
255 255 255
16 16 32
16 16 32
16 16 32
16 16 32
16 16 32
16 16 32
16 16 32
16 16 32
16 16 32
16 16 32
255 255 255
255 255 255
16 16 32
16 16 32
16 16 32
16 16 32
16 16 32
16 16 32
16 16 32
16 16 32
16 16 32
16 16 32
16 16 32
16 16 32
16 16 32
16 16 32
16 16 32
16 16 32
255 255 255
255 255 255
16 16 32
16 16 32
16 16 32
16 16 32
16 16 32
16 16 32
16 16 32
16 16 32
16 16 32
16 16 32
16 16 32
16 16 32
16 16 32
16 16 32
16 16 32
16 16 32
16 16 32
16 16 32
16 16 32
16 16 32
16 16 32
16 16 32
16 16 32
16 16 32
255 255 255
255 255 255
16 16 32
16 16 32
16 16 32
16 16 32
16 16 32
16 16 32
16 16 32
16 16 32
16 16 32
16 16 32
16 16 32
16 16 32
16 16 32
16 16 32
255 255 255
255 255 255
16 16 32
16 16 32
16 16 32
16 16 32
16 16 32
16 16 32
16 16 32
16 16 32
16 16 32
16 16 32
16 16 32
16 16 32
16 16 32
16 16 32
255 255 255
255 255 255
16 16 32
16 16 32
16 16 32
16 16 32
16 16 32
16 16 32
16 16 32
16 16 32
16 16 32
16 16 32
16 16 32
16 16 32
16 16 32
16 16 32
16 16 32
16 16 32
16 16 32
16 16 32
255 255 255
255 255 255
16 16 32
16 16 32
16 16 32
16 16 32
16 16 32
16 16 32
16 16 32
16 16 32
16 16 32
16 16 32
255 255 255
255 255 255
16 16 32
16 16 32
16 16 32
16 16 32
16 16 32
16 16 32
255 255 255
255 255 255
16 16 32
16 16 32
16 16 32
16 16 32
16 16 32
16 16 32
255 255 255
255 255 255
16 16 32
16 16 32
16 16 32
16 16 32
16 16 32
16 16 32
255 255 255
255 255 255
16 16 32
16 16 32
16 16 32
16 16 32
16 16 32
16 16 32
255 255 255
255 255 255
16 16 32
16 16 32
16 16 32
16 16 32
16 16 32
16 16 32
16 16 32
16 16 32
16 16 32
16 16 32
16 16 32
16 16 32
16 16 32
16 16 32
16 16 32
16 16 32
16 16 32
16 16 32
16 16 32
16 16 32
16 16 32
16 16 32
16 16 32
16 16 32
16 16 32
16 16 32
16 16 32
16 16 32
16 16 32
16 16 32
16 16 32
16 16 32
16 16 32
16 16 32
16 16 32
16 16 32
16 16 32
16 16 32
16 16 32
16 16 32
16 16 32
16 16 32
16 16 32
16 16 32
16 16 32
16 16 32
16 16 32
16 16 32
16 16 32
16 16 32
16 16 32
16 16 32
16 16 32
16 16 32
16 16 32
16 16 32
16 16 32
16 16 32
16 16 32
16 16 32
16 16 32
16 16 32
16 16 32
16 16 32
16 16 32
16 16 32
16 16 32
16 16 32
16 16 32
16 16 32
16 16 32
16 16 32
16 16 32
16 16 32
16 16 32
16 16 32
16 16 32
16 16 32
255 255 255
255 255 255
16 16 32
16 16 32
16 16 32
16 16 32
16 16 32
16 16 32
255 255 255
255 255 255
16 16 32
16 16 32
16 16 32
16 16 32
16 16 32
16 16 32
255 255 255
255 255 255
16 16 32
16 16 32
16 16 32
16 16 32
16 16 32
16 16 32
16 16 32
16 16 32
16 16 32
16 16 32
16 16 32
16 16 32
16 16 32
16 16 32
16 16 32
16 16 32
16 16 32
16 16 32
255 255 255
255 255 255
16 16 32
16 16 32
16 16 32
16 16 32
16 16 32
16 16 32
16 16 32
16 16 32
16 16 32
16 16 32
16 16 32
16 16 32
16 16 32
16 16 32
255 255 255
255 255 255
16 16 32
16 16 32
16 16 32
16 16 32
16 16 32
16 16 32
16 16 32
16 16 32
16 16 32
16 16 32
255 255 255
255 255 255
16 16 32
16 16 32
16 16 32
16 16 32
255 255 255
255 255 255
255 255 255
255 255 255
16 16 32
16 16 32
16 16 32
16 16 32
16 16 32
16 16 32
16 16 32
16 16 32
16 16 32
16 16 32
16 16 32
16 16 32
16 16 32
16 16 32
16 16 32
16 16 32
16 16 32
16 16 32
16 16 32
16 16 32
16 16 32
16 16 32
255 255 255
255 255 255
16 16 32
16 16 32
16 16 32
16 16 32
16 16 32
16 16 32
16 16 32
16 16 32
16 16 32
16 16 32
16 16 32
16 16 32
16 16 32
16 16 32
16 16 32
16 16 32
16 16 32
16 16 32
255 255 255
255 255 255
16 16 32
16 16 32
16 16 32
16 16 32
16 16 32
16 16 32
16 16 32
16 16 32
16 16 32
16 16 32
255 255 255
255 255 255
16 16 32
16 16 32
16 16 32
16 16 32
16 16 32
16 16 32
16 16 32
16 16 32
16 16 32
16 16 32
16 16 32
16 16 32
16 16 32
16 16 32
16 16 32
16 16 32
16 16 32
16 16 32
255 255 255
255 255 255
16 16 32
16 16 32
16 16 32
16 16 32
16 16 32
16 16 32
16 16 32
16 16 32
16 16 32
16 16 32
255 255 255
255 255 255
16 16 32
16 16 32
16 16 32
16 16 32
16 16 32
16 16 32
16 16 32
16 16 32
16 16 32
16 16 32
16 16 32
16 16 32
16 16 32
16 16 32
16 16 32
16 16 32
16 16 32
16 16 32
255 255 255
255 255 255
16 16 32
16 16 32
16 16 32
16 16 32
16 16 32
16 16 32
16 16 32
16 16 32
16 16 32
16 16 32
16 16 32
16 16 32
16 16 32
16 16 32
16 16 32
16 16 32
16 16 32
16 16 32
16 16 32
16 16 32
16 16 32
16 16 32
16 16 32
16 16 32
16 16 32
16 16 32
16 16 32
16 16 32
16 16 32
16 16 32
16 16 32
16 16 32
16 16 32
16 16 32
16 16 32
16 16 32
16 16 32
16 16 32
16 16 32
16 16 32
16 16 32
16 16 32
16 16 32
16 16 32
16 16 32
16 16 32
16 16 32
16 16 32
16 16 32
16 16 32
16 16 32
16 16 32
16 16 32
16 16 32
16 16 32
16 16 32
16 16 32
16 16 32
255 255 255
255 255 255
16 16 32
16 16 32
16 16 32
16 16 32
16 16 32
16 16 32
16 16 32
16 16 32
16 16 32
16 16 32
16 16 32
16 16 32
16 16 32
16 16 32
16 16 32
16 16 32
16 16 32
16 16 32
255 255 255
255 255 255
16 16 32
16 16 32
16 16 32
16 16 32
16 16 32
16 16 32
16 16 32
16 16 32
16 16 32
16 16 32
255 255 255
255 255 255
16 16 32
16 16 32
16 16 32
16 16 32
255 255 255
255 255 255
255 255 255
255 255 255
16 16 32
16 16 32
16 16 32
16 16 32
16 16 32
16 16 32
255 255 255
255 255 255
16 16 32
16 16 32
16 16 32
16 16 32
255 255 255
255 255 255
255 255 255
255 255 255
16 16 32
16 16 32
16 16 32
16 16 32
16 16 32
16 16 32
255 255 255
255 255 255
16 16 32
16 16 32
16 16 32
16 16 32
255 255 255
255 255 255
255 255 255
255 255 255
16 16 32
16 16 32
16 16 32
16 16 32
16 16 32
16 16 32
255 255 255
255 255 255
16 16 32
16 16 32
16 16 32
16 16 32
16 16 32
16 16 32
255 255 255
255 255 255
16 16 32
16 16 32
16 16 32
16 16 32
16 16 32
16 16 32
255 255 255
255 255 255
16 16 32
16 16 32
16 16 32
16 16 32
16 16 32
16 16 32
255 255 255
255 255 255
16 16 32
16 16 32
16 16 32
16 16 32
16 16 32
16 16 32
255 255 255
255 255 255
16 16 32
16 16 32
16 16 32
16 16 32
16 16 32
16 16 32
255 255 255
255 255 255
16 16 32
16 16 32
16 16 32
16 16 32
16 16 32
16 16 32
16 16 32
16 16 32
16 16 32
16 16 32
16 16 32
16 16 32
16 16 32
16 16 32
16 16 32
16 16 32
16 16 32
16 16 32
16 16 32
16 16 32
16 16 32
16 16 32
16 16 32
16 16 32
16 16 32
16 16 32
16 16 32
16 16 32
255 255 255
255 255 255
16 16 32
16 16 32
16 16 32
16 16 32
16 16 32
16 16 32
16 16 32
16 16 32
16 16 32
16 16 32
16 16 32
16 16 32
255 255 255
255 255 255
16 16 32
16 16 32
16 16 32
16 16 32
16 16 32
16 16 32
16 16 32
16 16 32
16 16 32
16 16 32
255 255 255
255 255 255
16 16 32
16 16 32
16 16 32
16 16 32
255 255 255
255 255 255
255 255 255
255 255 255
16 16 32
16 16 32
16 16 32
16 16 32
16 16 32
16 16 32
255 255 255
255 255 255
16 16 32
16 16 32
16 16 32
16 16 32
255 255 255
255 255 255
255 255 255
255 255 255
16 16 32
16 16 32
16 16 32
16 16 32
16 16 32
16 16 32
255 255 255
255 255 255
16 16 32
16 16 32
16 16 32
16 16 32
255 255 255
255 255 255
255 255 255
255 255 255
16 16 32
16 16 32
16 16 32
16 16 32
16 16 32
16 16 32
16 16 32
16 16 32
16 16 32
16 16 32
16 16 32
16 16 32
16 16 32
16 16 32
16 16 32
16 16 32
16 16 32
16 16 32
16 16 32
16 16 32
16 16 32
16 16 32
255 255 255
255 255 255
16 16 32
16 16 32
16 16 32
16 16 32
16 16 32
16 16 32
255 255 255
255 255 255
16 16 32
16 16 32
16 16 32
16 16 32
16 16 32
16 16 32
16 16 32
16 16 32
16 16 32
16 16 32
255 255 255
255 255 255
16 16 32
16 16 32
16 16 32
16 16 32
16 16 32
16 16 32
16 16 32
16 16 32
16 16 32
16 16 32
255 255 255
255 255 255
16 16 32
16 16 32
16 16 32
16 16 32
255 255 255
255 255 255
255 255 255
255 255 255
16 16 32
16 16 32
16 16 32
16 16 32
16 16 32
16 16 32
255 255 255
255 255 255
16 16 32
16 16 32
16 16 32
16 16 32
16 16 32
16 16 32
16 16 32
16 16 32
16 16 32
16 16 32
16 16 32
16 16 32
16 16 32
16 16 32
255 255 255
255 255 255
16 16 32
16 16 32
16 16 32
16 16 32
16 16 32
16 16 32
16 16 32
16 16 32
16 16 32
16 16 32
16 16 32
16 16 32
16 16 32
16 16 32
255 255 255
255 255 255
16 16 32
16 16 32
16 16 32
16 16 32
16 16 32
16 16 32
16 16 32
16 16 32
16 16 32
16 16 32
16 16 32
16 16 32
16 16 32
16 16 32
16 16 32
16 16 32
16 16 32
16 16 32
16 16 32
16 16 32
16 16 32
16 16 32
255 255 255
255 255 255
16 16 32
16 16 32
16 16 32
16 16 32
16 16 32
16 16 32
16 16 32
16 16 32
255 255 255
255 255 255
16 16 32
16 16 32
255 255 255
255 255 255
16 16 32
16 16 32
16 16 32
16 16 32
16 16 32
16 16 32
16 16 32
16 16 32
16 16 32
16 16 32
16 16 32
16 16 32
16 16 32
16 16 32
16 16 32
16 16 32
16 16 32
16 16 32
16 16 32
16 16 32
16 16 32
16 16 32
16 16 32
16 16 32
255 255 255
255 255 255
16 16 32
16 16 32
16 16 32
16 16 32
16 16 32
16 16 32
255 255 255
255 255 255
16 16 32
16 16 32
16 16 32
16 16 32
16 16 32
16 16 32
16 16 32
16 16 32
16 16 32
16 16 32
255 255 255
255 255 255
16 16 32
16 16 32
16 16 32
16 16 32
16 16 32
16 16 32
16 16 32
16 16 32
16 16 32
16 16 32
255 255 255
255 255 255
16 16 32
16 16 32
16 16 32
16 16 32
255 255 255
255 255 255
255 255 255
255 255 255
16 16 32
16 16 32
16 16 32
16 16 32
16 16 32
16 16 32
255 255 255
255 255 255
16 16 32
16 16 32
16 16 32
16 16 32
255 255 255
255 255 255
255 255 255
255 255 255
16 16 32
16 16 32
16 16 32
16 16 32
16 16 32
16 16 32
16 16 32
16 16 32
16 16 32
16 16 32
255 255 255
255 255 255
16 16 32
16 16 32
16 16 32
16 16 32
16 16 32
16 16 32
16 16 32
16 16 32
16 16 32
16 16 32
255 255 255
255 255 255
16 16 32
16 16 32
16 16 32
16 16 32
255 255 255
255 255 255
255 255 255
255 255 255
16 16 32
16 16 32
16 16 32
16 16 32
16 16 32
16 16 32
255 255 255
255 255 255
16 16 32
16 16 32
16 16 32
16 16 32
255 255 255
255 255 255
255 255 255
255 255 255
16 16 32
16 16 32
16 16 32
16 16 32
16 16 32
16 16 32
255 255 255
255 255 255
16 16 32
16 16 32
16 16 32
16 16 32
255 255 255
255 255 255
255 255 255
255 255 255
16 16 32
16 16 32
16 16 32
16 16 32
16 16 32
16 16 32
16 16 32
16 16 32
16 16 32
16 16 32
16 16 32
16 16 32
16 16 32
16 16 32
16 16 32
16 16 32
16 16 32
16 16 32
16 16 32
16 16 32
16 16 32
16 16 32
16 16 32
16 16 32
16 16 32
16 16 32
16 16 32
16 16 32
16 16 32
16 16 32
16 16 32
16 16 32
16 16 32
16 16 32
16 16 32
16 16 32
16 16 32
16 16 32
16 16 32
16 16 32
16 16 32
16 16 32
16 16 32
16 16 32
16 16 32
16 16 32
16 16 32
16 16 32
16 16 32
16 16 32
16 16 32
16 16 32
16 16 32
16 16 32
255 255 255
255 255 255
16 16 32
16 16 32
255 255 255
255 255 255
16 16 32
16 16 32
255 255 255
255 255 255
16 16 32
16 16 32
16 16 32
16 16 32
16 16 32
16 16 32
16 16 32
16 16 32
16 16 32
16 16 32
255 255 255
255 255 255
16 16 32
16 16 32
16 16 32
16 16 32
16 16 32
16 16 32
16 16 32
16 16 32
16 16 32
16 16 32
16 16 32
16 16 32
16 16 32
16 16 32
16 16 32
16 16 32
255 255 255
255 255 255
16 16 32
16 16 32
16 16 32
16 16 32
16 16 32
16 16 32
16 16 32
16 16 32
16 16 32
16 16 32
16 16 32
16 16 32
16 16 32
16 16 32
16 16 32
16 16 32
16 16 32
16 16 32
16 16 32
16 16 32
16 16 32
16 16 32
16 16 32
16 16 32
255 255 255
255 255 255
16 16 32
16 16 32
16 16 32
16 16 32
16 16 32
16 16 32
16 16 32
16 16 32
16 16 32
16 16 32
16 16 32
16 16 32
16 16 32
16 16 32
255 255 255
255 255 255
16 16 32
16 16 32
16 16 32
16 16 32
16 16 32
16 16 32
16 16 32
16 16 32
16 16 32
16 16 32
16 16 32
16 16 32
16 16 32
16 16 32
255 255 255
255 255 255
16 16 32
16 16 32
16 16 32
16 16 32
16 16 32
16 16 32
16 16 32
16 16 32
16 16 32
16 16 32
16 16 32
16 16 32
16 16 32
16 16 32
16 16 32
16 16 32
16 16 32
16 16 32
255 255 255
255 255 255
16 16 32
16 16 32
16 16 32
16 16 32
16 16 32
16 16 32
16 16 32
16 16 32
16 16 32
16 16 32
255 255 255
255 255 255
16 16 32
16 16 32
16 16 32
16 16 32
16 16 32
16 16 32
255 255 255
255 255 255
16 16 32
16 16 32
16 16 32
16 16 32
16 16 32
16 16 32
255 255 255
255 255 255
16 16 32
16 16 32
16 16 32
16 16 32
16 16 32
16 16 32
255 255 255
255 255 255
16 16 32
16 16 32
16 16 32
16 16 32
16 16 32
16 16 32
255 255 255
255 255 255
16 16 32
16 16 32
16 16 32
16 16 32
16 16 32
16 16 32
16 16 32
16 16 32
16 16 32
16 16 32
16 16 32
16 16 32
16 16 32
16 16 32
16 16 32
16 16 32
16 16 32
16 16 32
16 16 32
16 16 32
16 16 32
16 16 32
16 16 32
16 16 32
16 16 32
16 16 32
16 16 32
16 16 32
16 16 32
16 16 32
16 16 32
16 16 32
16 16 32
16 16 32
16 16 32
16 16 32
16 16 32
16 16 32
16 16 32
16 16 32
16 16 32
16 16 32
16 16 32
16 16 32
16 16 32
16 16 32
16 16 32
16 16 32
16 16 32
16 16 32
16 16 32
16 16 32
16 16 32
16 16 32
16 16 32
16 16 32
16 16 32
16 16 32
16 16 32
16 16 32
16 16 32
16 16 32
16 16 32
16 16 32
16 16 32
16 16 32
16 16 32
16 16 32
16 16 32
16 16 32
16 16 32
16 16 32
16 16 32
16 16 32
16 16 32
16 16 32
16 16 32
16 16 32
255 255 255
255 255 255
16 16 32
16 16 32
16 16 32
16 16 32
16 16 32
16 16 32
255 255 255
255 255 255
16 16 32
16 16 32
16 16 32
16 16 32
16 16 32
16 16 32
255 255 255
255 255 255
16 16 32
16 16 32
16 16 32
16 16 32
16 16 32
16 16 32
16 16 32
16 16 32
16 16 32
16 16 32
16 16 32
16 16 32
16 16 32
16 16 32
16 16 32
16 16 32
16 16 32
16 16 32
255 255 255
255 255 255
16 16 32
16 16 32
16 16 32
16 16 32
16 16 32
16 16 32
16 16 32
16 16 32
16 16 32
16 16 32
16 16 32
16 16 32
16 16 32
16 16 32
255 255 255
255 255 255
16 16 32
16 16 32
16 16 32
16 16 32
16 16 32
16 16 32
16 16 32
16 16 32
16 16 32
16 16 32
255 255 255
255 255 255
16 16 32
16 16 32
16 16 32
16 16 32
255 255 255
255 255 255
255 255 255
255 255 255
16 16 32
16 16 32
16 16 32
16 16 32
16 16 32
16 16 32
16 16 32
16 16 32
16 16 32
16 16 32
16 16 32
16 16 32
16 16 32
16 16 32
16 16 32
16 16 32
16 16 32
16 16 32
16 16 32
16 16 32
16 16 32
16 16 32
255 255 255
255 255 255
16 16 32
16 16 32
16 16 32
16 16 32
16 16 32
16 16 32
16 16 32
16 16 32
16 16 32
16 16 32
16 16 32
16 16 32
16 16 32
16 16 32
16 16 32
16 16 32
16 16 32
16 16 32
255 255 255
255 255 255
16 16 32
16 16 32
16 16 32
16 16 32
16 16 32
16 16 32
16 16 32
16 16 32
16 16 32
16 16 32
255 255 255
255 255 255
16 16 32
16 16 32
16 16 32
16 16 32
16 16 32
16 16 32
16 16 32
16 16 32
16 16 32
16 16 32
16 16 32
16 16 32
16 16 32
16 16 32
16 16 32
16 16 32
16 16 32
16 16 32
255 255 255
255 255 255
16 16 32
16 16 32
16 16 32
16 16 32
16 16 32
16 16 32
16 16 32
16 16 32
16 16 32
16 16 32
255 255 255
255 255 255
16 16 32
16 16 32
16 16 32
16 16 32
16 16 32
16 16 32
16 16 32
16 16 32
16 16 32
16 16 32
16 16 32
16 16 32
16 16 32
16 16 32
16 16 32
16 16 32
16 16 32
16 16 32
255 255 255
255 255 255
16 16 32
16 16 32
16 16 32
16 16 32
16 16 32
16 16 32
16 16 32
16 16 32
16 16 32
16 16 32
16 16 32
16 16 32
16 16 32
16 16 32
16 16 32
16 16 32
16 16 32
16 16 32
16 16 32
16 16 32
16 16 32
16 16 32
16 16 32
16 16 32
16 16 32
16 16 32
16 16 32
16 16 32
16 16 32
16 16 32
16 16 32
16 16 32
16 16 32
16 16 32
16 16 32
16 16 32
16 16 32
16 16 32
16 16 32
16 16 32
16 16 32
16 16 32
16 16 32
16 16 32
16 16 32
16 16 32
16 16 32
16 16 32
16 16 32
16 16 32
16 16 32
16 16 32
16 16 32
16 16 32
16 16 32
16 16 32
16 16 32
16 16 32
255 255 255
255 255 255
16 16 32
16 16 32
16 16 32
16 16 32
16 16 32
16 16 32
16 16 32
16 16 32
16 16 32
16 16 32
16 16 32
16 16 32
16 16 32
16 16 32
16 16 32
16 16 32
16 16 32
16 16 32
255 255 255
255 255 255
16 16 32
16 16 32
16 16 32
16 16 32
16 16 32
16 16 32
16 16 32
16 16 32
16 16 32
16 16 32
255 255 255
255 255 255
16 16 32
16 16 32
16 16 32
16 16 32
255 255 255
255 255 255
255 255 255
255 255 255
16 16 32
16 16 32
16 16 32
16 16 32
16 16 32
16 16 32
255 255 255
255 255 255
16 16 32
16 16 32
16 16 32
16 16 32
255 255 255
255 255 255
255 255 255
255 255 255
16 16 32
16 16 32
16 16 32
16 16 32
16 16 32
16 16 32
255 255 255
255 255 255
16 16 32
16 16 32
16 16 32
16 16 32
255 255 255
255 255 255
255 255 255
255 255 255
16 16 32
16 16 32
16 16 32
16 16 32
16 16 32
16 16 32
255 255 255
255 255 255
16 16 32
16 16 32
16 16 32
16 16 32
16 16 32
16 16 32
255 255 255
255 255 255
16 16 32
16 16 32
16 16 32
16 16 32
16 16 32
16 16 32
255 255 255
255 255 255
16 16 32
16 16 32
16 16 32
16 16 32
16 16 32
16 16 32
255 255 255
255 255 255
16 16 32
16 16 32
16 16 32
16 16 32
16 16 32
16 16 32
255 255 255
255 255 255
16 16 32
16 16 32
16 16 32
16 16 32
16 16 32
16 16 32
255 255 255
255 255 255
16 16 32
16 16 32
16 16 32
16 16 32
16 16 32
16 16 32
16 16 32
16 16 32
16 16 32
16 16 32
16 16 32
16 16 32
16 16 32
16 16 32
16 16 32
16 16 32
16 16 32
16 16 32
16 16 32
16 16 32
16 16 32
16 16 32
16 16 32
16 16 32
16 16 32
16 16 32
16 16 32
16 16 32
255 255 255
255 255 255
16 16 32
16 16 32
16 16 32
16 16 32
16 16 32
16 16 32
16 16 32
16 16 32
16 16 32
16 16 32
16 16 32
16 16 32
255 255 255
255 255 255
16 16 32
16 16 32
16 16 32
16 16 32
16 16 32
16 16 32
16 16 32
16 16 32
16 16 32
16 16 32
255 255 255
255 255 255
16 16 32
16 16 32
16 16 32
16 16 32
255 255 255
255 255 255
255 255 255
255 255 255
16 16 32
16 16 32
16 16 32
16 16 32
16 16 32
16 16 32
255 255 255
255 255 255
16 16 32
16 16 32
16 16 32
16 16 32
255 255 255
255 255 255
255 255 255
255 255 255
16 16 32
16 16 32
16 16 32
16 16 32
16 16 32
16 16 32
255 255 255
255 255 255
16 16 32
16 16 32
16 16 32
16 16 32
255 255 255
255 255 255
255 255 255
255 255 255
16 16 32
16 16 32
16 16 32
16 16 32
16 16 32
16 16 32
16 16 32
16 16 32
16 16 32
16 16 32
16 16 32
16 16 32
16 16 32
16 16 32
16 16 32
16 16 32
16 16 32
16 16 32
16 16 32
16 16 32
16 16 32
16 16 32
255 255 255
255 255 255
16 16 32
16 16 32
16 16 32
16 16 32
16 16 32
16 16 32
255 255 255
255 255 255
16 16 32
16 16 32
16 16 32
16 16 32
16 16 32
16 16 32
16 16 32
16 16 32
16 16 32
16 16 32
255 255 255
255 255 255
16 16 32
16 16 32
16 16 32
16 16 32
16 16 32
16 16 32
16 16 32
16 16 32
16 16 32
16 16 32
255 255 255
255 255 255
16 16 32
16 16 32
16 16 32
16 16 32
255 255 255
255 255 255
255 255 255
255 255 255
16 16 32
16 16 32
16 16 32
16 16 32
16 16 32
16 16 32
255 255 255
255 255 255
16 16 32
16 16 32
16 16 32
16 16 32
16 16 32
16 16 32
16 16 32
16 16 32
16 16 32
16 16 32
16 16 32
16 16 32
16 16 32
16 16 32
255 255 255
255 255 255
16 16 32
16 16 32
16 16 32
16 16 32
16 16 32
16 16 32
16 16 32
16 16 32
16 16 32
16 16 32
16 16 32
16 16 32
16 16 32
16 16 32
255 255 255
255 255 255
16 16 32
16 16 32
16 16 32
16 16 32
16 16 32
16 16 32
16 16 32
16 16 32
16 16 32
16 16 32
16 16 32
16 16 32
16 16 32
16 16 32
16 16 32
16 16 32
16 16 32
16 16 32
16 16 32
16 16 32
16 16 32
16 16 32
255 255 255
255 255 255
16 16 32
16 16 32
16 16 32
16 16 32
16 16 32
16 16 32
16 16 32
16 16 32
255 255 255
255 255 255
16 16 32
16 16 32
255 255 255
255 255 255
16 16 32
16 16 32
16 16 32
16 16 32
16 16 32
16 16 32
16 16 32
16 16 32
16 16 32
16 16 32
16 16 32
16 16 32
16 16 32
16 16 32
16 16 32
16 16 32
16 16 32
16 16 32
16 16 32
16 16 32
16 16 32
16 16 32
16 16 32
16 16 32
255 255 255
255 255 255
16 16 32
16 16 32
16 16 32
16 16 32
16 16 32
16 16 32
255 255 255
255 255 255
16 16 32
16 16 32
16 16 32
16 16 32
16 16 32
16 16 32
16 16 32
16 16 32
16 16 32
16 16 32
255 255 255
255 255 255
16 16 32
16 16 32
16 16 32
16 16 32
16 16 32
16 16 32
16 16 32
16 16 32
16 16 32
16 16 32
255 255 255
255 255 255
16 16 32
16 16 32
16 16 32
16 16 32
255 255 255
255 255 255
255 255 255
255 255 255
16 16 32
16 16 32
16 16 32
16 16 32
16 16 32
16 16 32
255 255 255
255 255 255
16 16 32
16 16 32
16 16 32
16 16 32
255 255 255
255 255 255
255 255 255
255 255 255
16 16 32
16 16 32
16 16 32
16 16 32
16 16 32
16 16 32
16 16 32
16 16 32
16 16 32
16 16 32
255 255 255
255 255 255
16 16 32
16 16 32
16 16 32
16 16 32
16 16 32
16 16 32
16 16 32
16 16 32
16 16 32
16 16 32
255 255 255
255 255 255
16 16 32
16 16 32
16 16 32
16 16 32
255 255 255
255 255 255
255 255 255
255 255 255
16 16 32
16 16 32
16 16 32
16 16 32
16 16 32
16 16 32
255 255 255
255 255 255
16 16 32
16 16 32
16 16 32
16 16 32
255 255 255
255 255 255
255 255 255
255 255 255
16 16 32
16 16 32
16 16 32
16 16 32
16 16 32
16 16 32
255 255 255
255 255 255
16 16 32
16 16 32
16 16 32
16 16 32
255 255 255
255 255 255
255 255 255
255 255 255
16 16 32
16 16 32
16 16 32
16 16 32
16 16 32
16 16 32
16 16 32
16 16 32
16 16 32
16 16 32
16 16 32
16 16 32
16 16 32
16 16 32
16 16 32
16 16 32
16 16 32
16 16 32
16 16 32
16 16 32
16 16 32
16 16 32
16 16 32
16 16 32
16 16 32
16 16 32
16 16 32
16 16 32
16 16 32
16 16 32
16 16 32
16 16 32
16 16 32
16 16 32
16 16 32
16 16 32
16 16 32
16 16 32
16 16 32
16 16 32
16 16 32
16 16 32
16 16 32
16 16 32
16 16 32
16 16 32
16 16 32
16 16 32
16 16 32
16 16 32
16 16 32
16 16 32
16 16 32
16 16 32
255 255 255
255 255 255
16 16 32
16 16 32
255 255 255
255 255 255
16 16 32
16 16 32
255 255 255
255 255 255
16 16 32
16 16 32
16 16 32
16 16 32
16 16 32
16 16 32
16 16 32
16 16 32
16 16 32
16 16 32
16 16 32
16 16 32
16 16 32
16 16 32
16 16 32
16 16 32
16 16 32
16 16 32
16 16 32
16 16 32
16 16 32
16 16 32
16 16 32
16 16 32
16 16 32
16 16 32
255 255 255
255 255 255
16 16 32
16 16 32
16 16 32
16 16 32
16 16 32
16 16 32
16 16 32
16 16 32
16 16 32
16 16 32
16 16 32
16 16 32
16 16 32
16 16 32
16 16 32
16 16 32
16 16 32
16 16 32
16 16 32
16 16 32
16 16 32
16 16 32
16 16 32
16 16 32
16 16 32
16 16 32
255 255 255
255 255 255
16 16 32
16 16 32
255 255 255
255 255 255
255 255 255
255 255 255
255 255 255
255 255 255
16 16 32
16 16 32
16 16 32
16 16 32
16 16 32
16 16 32
255 255 255
255 255 255
255 255 255
255 255 255
255 255 255
255 255 255
255 255 255
255 255 255
16 16 32
16 16 32
16 16 32
16 16 32
16 16 32
16 16 32
16 16 32
16 16 32
16 16 32
16 16 32
255 255 255
255 255 255
255 255 255
255 255 255
255 255 255
255 255 255
16 16 32
16 16 32
16 16 32
16 16 32
16 16 32
16 16 32
16 16 32
16 16 32
16 16 32
16 16 32
16 16 32
16 16 32
255 255 255
255 255 255
16 16 32
16 16 32
16 16 32
16 16 32
16 16 32
16 16 32
16 16 32
16 16 32
16 16 32
16 16 32
255 255 255
255 255 255
16 16 32
16 16 32
16 16 32
16 16 32
16 16 32
16 16 32
255 255 255
255 255 255
16 16 32
16 16 32
16 16 32
16 16 32
16 16 32
16 16 32
255 255 255
255 255 255
255 255 255
255 255 255
255 255 255
255 255 255
255 255 255
255 255 255
16 16 32
16 16 32
16 16 32
16 16 32
16 16 32
16 16 32
16 16 32
16 16 32
255 255 255
255 255 255
255 255 255
255 255 255
255 255 255
255 255 255
255 255 255
255 255 255
16 16 32
16 16 32
16 16 32
16 16 32
16 16 32
16 16 32
16 16 32
16 16 32
16 16 32
16 16 32
16 16 32
16 16 32
16 16 32
16 16 32
16 16 32
16 16 32
16 16 32
16 16 32
16 16 32
16 16 32
16 16 32
16 16 32
16 16 32
16 16 32
16 16 32
16 16 32
16 16 32
16 16 32
16 16 32
16 16 32
16 16 32
16 16 32
16 16 32
16 16 32
16 16 32
16 16 32
16 16 32
16 16 32
16 16 32
16 16 32
16 16 32
16 16 32
16 16 32
16 16 32
16 16 32
16 16 32
16 16 32
16 16 32
16 16 32
16 16 32
16 16 32
16 16 32
16 16 32
16 16 32
16 16 32
16 16 32
16 16 32
16 16 32
16 16 32
16 16 32
16 16 32
16 16 32
16 16 32
16 16 32
16 16 32
16 16 32
16 16 32
16 16 32
16 16 32
16 16 32
16 16 32
16 16 32
255 255 255
255 255 255
255 255 255
255 255 255
255 255 255
255 255 255
255 255 255
255 255 255
16 16 32
16 16 32
16 16 32
16 16 32
16 16 32
16 16 32
16 16 32
16 16 32
255 255 255
255 255 255
16 16 32
16 16 32
255 255 255
255 255 255
255 255 255
255 255 255
255 255 255
255 255 255
16 16 32
16 16 32
16 16 32
16 16 32
16 16 32
16 16 32
16 16 32
16 16 32
16 16 32
16 16 32
16 16 32
16 16 32
16 16 32
16 16 32
16 16 32
16 16 32
16 16 32
16 16 32
16 16 32
16 16 32
16 16 32
16 16 32
16 16 32
16 16 32
16 16 32
16 16 32
255 255 255
255 255 255
16 16 32
16 16 32
16 16 32
16 16 32
16 16 32
16 16 32
16 16 32
16 16 32
16 16 32
16 16 32
255 255 255
255 255 255
16 16 32
16 16 32
255 255 255
255 255 255
16 16 32
16 16 32
255 255 255
255 255 255
16 16 32
16 16 32
16 16 32
16 16 32
16 16 32
16 16 32
16 16 32
16 16 32
16 16 32
16 16 32
16 16 32
16 16 32
16 16 32
16 16 32
16 16 32
16 16 32
16 16 32
16 16 32
16 16 32
16 16 32
16 16 32
16 16 32
255 255 255
255 255 255
16 16 32
16 16 32
255 255 255
255 255 255
255 255 255
255 255 255
255 255 255
255 255 255
16 16 32
16 16 32
16 16 32
16 16 32
16 16 32
16 16 32
16 16 32
16 16 32
16 16 32
16 16 32
16 16 32
16 16 32
16 16 32
16 16 32
16 16 32
16 16 32
16 16 32
16 16 32
16 16 32
16 16 32
16 16 32
16 16 32
255 255 255
255 255 255
255 255 255
255 255 255
255 255 255
255 255 255
255 255 255
255 255 255
16 16 32
16 16 32
16 16 32
16 16 32
16 16 32
16 16 32
16 16 32
16 16 32
16 16 32
16 16 32
16 16 32
16 16 32
255 255 255
255 255 255
16 16 32
16 16 32
16 16 32
16 16 32
16 16 32
16 16 32
16 16 32
16 16 32
16 16 32
16 16 32
16 16 32
16 16 32
255 255 255
255 255 255
255 255 255
255 255 255
255 255 255
255 255 255
16 16 32
16 16 32
16 16 32
16 16 32
16 16 32
16 16 32
16 16 32
16 16 32
16 16 32
16 16 32
16 16 32
16 16 32
255 255 255
255 255 255
16 16 32
16 16 32
16 16 32
16 16 32
16 16 32
16 16 32
16 16 32
16 16 32
16 16 32
16 16 32
16 16 32
16 16 32
16 16 32
16 16 32
16 16 32
16 16 32
16 16 32
16 16 32
16 16 32
16 16 32
16 16 32
16 16 32
16 16 32
16 16 32
16 16 32
16 16 32
16 16 32
16 16 32
16 16 32
16 16 32
16 16 32
16 16 32
16 16 32
16 16 32
16 16 32
16 16 32
16 16 32
16 16 32
16 16 32
16 16 32
16 16 32
16 16 32
16 16 32
16 16 32
16 16 32
16 16 32
16 16 32
16 16 32
16 16 32
16 16 32
16 16 32
16 16 32
16 16 32
16 16 32
16 16 32
16 16 32
16 16 32
16 16 32
255 255 255
255 255 255
255 255 255
255 255 255
255 255 255
255 255 255
255 255 255
255 255 255
16 16 32
16 16 32
16 16 32
16 16 32
16 16 32
16 16 32
16 16 32
16 16 32
16 16 32
16 16 32
16 16 32
16 16 32
16 16 32
16 16 32
16 16 32
16 16 32
16 16 32
16 16 32
16 16 32
16 16 32
16 16 32
16 16 32
16 16 32
16 16 32
255 255 255
255 255 255
16 16 32
16 16 32
255 255 255
255 255 255
16 16 32
16 16 32
255 255 255
255 255 255
16 16 32
16 16 32
16 16 32
16 16 32
16 16 32
16 16 32
255 255 255
255 255 255
16 16 32
16 16 32
255 255 255
255 255 255
16 16 32
16 16 32
255 255 255
255 255 255
16 16 32
16 16 32
16 16 32
16 16 32
16 16 32
16 16 32
255 255 255
255 255 255
16 16 32
16 16 32
255 255 255
255 255 255
16 16 32
16 16 32
255 255 255
255 255 255
16 16 32
16 16 32
16 16 32
16 16 32
16 16 32
16 16 32
16 16 32
16 16 32
255 255 255
255 255 255
255 255 255
255 255 255
255 255 255
255 255 255
255 255 255
255 255 255
16 16 32
16 16 32
16 16 32
16 16 32
16 16 32
16 16 32
16 16 32
16 16 32
255 255 255
255 255 255
255 255 255
255 255 255
255 255 255
255 255 255
255 255 255
255 255 255
16 16 32
16 16 32
16 16 32
16 16 32
16 16 32
16 16 32
16 16 32
16 16 32
255 255 255
255 255 255
255 255 255
255 255 255
255 255 255
255 255 255
255 255 255
255 255 255
16 16 32
16 16 32
16 16 32
16 16 32
16 16 32
16 16 32
16 16 32
16 16 32
16 16 32
16 16 32
16 16 32
16 16 32
16 16 32
16 16 32
16 16 32
16 16 32
16 16 32
16 16 32
16 16 32
16 16 32
16 16 32
16 16 32
16 16 32
16 16 32
16 16 32
16 16 32
255 255 255
255 255 255
16 16 32
16 16 32
16 16 32
16 16 32
16 16 32
16 16 32
16 16 32
16 16 32
16 16 32
16 16 32
16 16 32
16 16 32
16 16 32
16 16 32
255 255 255
255 255 255
16 16 32
16 16 32
16 16 32
16 16 32
16 16 32
16 16 32
16 16 32
16 16 32
16 16 32
16 16 32
255 255 255
255 255 255
16 16 32
16 16 32
255 255 255
255 255 255
16 16 32
16 16 32
255 255 255
255 255 255
16 16 32
16 16 32
16 16 32
16 16 32
16 16 32
16 16 32
255 255 255
255 255 255
16 16 32
16 16 32
255 255 255
255 255 255
16 16 32
16 16 32
255 255 255
255 255 255
16 16 32
16 16 32
16 16 32
16 16 32
16 16 32
16 16 32
255 255 255
255 255 255
16 16 32
16 16 32
255 255 255
255 255 255
16 16 32
16 16 32
255 255 255
255 255 255
16 16 32
16 16 32
16 16 32
16 16 32
16 16 32
16 16 32
16 16 32
16 16 32
16 16 32
16 16 32
16 16 32
16 16 32
16 16 32
16 16 32
16 16 32
16 16 32
16 16 32
16 16 32
16 16 32
16 16 32
16 16 32
16 16 32
255 255 255
255 255 255
255 255 255
255 255 255
255 255 255
255 255 255
255 255 255
255 255 255
255 255 255
255 255 255
16 16 32
16 16 32
16 16 32
16 16 32
16 16 32
16 16 32
16 16 32
16 16 32
16 16 32
16 16 32
16 16 32
16 16 32
16 16 32
16 16 32
16 16 32
16 16 32
16 16 32
16 16 32
16 16 32
16 16 32
16 16 32
16 16 32
255 255 255
255 255 255
16 16 32
16 16 32
255 255 255
255 255 255
16 16 32
16 16 32
255 255 255
255 255 255
16 16 32
16 16 32
16 16 32
16 16 32
16 16 32
16 16 32
255 255 255
255 255 255
255 255 255
255 255 255
255 255 255
255 255 255
255 255 255
255 255 255
16 16 32
16 16 32
16 16 32
16 16 32
16 16 32
16 16 32
16 16 32
16 16 32
255 255 255
255 255 255
255 255 255
255 255 255
255 255 255
255 255 255
255 255 255
255 255 255
16 16 32
16 16 32
16 16 32
16 16 32
16 16 32
16 16 32
16 16 32
16 16 32
255 255 255
255 255 255
255 255 255
255 255 255
255 255 255
255 255 255
255 255 255
255 255 255
16 16 32
16 16 32
16 16 32
16 16 32
16 16 32
16 16 32
16 16 32
16 16 32
16 16 32
16 16 32
16 16 32
16 16 32
16 16 32
16 16 32
255 255 255
255 255 255
16 16 32
16 16 32
16 16 32
16 16 32
16 16 32
16 16 32
16 16 32
16 16 32
255 255 255
255 255 255
16 16 32
16 16 32
16 16 32
16 16 32
255 255 255
255 255 255
16 16 32
16 16 32
16 16 32
16 16 32
16 16 32
16 16 32
16 16 32
16 16 32
16 16 32
16 16 32
16 16 32
16 16 32
16 16 32
16 16 32
16 16 32
16 16 32
16 16 32
16 16 32
16 16 32
16 16 32
16 16 32
16 16 32
16 16 32
16 16 32
255 255 255
255 255 255
255 255 255
255 255 255
255 255 255
255 255 255
255 255 255
255 255 255
16 16 32
16 16 32
16 16 32
16 16 32
16 16 32
16 16 32
16 16 32
16 16 32
16 16 32
16 16 32
16 16 32
16 16 32
16 16 32
16 16 32
16 16 32
16 16 32
16 16 32
16 16 32
16 16 32
16 16 32
16 16 32
16 16 32
16 16 32
16 16 32
255 255 255
255 255 255
16 16 32
16 16 32
255 255 255
255 255 255
16 16 32
16 16 32
255 255 255
255 255 255
16 16 32
16 16 32
16 16 32
16 16 32
16 16 32
16 16 32
255 255 255
255 255 255
16 16 32
16 16 32
255 255 255
255 255 255
16 16 32
16 16 32
255 255 255
255 255 255
16 16 32
16 16 32
16 16 32
16 16 32
16 16 32
16 16 32
16 16 32
16 16 32
16 16 32
16 16 32
255 255 255
255 255 255
16 16 32
16 16 32
16 16 32
16 16 32
16 16 32
16 16 32
16 16 32
16 16 32
16 16 32
16 16 32
255 255 255
255 255 255
16 16 32
16 16 32
255 255 255
255 255 255
16 16 32
16 16 32
255 255 255
255 255 255
16 16 32
16 16 32
16 16 32
16 16 32
16 16 32
16 16 32
255 255 255
255 255 255
16 16 32
16 16 32
255 255 255
255 255 255
16 16 32
16 16 32
255 255 255
255 255 255
16 16 32
16 16 32
16 16 32
16 16 32
16 16 32
16 16 32
255 255 255
255 255 255
16 16 32
16 16 32
255 255 255
255 255 255
16 16 32
16 16 32
255 255 255
255 255 255
16 16 32
16 16 32
16 16 32
16 16 32
16 16 32
16 16 32
16 16 32
16 16 32
16 16 32
16 16 32
16 16 32
16 16 32
16 16 32
16 16 32
16 16 32
16 16 32
16 16 32
16 16 32
16 16 32
16 16 32
16 16 32
16 16 32
16 16 32
16 16 32
16 16 32
16 16 32
16 16 32
16 16 32
16 16 32
16 16 32
16 16 32
16 16 32
16 16 32
16 16 32
16 16 32
16 16 32
16 16 32
16 16 32
16 16 32
16 16 32
16 16 32
16 16 32
16 16 32
16 16 32
16 16 32
16 16 32
16 16 32
16 16 32
16 16 32
16 16 32
16 16 32
16 16 32
16 16 32
16 16 32
255 255 255
255 255 255
16 16 32
16 16 32
255 255 255
255 255 255
16 16 32
16 16 32
255 255 255
255 255 255
16 16 32
16 16 32
16 16 32
16 16 32
16 16 32
16 16 32
16 16 32
16 16 32
16 16 32
16 16 32
16 16 32
16 16 32
16 16 32
16 16 32
16 16 32
16 16 32
16 16 32
16 16 32
16 16 32
16 16 32
16 16 32
16 16 32
16 16 32
16 16 32
16 16 32
16 16 32
255 255 255
255 255 255
16 16 32
16 16 32
16 16 32
16 16 32
16 16 32
16 16 32
16 16 32
16 16 32
16 16 32
16 16 32
16 16 32
16 16 32
16 16 32
16 16 32
16 16 32
16 16 32
16 16 32
16 16 32
16 16 32
16 16 32
16 16 32
16 16 32
16 16 32
16 16 32
16 16 32
16 16 32
255 255 255
255 255 255
16 16 32
16 16 32
255 255 255
255 255 255
255 255 255
255 255 255
255 255 255
255 255 255
16 16 32
16 16 32
16 16 32
16 16 32
16 16 32
16 16 32
255 255 255
255 255 255
255 255 255
255 255 255
255 255 255
255 255 255
255 255 255
255 255 255
16 16 32
16 16 32
16 16 32
16 16 32
16 16 32
16 16 32
16 16 32
16 16 32
16 16 32
16 16 32
255 255 255
255 255 255
255 255 255
255 255 255
255 255 255
255 255 255
16 16 32
16 16 32
16 16 32
16 16 32
16 16 32
16 16 32
16 16 32
16 16 32
16 16 32
16 16 32
16 16 32
16 16 32
255 255 255
255 255 255
16 16 32
16 16 32
16 16 32
16 16 32
16 16 32
16 16 32
16 16 32
16 16 32
16 16 32
16 16 32
255 255 255
255 255 255
16 16 32
16 16 32
16 16 32
16 16 32
16 16 32
16 16 32
255 255 255
255 255 255
16 16 32
16 16 32
16 16 32
16 16 32
16 16 32
16 16 32
255 255 255
255 255 255
255 255 255
255 255 255
255 255 255
255 255 255
255 255 255
255 255 255
16 16 32
16 16 32
16 16 32
16 16 32
16 16 32
16 16 32
16 16 32
16 16 32
255 255 255
255 255 255
255 255 255
255 255 255
255 255 255
255 255 255
255 255 255
255 255 255
16 16 32
16 16 32
16 16 32
16 16 32
16 16 32
16 16 32
16 16 32
16 16 32
16 16 32
16 16 32
16 16 32
16 16 32
16 16 32
16 16 32
16 16 32
16 16 32
16 16 32
16 16 32
16 16 32
16 16 32
16 16 32
16 16 32
16 16 32
16 16 32
16 16 32
16 16 32
16 16 32
16 16 32
16 16 32
16 16 32
16 16 32
16 16 32
16 16 32
16 16 32
16 16 32
16 16 32
16 16 32
16 16 32
16 16 32
16 16 32
16 16 32
16 16 32
16 16 32
16 16 32
16 16 32
16 16 32
16 16 32
16 16 32
16 16 32
16 16 32
16 16 32
16 16 32
16 16 32
16 16 32
16 16 32
16 16 32
16 16 32
16 16 32
16 16 32
16 16 32
16 16 32
16 16 32
16 16 32
16 16 32
16 16 32
16 16 32
16 16 32
16 16 32
16 16 32
16 16 32
16 16 32
16 16 32
255 255 255
255 255 255
255 255 255
255 255 255
255 255 255
255 255 255
255 255 255
255 255 255
16 16 32
16 16 32
16 16 32
16 16 32
16 16 32
16 16 32
16 16 32
16 16 32
255 255 255
255 255 255
16 16 32
16 16 32
255 255 255
255 255 255
255 255 255
255 255 255
255 255 255
255 255 255
16 16 32
16 16 32
16 16 32
16 16 32
16 16 32
16 16 32
16 16 32
16 16 32
16 16 32
16 16 32
16 16 32
16 16 32
16 16 32
16 16 32
16 16 32
16 16 32
16 16 32
16 16 32
16 16 32
16 16 32
16 16 32
16 16 32
16 16 32
16 16 32
16 16 32
16 16 32
255 255 255
255 255 255
16 16 32
16 16 32
16 16 32
16 16 32
16 16 32
16 16 32
16 16 32
16 16 32
16 16 32
16 16 32
255 255 255
255 255 255
16 16 32
16 16 32
255 255 255
255 255 255
16 16 32
16 16 32
255 255 255
255 255 255
16 16 32
16 16 32
16 16 32
16 16 32
16 16 32
16 16 32
16 16 32
16 16 32
16 16 32
16 16 32
16 16 32
16 16 32
16 16 32
16 16 32
16 16 32
16 16 32
16 16 32
16 16 32
16 16 32
16 16 32
16 16 32
16 16 32
255 255 255
255 255 255
16 16 32
16 16 32
255 255 255
255 255 255
255 255 255
255 255 255
255 255 255
255 255 255
16 16 32
16 16 32
16 16 32
16 16 32
16 16 32
16 16 32
16 16 32
16 16 32
16 16 32
16 16 32
16 16 32
16 16 32
16 16 32
16 16 32
16 16 32
16 16 32
16 16 32
16 16 32
16 16 32
16 16 32
16 16 32
16 16 32
255 255 255
255 255 255
255 255 255
255 255 255
255 255 255
255 255 255
255 255 255
255 255 255
16 16 32
16 16 32
16 16 32
16 16 32
16 16 32
16 16 32
16 16 32
16 16 32
16 16 32
16 16 32
16 16 32
16 16 32
255 255 255
255 255 255
16 16 32
16 16 32
16 16 32
16 16 32
16 16 32
16 16 32
16 16 32
16 16 32
16 16 32
16 16 32
16 16 32
16 16 32
255 255 255
255 255 255
255 255 255
255 255 255
255 255 255
255 255 255
16 16 32
16 16 32
16 16 32
16 16 32
16 16 32
16 16 32
16 16 32
16 16 32
16 16 32
16 16 32
16 16 32
16 16 32
255 255 255
255 255 255
16 16 32
16 16 32
16 16 32
16 16 32
16 16 32
16 16 32
16 16 32
16 16 32
16 16 32
16 16 32
16 16 32
16 16 32
16 16 32
16 16 32
16 16 32
16 16 32
16 16 32
16 16 32
16 16 32
16 16 32
16 16 32
16 16 32
16 16 32
16 16 32
16 16 32
16 16 32
16 16 32
16 16 32
16 16 32
16 16 32
16 16 32
16 16 32
16 16 32
16 16 32
16 16 32
16 16 32
16 16 32
16 16 32
16 16 32
16 16 32
16 16 32
16 16 32
16 16 32
16 16 32
16 16 32
16 16 32
16 16 32
16 16 32
16 16 32
16 16 32
16 16 32
16 16 32
16 16 32
16 16 32
16 16 32
16 16 32
16 16 32
16 16 32
255 255 255
255 255 255
255 255 255
255 255 255
255 255 255
255 255 255
255 255 255
255 255 255
16 16 32
16 16 32
16 16 32
16 16 32
16 16 32
16 16 32
16 16 32
16 16 32
16 16 32
16 16 32
16 16 32
16 16 32
16 16 32
16 16 32
16 16 32
16 16 32
16 16 32
16 16 32
16 16 32
16 16 32
16 16 32
16 16 32
16 16 32
16 16 32
255 255 255
255 255 255
16 16 32
16 16 32
255 255 255
255 255 255
16 16 32
16 16 32
255 255 255
255 255 255
16 16 32
16 16 32
16 16 32
16 16 32
16 16 32
16 16 32
255 255 255
255 255 255
16 16 32
16 16 32
255 255 255
255 255 255
16 16 32
16 16 32
255 255 255
255 255 255
16 16 32
16 16 32
16 16 32
16 16 32
16 16 32
16 16 32
255 255 255
255 255 255
16 16 32
16 16 32
255 255 255
255 255 255
16 16 32
16 16 32
255 255 255
255 255 255
16 16 32
16 16 32
16 16 32
16 16 32
16 16 32
16 16 32
16 16 32
16 16 32
255 255 255
255 255 255
255 255 255
255 255 255
255 255 255
255 255 255
255 255 255
255 255 255
16 16 32
16 16 32
16 16 32
16 16 32
16 16 32
16 16 32
16 16 32
16 16 32
255 255 255
255 255 255
255 255 255
255 255 255
255 255 255
255 255 255
255 255 255
255 255 255
16 16 32
16 16 32
16 16 32
16 16 32
16 16 32
16 16 32
16 16 32
16 16 32
255 255 255
255 255 255
255 255 255
255 255 255
255 255 255
255 255 255
255 255 255
255 255 255
16 16 32
16 16 32
16 16 32
16 16 32
16 16 32
16 16 32
16 16 32
16 16 32
16 16 32
16 16 32
16 16 32
16 16 32
16 16 32
16 16 32
16 16 32
16 16 32
16 16 32
16 16 32
16 16 32
16 16 32
16 16 32
16 16 32
16 16 32
16 16 32
16 16 32
16 16 32
255 255 255
255 255 255
16 16 32
16 16 32
16 16 32
16 16 32
16 16 32
16 16 32
16 16 32
16 16 32
16 16 32
16 16 32
16 16 32
16 16 32
16 16 32
16 16 32
255 255 255
255 255 255
16 16 32
16 16 32
16 16 32
16 16 32
16 16 32
16 16 32
16 16 32
16 16 32
16 16 32
16 16 32
255 255 255
255 255 255
16 16 32
16 16 32
255 255 255
255 255 255
16 16 32
16 16 32
255 255 255
255 255 255
16 16 32
16 16 32
16 16 32
16 16 32
16 16 32
16 16 32
255 255 255
255 255 255
16 16 32
16 16 32
255 255 255
255 255 255
16 16 32
16 16 32
255 255 255
255 255 255
16 16 32
16 16 32
16 16 32
16 16 32
16 16 32
16 16 32
255 255 255
255 255 255
16 16 32
16 16 32
255 255 255
255 255 255
16 16 32
16 16 32
255 255 255
255 255 255
16 16 32
16 16 32
16 16 32
16 16 32
16 16 32
16 16 32
16 16 32
16 16 32
16 16 32
16 16 32
16 16 32
16 16 32
16 16 32
16 16 32
16 16 32
16 16 32
16 16 32
16 16 32
16 16 32
16 16 32
16 16 32
16 16 32
255 255 255
255 255 255
255 255 255
255 255 255
255 255 255
255 255 255
255 255 255
255 255 255
255 255 255
255 255 255
16 16 32
16 16 32
16 16 32
16 16 32
16 16 32
16 16 32
16 16 32
16 16 32
16 16 32
16 16 32
16 16 32
16 16 32
16 16 32
16 16 32
16 16 32
16 16 32
16 16 32
16 16 32
16 16 32
16 16 32
16 16 32
16 16 32
255 255 255
255 255 255
16 16 32
16 16 32
255 255 255
255 255 255
16 16 32
16 16 32
255 255 255
255 255 255
16 16 32
16 16 32
16 16 32
16 16 32
16 16 32
16 16 32
255 255 255
255 255 255
255 255 255
255 255 255
255 255 255
255 255 255
255 255 255
255 255 255
16 16 32
16 16 32
16 16 32
16 16 32
16 16 32
16 16 32
16 16 32
16 16 32
255 255 255
255 255 255
255 255 255
255 255 255
255 255 255
255 255 255
255 255 255
255 255 255
16 16 32
16 16 32
16 16 32
16 16 32
16 16 32
16 16 32
16 16 32
16 16 32
255 255 255
255 255 255
255 255 255
255 255 255
255 255 255
255 255 255
255 255 255
255 255 255
16 16 32
16 16 32
16 16 32
16 16 32
16 16 32
16 16 32
16 16 32
16 16 32
16 16 32
16 16 32
16 16 32
16 16 32
16 16 32
16 16 32
255 255 255
255 255 255
16 16 32
16 16 32
16 16 32
16 16 32
16 16 32
16 16 32
16 16 32
16 16 32
255 255 255
255 255 255
16 16 32
16 16 32
16 16 32
16 16 32
255 255 255
255 255 255
16 16 32
16 16 32
16 16 32
16 16 32
16 16 32
16 16 32
16 16 32
16 16 32
16 16 32
16 16 32
16 16 32
16 16 32
16 16 32
16 16 32
16 16 32
16 16 32
16 16 32
16 16 32
16 16 32
16 16 32
16 16 32
16 16 32
16 16 32
16 16 32
255 255 255
255 255 255
255 255 255
255 255 255
255 255 255
255 255 255
255 255 255
255 255 255
16 16 32
16 16 32
16 16 32
16 16 32
16 16 32
16 16 32
16 16 32
16 16 32
16 16 32
16 16 32
16 16 32
16 16 32
16 16 32
16 16 32
16 16 32
16 16 32
16 16 32
16 16 32
16 16 32
16 16 32
16 16 32
16 16 32
16 16 32
16 16 32
255 255 255
255 255 255
16 16 32
16 16 32
255 255 255
255 255 255
16 16 32
16 16 32
255 255 255
255 255 255
16 16 32
16 16 32
16 16 32
16 16 32
16 16 32
16 16 32
255 255 255
255 255 255
16 16 32
16 16 32
255 255 255
255 255 255
16 16 32
16 16 32
255 255 255
255 255 255
16 16 32
16 16 32
16 16 32
16 16 32
16 16 32
16 16 32
16 16 32
16 16 32
16 16 32
16 16 32
255 255 255
255 255 255
16 16 32
16 16 32
16 16 32
16 16 32
16 16 32
16 16 32
16 16 32
16 16 32
16 16 32
16 16 32
255 255 255
255 255 255
16 16 32
16 16 32
255 255 255
255 255 255
16 16 32
16 16 32
255 255 255
255 255 255
16 16 32
16 16 32
16 16 32
16 16 32
16 16 32
16 16 32
255 255 255
255 255 255
16 16 32
16 16 32
255 255 255
255 255 255
16 16 32
16 16 32
255 255 255
255 255 255
16 16 32
16 16 32
16 16 32
16 16 32
16 16 32
16 16 32
255 255 255
255 255 255
16 16 32
16 16 32
255 255 255
255 255 255
16 16 32
16 16 32
255 255 255
255 255 255
16 16 32
16 16 32
16 16 32
16 16 32
16 16 32
16 16 32
16 16 32
16 16 32
16 16 32
16 16 32
16 16 32
16 16 32
16 16 32
16 16 32
16 16 32
16 16 32
16 16 32
16 16 32
16 16 32
16 16 32
16 16 32
16 16 32
16 16 32
16 16 32
16 16 32
16 16 32
16 16 32
16 16 32
16 16 32
16 16 32
16 16 32
16 16 32
16 16 32
16 16 32
16 16 32
16 16 32
16 16 32
16 16 32
16 16 32
16 16 32
16 16 32
16 16 32
16 16 32
16 16 32
16 16 32
16 16 32
16 16 32
16 16 32
16 16 32
16 16 32
16 16 32
16 16 32
16 16 32
16 16 32
255 255 255
255 255 255
16 16 32
16 16 32
16 16 32
16 16 32
16 16 32
16 16 32
255 255 255
255 255 255
16 16 32
16 16 32
16 16 32
16 16 32
16 16 32
16 16 32
16 16 32
16 16 32
16 16 32
16 16 32
255 255 255
255 255 255
16 16 32
16 16 32
16 16 32
16 16 32
16 16 32
16 16 32
16 16 32
16 16 32
16 16 32
16 16 32
16 16 32
16 16 32
255 255 255
255 255 255
16 16 32
16 16 32
16 16 32
16 16 32
16 16 32
16 16 32
16 16 32
16 16 32
16 16 32
16 16 32
16 16 32
16 16 32
16 16 32
16 16 32
16 16 32
16 16 32
16 16 32
16 16 32
16 16 32
16 16 32
16 16 32
16 16 32
16 16 32
16 16 32
16 16 32
16 16 32
16 16 32
16 16 32
255 255 255
255 255 255
16 16 32
16 16 32
16 16 32
16 16 32
16 16 32
16 16 32
255 255 255
255 255 255
16 16 32
16 16 32
16 16 32
16 16 32
16 16 32
16 16 32
255 255 255
255 255 255
16 16 32
16 16 32
16 16 32
16 16 32
16 16 32
16 16 32
16 16 32
16 16 32
16 16 32
16 16 32
16 16 32
16 16 32
16 16 32
16 16 32
16 16 32
16 16 32
16 16 32
16 16 32
16 16 32
16 16 32
16 16 32
16 16 32
255 255 255
255 255 255
16 16 32
16 16 32
16 16 32
16 16 32
16 16 32
16 16 32
16 16 32
16 16 32
16 16 32
16 16 32
255 255 255
255 255 255
16 16 32
16 16 32
16 16 32
16 16 32
16 16 32
16 16 32
16 16 32
16 16 32
16 16 32
16 16 32
255 255 255
255 255 255
16 16 32
16 16 32
16 16 32
16 16 32
16 16 32
16 16 32
255 255 255
255 255 255
16 16 32
16 16 32
16 16 32
16 16 32
16 16 32
16 16 32
255 255 255
255 255 255
16 16 32
16 16 32
255 255 255
255 255 255
16 16 32
16 16 32
16 16 32
16 16 32
16 16 32
16 16 32
16 16 32
16 16 32
16 16 32
16 16 32
255 255 255
255 255 255
16 16 32
16 16 32
16 16 32
16 16 32
16 16 32
16 16 32
16 16 32
16 16 32
16 16 32
16 16 32
16 16 32
16 16 32
16 16 32
16 16 32
16 16 32
16 16 32
16 16 32
16 16 32
16 16 32
16 16 32
16 16 32
16 16 32
16 16 32
16 16 32
16 16 32
16 16 32
16 16 32
16 16 32
16 16 32
16 16 32
16 16 32
16 16 32
16 16 32
16 16 32
16 16 32
16 16 32
16 16 32
16 16 32
16 16 32
16 16 32
16 16 32
16 16 32
16 16 32
16 16 32
16 16 32
16 16 32
16 16 32
16 16 32
16 16 32
16 16 32
16 16 32
16 16 32
16 16 32
16 16 32
16 16 32
16 16 32
16 16 32
16 16 32
16 16 32
16 16 32
16 16 32
16 16 32
16 16 32
16 16 32
16 16 32
16 16 32
16 16 32
16 16 32
16 16 32
16 16 32
16 16 32
16 16 32
16 16 32
16 16 32
16 16 32
16 16 32
16 16 32
16 16 32
255 255 255
255 255 255
16 16 32
16 16 32
255 255 255
255 255 255
16 16 32
16 16 32
16 16 32
16 16 32
16 16 32
16 16 32
16 16 32
16 16 32
16 16 32
16 16 32
255 255 255
255 255 255
16 16 32
16 16 32
16 16 32
16 16 32
16 16 32
16 16 32
255 255 255
255 255 255
16 16 32
16 16 32
16 16 32
16 16 32
16 16 32
16 16 32
16 16 32
16 16 32
16 16 32
16 16 32
255 255 255
255 255 255
16 16 32
16 16 32
16 16 32
16 16 32
16 16 32
16 16 32
16 16 32
16 16 32
16 16 32
16 16 32
16 16 32
16 16 32
16 16 32
16 16 32
255 255 255
255 255 255
16 16 32
16 16 32
16 16 32
16 16 32
16 16 32
16 16 32
16 16 32
16 16 32
16 16 32
16 16 32
255 255 255
255 255 255
255 255 255
255 255 255
16 16 32
16 16 32
16 16 32
16 16 32
255 255 255
255 255 255
16 16 32
16 16 32
16 16 32
16 16 32
16 16 32
16 16 32
16 16 32
16 16 32
16 16 32
16 16 32
16 16 32
16 16 32
16 16 32
16 16 32
16 16 32
16 16 32
16 16 32
16 16 32
16 16 32
16 16 32
16 16 32
16 16 32
255 255 255
255 255 255
16 16 32
16 16 32
16 16 32
16 16 32
16 16 32
16 16 32
255 255 255
255 255 255
16 16 32
16 16 32
16 16 32
16 16 32
16 16 32
16 16 32
16 16 32
16 16 32
16 16 32
16 16 32
255 255 255
255 255 255
16 16 32
16 16 32
16 16 32
16 16 32
16 16 32
16 16 32
16 16 32
16 16 32
16 16 32
16 16 32
255 255 255
255 255 255
16 16 32
16 16 32
16 16 32
16 16 32
16 16 32
16 16 32
16 16 32
16 16 32
16 16 32
16 16 32
16 16 32
16 16 32
16 16 32
16 16 32
16 16 32
16 16 32
16 16 32
16 16 32
255 255 255
255 255 255
16 16 32
16 16 32
16 16 32
16 16 32
16 16 32
16 16 32
16 16 32
16 16 32
16 16 32
16 16 32
16 16 32
16 16 32
16 16 32
16 16 32
16 16 32
16 16 32
16 16 32
16 16 32
255 255 255
255 255 255
16 16 32
16 16 32
16 16 32
16 16 32
16 16 32
16 16 32
16 16 32
16 16 32
16 16 32
16 16 32
255 255 255
255 255 255
16 16 32
16 16 32
16 16 32
16 16 32
16 16 32
16 16 32
16 16 32
16 16 32
16 16 32
16 16 32
16 16 32
16 16 32
16 16 32
16 16 32
16 16 32
16 16 32
16 16 32
16 16 32
16 16 32
16 16 32
16 16 32
16 16 32
16 16 32
16 16 32
16 16 32
16 16 32
16 16 32
16 16 32
16 16 32
16 16 32
16 16 32
16 16 32
16 16 32
16 16 32
16 16 32
16 16 32
16 16 32
16 16 32
16 16 32
16 16 32
16 16 32
16 16 32
16 16 32
16 16 32
16 16 32
16 16 32
16 16 32
16 16 32
16 16 32
16 16 32
16 16 32
16 16 32
16 16 32
16 16 32
16 16 32
16 16 32
16 16 32
16 16 32
255 255 255
255 255 255
16 16 32
16 16 32
16 16 32
16 16 32
16 16 32
16 16 32
16 16 32
16 16 32
16 16 32
16 16 32
16 16 32
16 16 32
16 16 32
16 16 32
16 16 32
16 16 32
16 16 32
16 16 32
255 255 255
255 255 255
16 16 32
16 16 32
16 16 32
16 16 32
16 16 32
16 16 32
16 16 32
16 16 32
16 16 32
16 16 32
255 255 255
255 255 255
255 255 255
255 255 255
16 16 32
16 16 32
16 16 32
16 16 32
255 255 255
255 255 255
16 16 32
16 16 32
16 16 32
16 16 32
16 16 32
16 16 32
255 255 255
255 255 255
255 255 255
255 255 255
16 16 32
16 16 32
16 16 32
16 16 32
255 255 255
255 255 255
16 16 32
16 16 32
16 16 32
16 16 32
16 16 32
16 16 32
255 255 255
255 255 255
255 255 255
255 255 255
16 16 32
16 16 32
16 16 32
16 16 32
255 255 255
255 255 255
16 16 32
16 16 32
16 16 32
16 16 32
16 16 32
16 16 32
16 16 32
16 16 32
16 16 32
16 16 32
16 16 32
16 16 32
16 16 32
16 16 32
255 255 255
255 255 255
16 16 32
16 16 32
16 16 32
16 16 32
16 16 32
16 16 32
16 16 32
16 16 32
16 16 32
16 16 32
16 16 32
16 16 32
16 16 32
16 16 32
255 255 255
255 255 255
16 16 32
16 16 32
16 16 32
16 16 32
16 16 32
16 16 32
16 16 32
16 16 32
16 16 32
16 16 32
16 16 32
16 16 32
16 16 32
16 16 32
255 255 255
255 255 255
16 16 32
16 16 32
16 16 32
16 16 32
16 16 32
16 16 32
16 16 32
16 16 32
16 16 32
16 16 32
16 16 32
16 16 32
16 16 32
16 16 32
16 16 32
16 16 32
16 16 32
16 16 32
16 16 32
16 16 32
16 16 32
16 16 32
16 16 32
16 16 32
255 255 255
255 255 255
16 16 32
16 16 32
16 16 32
16 16 32
16 16 32
16 16 32
16 16 32
16 16 32
16 16 32
16 16 32
16 16 32
16 16 32
16 16 32
16 16 32
16 16 32
16 16 32
255 255 255
255 255 255
16 16 32
16 16 32
16 16 32
16 16 32
16 16 32
16 16 32
16 16 32
16 16 32
16 16 32
16 16 32
255 255 255
255 255 255
255 255 255
255 255 255
16 16 32
16 16 32
16 16 32
16 16 32
255 255 255
255 255 255
16 16 32
16 16 32
16 16 32
16 16 32
16 16 32
16 16 32
255 255 255
255 255 255
255 255 255
255 255 255
16 16 32
16 16 32
16 16 32
16 16 32
255 255 255
255 255 255
16 16 32
16 16 32
16 16 32
16 16 32
16 16 32
16 16 32
255 255 255
255 255 255
255 255 255
255 255 255
16 16 32
16 16 32
16 16 32
16 16 32
255 255 255
255 255 255
16 16 32
16 16 32
16 16 32
16 16 32
16 16 32
16 16 32
16 16 32
16 16 32
16 16 32
16 16 32
16 16 32
16 16 32
16 16 32
16 16 32
16 16 32
16 16 32
16 16 32
16 16 32
16 16 32
16 16 32
16 16 32
16 16 32
255 255 255
255 255 255
16 16 32
16 16 32
16 16 32
16 16 32
16 16 32
16 16 32
255 255 255
255 255 255
16 16 32
16 16 32
16 16 32
16 16 32
16 16 32
16 16 32
16 16 32
16 16 32
16 16 32
16 16 32
255 255 255
255 255 255
16 16 32
16 16 32
16 16 32
16 16 32
16 16 32
16 16 32
16 16 32
16 16 32
16 16 32
16 16 32
255 255 255
255 255 255
255 255 255
255 255 255
16 16 32
16 16 32
16 16 32
16 16 32
255 255 255
255 255 255
16 16 32
16 16 32
16 16 32
16 16 32
16 16 32
16 16 32
255 255 255
255 255 255
16 16 32
16 16 32
16 16 32
16 16 32
16 16 32
16 16 32
255 255 255
255 255 255
16 16 32
16 16 32
16 16 32
16 16 32
16 16 32
16 16 32
16 16 32
16 16 32
16 16 32
16 16 32
16 16 32
16 16 32
16 16 32
16 16 32
255 255 255
255 255 255
16 16 32
16 16 32
16 16 32
16 16 32
16 16 32
16 16 32
16 16 32
16 16 32
16 16 32
16 16 32
16 16 32
16 16 32
16 16 32
16 16 32
255 255 255
255 255 255
16 16 32
16 16 32
16 16 32
16 16 32
16 16 32
16 16 32
16 16 32
16 16 32
16 16 32
16 16 32
255 255 255
255 255 255
16 16 32
16 16 32
16 16 32
16 16 32
16 16 32
16 16 32
16 16 32
16 16 32
16 16 32
16 16 32
255 255 255
255 255 255
255 255 255
255 255 255
255 255 255
255 255 255
255 255 255
255 255 255
255 255 255
255 255 255
16 16 32
16 16 32
16 16 32
16 16 32
16 16 32
16 16 32
16 16 32
16 16 32
16 16 32
16 16 32
16 16 32
16 16 32
16 16 32
16 16 32
16 16 32
16 16 32
16 16 32
16 16 32
16 16 32
16 16 32
16 16 32
16 16 32
255 255 255
255 255 255
16 16 32
16 16 32
255 255 255
255 255 255
16 16 32
16 16 32
16 16 32
16 16 32
16 16 32
16 16 32
16 16 32
16 16 32
16 16 32
16 16 32
16 16 32
16 16 32
16 16 32
16 16 32
255 255 255
255 255 255
16 16 32
16 16 32
16 16 32
16 16 32
16 16 32
16 16 32
16 16 32
16 16 32
16 16 32
16 16 32
255 255 255
255 255 255
255 255 255
255 255 255
16 16 32
16 16 32
16 16 32
16 16 32
255 255 255
255 255 255
16 16 32
16 16 32
16 16 32
16 16 32
16 16 32
16 16 32
255 255 255
255 255 255
255 255 255
255 255 255
16 16 32
16 16 32
16 16 32
16 16 32
255 255 255
255 255 255
16 16 32
16 16 32
16 16 32
16 16 32
16 16 32
16 16 32
16 16 32
16 16 32
16 16 32
16 16 32
255 255 255
255 255 255
16 16 32
16 16 32
16 16 32
16 16 32
16 16 32
16 16 32
16 16 32
16 16 32
16 16 32
16 16 32
255 255 255
255 255 255
255 255 255
255 255 255
16 16 32
16 16 32
16 16 32
16 16 32
255 255 255
255 255 255
16 16 32
16 16 32
16 16 32
16 16 32
16 16 32
16 16 32
255 255 255
255 255 255
255 255 255
255 255 255
16 16 32
16 16 32
16 16 32
16 16 32
255 255 255
255 255 255
16 16 32
16 16 32
16 16 32
16 16 32
16 16 32
16 16 32
255 255 255
255 255 255
255 255 255
255 255 255
16 16 32
16 16 32
16 16 32
16 16 32
255 255 255
255 255 255
16 16 32
16 16 32
16 16 32
16 16 32
16 16 32
16 16 32
16 16 32
16 16 32
16 16 32
16 16 32
16 16 32
16 16 32
16 16 32
16 16 32
16 16 32
16 16 32
16 16 32
16 16 32
16 16 32
16 16 32
16 16 32
16 16 32
16 16 32
16 16 32
16 16 32
16 16 32
16 16 32
16 16 32
16 16 32
16 16 32
16 16 32
16 16 32
16 16 32
16 16 32
16 16 32
16 16 32
16 16 32
16 16 32
16 16 32
16 16 32
16 16 32
16 16 32
16 16 32
16 16 32
16 16 32
16 16 32
16 16 32
16 16 32
16 16 32
16 16 32
16 16 32
16 16 32
16 16 32
16 16 32
255 255 255
255 255 255
16 16 32
16 16 32
16 16 32
16 16 32
16 16 32
16 16 32
255 255 255
255 255 255
16 16 32
16 16 32
16 16 32
16 16 32
16 16 32
16 16 32
16 16 32
16 16 32
16 16 32
16 16 32
255 255 255
255 255 255
16 16 32
16 16 32
16 16 32
16 16 32
16 16 32
16 16 32
16 16 32
16 16 32
16 16 32
16 16 32
16 16 32
16 16 32
255 255 255
255 255 255
16 16 32
16 16 32
16 16 32
16 16 32
16 16 32
16 16 32
16 16 32
16 16 32
16 16 32
16 16 32
16 16 32
16 16 32
16 16 32
16 16 32
16 16 32
16 16 32
16 16 32
16 16 32
16 16 32
16 16 32
16 16 32
16 16 32
16 16 32
16 16 32
16 16 32
16 16 32
16 16 32
16 16 32
255 255 255
255 255 255
16 16 32
16 16 32
16 16 32
16 16 32
16 16 32
16 16 32
255 255 255
255 255 255
16 16 32
16 16 32
16 16 32
16 16 32
16 16 32
16 16 32
255 255 255
255 255 255
16 16 32
16 16 32
16 16 32
16 16 32
16 16 32
16 16 32
16 16 32
16 16 32
16 16 32
16 16 32
16 16 32
16 16 32
16 16 32
16 16 32
16 16 32
16 16 32
16 16 32
16 16 32
16 16 32
16 16 32
16 16 32
16 16 32
255 255 255
255 255 255
16 16 32
16 16 32
16 16 32
16 16 32
16 16 32
16 16 32
16 16 32
16 16 32
16 16 32
16 16 32
255 255 255
255 255 255
16 16 32
16 16 32
16 16 32
16 16 32
16 16 32
16 16 32
16 16 32
16 16 32
16 16 32
16 16 32
255 255 255
255 255 255
16 16 32
16 16 32
16 16 32
16 16 32
16 16 32
16 16 32
255 255 255
255 255 255
16 16 32
16 16 32
16 16 32
16 16 32
16 16 32
16 16 32
255 255 255
255 255 255
16 16 32
16 16 32
255 255 255
255 255 255
16 16 32
16 16 32
16 16 32
16 16 32
16 16 32
16 16 32
16 16 32
16 16 32
16 16 32
16 16 32
255 255 255
255 255 255
16 16 32
16 16 32
16 16 32
16 16 32
16 16 32
16 16 32
16 16 32
16 16 32
16 16 32
16 16 32
16 16 32
16 16 32
16 16 32
16 16 32
16 16 32
16 16 32
16 16 32
16 16 32
16 16 32
16 16 32
16 16 32
16 16 32
16 16 32
16 16 32
16 16 32
16 16 32
16 16 32
16 16 32
16 16 32
16 16 32
16 16 32
16 16 32
16 16 32
16 16 32
16 16 32
16 16 32
16 16 32
16 16 32
16 16 32
16 16 32
16 16 32
16 16 32
16 16 32
16 16 32
16 16 32
16 16 32
16 16 32
16 16 32
16 16 32
16 16 32
16 16 32
16 16 32
16 16 32
16 16 32
16 16 32
16 16 32
16 16 32
16 16 32
16 16 32
16 16 32
16 16 32
16 16 32
16 16 32
16 16 32
16 16 32
16 16 32
16 16 32
16 16 32
16 16 32
16 16 32
16 16 32
16 16 32
16 16 32
16 16 32
16 16 32
16 16 32
16 16 32
16 16 32
255 255 255
255 255 255
16 16 32
16 16 32
255 255 255
255 255 255
16 16 32
16 16 32
16 16 32
16 16 32
16 16 32
16 16 32
16 16 32
16 16 32
16 16 32
16 16 32
255 255 255
255 255 255
16 16 32
16 16 32
16 16 32
16 16 32
16 16 32
16 16 32
255 255 255
255 255 255
16 16 32
16 16 32
16 16 32
16 16 32
16 16 32
16 16 32
16 16 32
16 16 32
16 16 32
16 16 32
255 255 255
255 255 255
16 16 32
16 16 32
16 16 32
16 16 32
16 16 32
16 16 32
16 16 32
16 16 32
16 16 32
16 16 32
16 16 32
16 16 32
16 16 32
16 16 32
255 255 255
255 255 255
16 16 32
16 16 32
16 16 32
16 16 32
16 16 32
16 16 32
16 16 32
16 16 32
16 16 32
16 16 32
255 255 255
255 255 255
255 255 255
255 255 255
16 16 32
16 16 32
16 16 32
16 16 32
255 255 255
255 255 255
16 16 32
16 16 32
16 16 32
16 16 32
16 16 32
16 16 32
16 16 32
16 16 32
16 16 32
16 16 32
16 16 32
16 16 32
16 16 32
16 16 32
16 16 32
16 16 32
16 16 32
16 16 32
16 16 32
16 16 32
16 16 32
16 16 32
255 255 255
255 255 255
16 16 32
16 16 32
16 16 32
16 16 32
16 16 32
16 16 32
255 255 255
255 255 255
16 16 32
16 16 32
16 16 32
16 16 32
16 16 32
16 16 32
16 16 32
16 16 32
16 16 32
16 16 32
255 255 255
255 255 255
16 16 32
16 16 32
16 16 32
16 16 32
16 16 32
16 16 32
16 16 32
16 16 32
16 16 32
16 16 32
255 255 255
255 255 255
16 16 32
16 16 32
16 16 32
16 16 32
16 16 32
16 16 32
16 16 32
16 16 32
16 16 32
16 16 32
16 16 32
16 16 32
16 16 32
16 16 32
16 16 32
16 16 32
16 16 32
16 16 32
255 255 255
255 255 255
16 16 32
16 16 32
16 16 32
16 16 32
16 16 32
16 16 32
16 16 32
16 16 32
16 16 32
16 16 32
16 16 32
16 16 32
16 16 32
16 16 32
16 16 32
16 16 32
16 16 32
16 16 32
255 255 255
255 255 255
16 16 32
16 16 32
16 16 32
16 16 32
16 16 32
16 16 32
16 16 32
16 16 32
16 16 32
16 16 32
255 255 255
255 255 255
16 16 32
16 16 32
16 16 32
16 16 32
16 16 32
16 16 32
16 16 32
16 16 32
16 16 32
16 16 32
16 16 32
16 16 32
16 16 32
16 16 32
16 16 32
16 16 32
16 16 32
16 16 32
16 16 32
16 16 32
16 16 32
16 16 32
16 16 32
16 16 32
16 16 32
16 16 32
16 16 32
16 16 32
16 16 32
16 16 32
16 16 32
16 16 32
16 16 32
16 16 32
16 16 32
16 16 32
16 16 32
16 16 32
16 16 32
16 16 32
16 16 32
16 16 32
16 16 32
16 16 32
16 16 32
16 16 32
16 16 32
16 16 32
16 16 32
16 16 32
16 16 32
16 16 32
16 16 32
16 16 32
16 16 32
16 16 32
16 16 32
16 16 32
255 255 255
255 255 255
16 16 32
16 16 32
16 16 32
16 16 32
16 16 32
16 16 32
16 16 32
16 16 32
16 16 32
16 16 32
16 16 32
16 16 32
16 16 32
16 16 32
16 16 32
16 16 32
16 16 32
16 16 32
255 255 255
255 255 255
16 16 32
16 16 32
16 16 32
16 16 32
16 16 32
16 16 32
16 16 32
16 16 32
16 16 32
16 16 32
255 255 255
255 255 255
255 255 255
255 255 255
16 16 32
16 16 32
16 16 32
16 16 32
255 255 255
255 255 255
16 16 32
16 16 32
16 16 32
16 16 32
16 16 32
16 16 32
255 255 255
255 255 255
255 255 255
255 255 255
16 16 32
16 16 32
16 16 32
16 16 32
255 255 255
255 255 255
16 16 32
16 16 32
16 16 32
16 16 32
16 16 32
16 16 32
255 255 255
255 255 255
255 255 255
255 255 255
16 16 32
16 16 32
16 16 32
16 16 32
255 255 255
255 255 255
16 16 32
16 16 32
16 16 32
16 16 32
16 16 32
16 16 32
16 16 32
16 16 32
16 16 32
16 16 32
16 16 32
16 16 32
16 16 32
16 16 32
255 255 255
255 255 255
16 16 32
16 16 32
16 16 32
16 16 32
16 16 32
16 16 32
16 16 32
16 16 32
16 16 32
16 16 32
16 16 32
16 16 32
16 16 32
16 16 32
255 255 255
255 255 255
16 16 32
16 16 32
16 16 32
16 16 32
16 16 32
16 16 32
16 16 32
16 16 32
16 16 32
16 16 32
16 16 32
16 16 32
16 16 32
16 16 32
255 255 255
255 255 255
16 16 32
16 16 32
16 16 32
16 16 32
16 16 32
16 16 32
16 16 32
16 16 32
16 16 32
16 16 32
16 16 32
16 16 32
16 16 32
16 16 32
16 16 32
16 16 32
16 16 32
16 16 32
16 16 32
16 16 32
16 16 32
16 16 32
16 16 32
16 16 32
255 255 255
255 255 255
16 16 32
16 16 32
16 16 32
16 16 32
16 16 32
16 16 32
16 16 32
16 16 32
16 16 32
16 16 32
16 16 32
16 16 32
16 16 32
16 16 32
16 16 32
16 16 32
255 255 255
255 255 255
16 16 32
16 16 32
16 16 32
16 16 32
16 16 32
16 16 32
16 16 32
16 16 32
16 16 32
16 16 32
255 255 255
255 255 255
255 255 255
255 255 255
16 16 32
16 16 32
16 16 32
16 16 32
255 255 255
255 255 255
16 16 32
16 16 32
16 16 32
16 16 32
16 16 32
16 16 32
255 255 255
255 255 255
255 255 255
255 255 255
16 16 32
16 16 32
16 16 32
16 16 32
255 255 255
255 255 255
16 16 32
16 16 32
16 16 32
16 16 32
16 16 32
16 16 32
255 255 255
255 255 255
255 255 255
255 255 255
16 16 32
16 16 32
16 16 32
16 16 32
255 255 255
255 255 255
16 16 32
16 16 32
16 16 32
16 16 32
16 16 32
16 16 32
16 16 32
16 16 32
16 16 32
16 16 32
16 16 32
16 16 32
16 16 32
16 16 32
16 16 32
16 16 32
16 16 32
16 16 32
16 16 32
16 16 32
16 16 32
16 16 32
255 255 255
255 255 255
16 16 32
16 16 32
16 16 32
16 16 32
16 16 32
16 16 32
255 255 255
255 255 255
16 16 32
16 16 32
16 16 32
16 16 32
16 16 32
16 16 32
16 16 32
16 16 32
16 16 32
16 16 32
255 255 255
255 255 255
16 16 32
16 16 32
16 16 32
16 16 32
16 16 32
16 16 32
16 16 32
16 16 32
16 16 32
16 16 32
255 255 255
255 255 255
255 255 255
255 255 255
16 16 32
16 16 32
16 16 32
16 16 32
255 255 255
255 255 255
16 16 32
16 16 32
16 16 32
16 16 32
16 16 32
16 16 32
255 255 255
255 255 255
16 16 32
16 16 32
16 16 32
16 16 32
16 16 32
16 16 32
255 255 255
255 255 255
16 16 32
16 16 32
16 16 32
16 16 32
16 16 32
16 16 32
16 16 32
16 16 32
16 16 32
16 16 32
16 16 32
16 16 32
16 16 32
16 16 32
255 255 255
255 255 255
16 16 32
16 16 32
16 16 32
16 16 32
16 16 32
16 16 32
16 16 32
16 16 32
16 16 32
16 16 32
16 16 32
16 16 32
16 16 32
16 16 32
255 255 255
255 255 255
16 16 32
16 16 32
16 16 32
16 16 32
16 16 32
16 16 32
16 16 32
16 16 32
16 16 32
16 16 32
255 255 255
255 255 255
16 16 32
16 16 32
16 16 32
16 16 32
16 16 32
16 16 32
16 16 32
16 16 32
16 16 32
16 16 32
255 255 255
255 255 255
255 255 255
255 255 255
255 255 255
255 255 255
255 255 255
255 255 255
255 255 255
255 255 255
16 16 32
16 16 32
16 16 32
16 16 32
16 16 32
16 16 32
16 16 32
16 16 32
16 16 32
16 16 32
16 16 32
16 16 32
16 16 32
16 16 32
16 16 32
16 16 32
16 16 32
16 16 32
16 16 32
16 16 32
16 16 32
16 16 32
255 255 255
255 255 255
16 16 32
16 16 32
255 255 255
255 255 255
16 16 32
16 16 32
16 16 32
16 16 32
16 16 32
16 16 32
16 16 32
16 16 32
16 16 32
16 16 32
16 16 32
16 16 32
16 16 32
16 16 32
255 255 255
255 255 255
16 16 32
16 16 32
16 16 32
16 16 32
16 16 32
16 16 32
16 16 32
16 16 32
16 16 32
16 16 32
255 255 255
255 255 255
255 255 255
255 255 255
16 16 32
16 16 32
16 16 32
16 16 32
255 255 255
255 255 255
16 16 32
16 16 32
16 16 32
16 16 32
16 16 32
16 16 32
255 255 255
255 255 255
255 255 255
255 255 255
16 16 32
16 16 32
16 16 32
16 16 32
255 255 255
255 255 255
16 16 32
16 16 32
16 16 32
16 16 32
16 16 32
16 16 32
16 16 32
16 16 32
16 16 32
16 16 32
255 255 255
255 255 255
16 16 32
16 16 32
16 16 32
16 16 32
16 16 32
16 16 32
16 16 32
16 16 32
16 16 32
16 16 32
255 255 255
255 255 255
255 255 255
255 255 255
16 16 32
16 16 32
16 16 32
16 16 32
255 255 255
255 255 255
16 16 32
16 16 32
16 16 32
16 16 32
16 16 32
16 16 32
255 255 255
255 255 255
255 255 255
255 255 255
16 16 32
16 16 32
16 16 32
16 16 32
255 255 255
255 255 255
16 16 32
16 16 32
16 16 32
16 16 32
16 16 32
16 16 32
255 255 255
255 255 255
255 255 255
255 255 255
16 16 32
16 16 32
16 16 32
16 16 32
255 255 255
255 255 255
16 16 32
16 16 32
16 16 32
16 16 32
16 16 32
16 16 32
16 16 32
16 16 32
16 16 32
16 16 32
16 16 32
16 16 32
16 16 32
16 16 32
16 16 32
16 16 32
16 16 32
16 16 32
16 16 32
16 16 32
16 16 32
16 16 32
16 16 32
16 16 32
16 16 32
16 16 32
16 16 32
16 16 32
16 16 32
16 16 32
16 16 32
16 16 32
16 16 32
16 16 32
16 16 32
16 16 32
16 16 32
16 16 32
16 16 32
16 16 32
16 16 32
16 16 32
16 16 32
16 16 32
16 16 32
16 16 32
16 16 32
16 16 32
16 16 32
16 16 32
16 16 32
16 16 32
16 16 32
16 16 32
255 255 255
255 255 255
16 16 32
16 16 32
16 16 32
16 16 32
16 16 32
16 16 32
255 255 255
255 255 255
16 16 32
16 16 32
16 16 32
16 16 32
16 16 32
16 16 32
16 16 32
16 16 32
16 16 32
16 16 32
255 255 255
255 255 255
16 16 32
16 16 32
16 16 32
16 16 32
16 16 32
16 16 32
16 16 32
16 16 32
16 16 32
16 16 32
16 16 32
16 16 32
255 255 255
255 255 255
16 16 32
16 16 32
16 16 32
16 16 32
16 16 32
16 16 32
16 16 32
16 16 32
16 16 32
16 16 32
16 16 32
16 16 32
16 16 32
16 16 32
16 16 32
16 16 32
16 16 32
16 16 32
16 16 32
16 16 32
16 16 32
16 16 32
16 16 32
16 16 32
16 16 32
16 16 32
16 16 32
16 16 32
255 255 255
255 255 255
16 16 32
16 16 32
16 16 32
16 16 32
16 16 32
16 16 32
255 255 255
255 255 255
16 16 32
16 16 32
16 16 32
16 16 32
16 16 32
16 16 32
255 255 255
255 255 255
16 16 32
16 16 32
16 16 32
16 16 32
16 16 32
16 16 32
16 16 32
16 16 32
16 16 32
16 16 32
16 16 32
16 16 32
16 16 32
16 16 32
16 16 32
16 16 32
16 16 32
16 16 32
16 16 32
16 16 32
16 16 32
16 16 32
255 255 255
255 255 255
16 16 32
16 16 32
16 16 32
16 16 32
16 16 32
16 16 32
16 16 32
16 16 32
16 16 32
16 16 32
255 255 255
255 255 255
16 16 32
16 16 32
16 16 32
16 16 32
16 16 32
16 16 32
16 16 32
16 16 32
16 16 32
16 16 32
255 255 255
255 255 255
16 16 32
16 16 32
16 16 32
16 16 32
16 16 32
16 16 32
255 255 255
255 255 255
16 16 32
16 16 32
16 16 32
16 16 32
16 16 32
16 16 32
255 255 255
255 255 255
16 16 32
16 16 32
16 16 32
16 16 32
255 255 255
255 255 255
16 16 32
16 16 32
16 16 32
16 16 32
16 16 32
16 16 32
16 16 32
16 16 32
255 255 255
255 255 255
16 16 32
16 16 32
16 16 32
16 16 32
16 16 32
16 16 32
16 16 32
16 16 32
16 16 32
16 16 32
16 16 32
16 16 32
16 16 32
16 16 32
16 16 32
16 16 32
16 16 32
16 16 32
16 16 32
16 16 32
16 16 32
16 16 32
16 16 32
16 16 32
16 16 32
16 16 32
16 16 32
16 16 32
16 16 32
16 16 32
16 16 32
16 16 32
16 16 32
16 16 32
16 16 32
16 16 32
16 16 32
16 16 32
16 16 32
16 16 32
16 16 32
16 16 32
16 16 32
16 16 32
16 16 32
16 16 32
16 16 32
16 16 32
16 16 32
16 16 32
16 16 32
16 16 32
16 16 32
16 16 32
16 16 32
16 16 32
16 16 32
16 16 32
16 16 32
16 16 32
16 16 32
16 16 32
16 16 32
16 16 32
16 16 32
16 16 32
16 16 32
16 16 32
16 16 32
16 16 32
16 16 32
16 16 32
16 16 32
16 16 32
16 16 32
16 16 32
16 16 32
16 16 32
255 255 255
255 255 255
16 16 32
16 16 32
16 16 32
16 16 32
255 255 255
255 255 255
16 16 32
16 16 32
16 16 32
16 16 32
16 16 32
16 16 32
16 16 32
16 16 32
255 255 255
255 255 255
16 16 32
16 16 32
16 16 32
16 16 32
16 16 32
16 16 32
255 255 255
255 255 255
16 16 32
16 16 32
16 16 32
16 16 32
16 16 32
16 16 32
16 16 32
16 16 32
16 16 32
16 16 32
255 255 255
255 255 255
16 16 32
16 16 32
16 16 32
16 16 32
16 16 32
16 16 32
16 16 32
16 16 32
16 16 32
16 16 32
16 16 32
16 16 32
16 16 32
16 16 32
255 255 255
255 255 255
16 16 32
16 16 32
16 16 32
16 16 32
16 16 32
16 16 32
16 16 32
16 16 32
16 16 32
16 16 32
255 255 255
255 255 255
16 16 32
16 16 32
16 16 32
16 16 32
16 16 32
16 16 32
255 255 255
255 255 255
16 16 32
16 16 32
16 16 32
16 16 32
16 16 32
16 16 32
16 16 32
16 16 32
16 16 32
16 16 32
16 16 32
16 16 32
16 16 32
16 16 32
16 16 32
16 16 32
16 16 32
16 16 32
16 16 32
16 16 32
16 16 32
16 16 32
255 255 255
255 255 255
16 16 32
16 16 32
16 16 32
16 16 32
16 16 32
16 16 32
255 255 255
255 255 255
16 16 32
16 16 32
16 16 32
16 16 32
16 16 32
16 16 32
16 16 32
16 16 32
16 16 32
16 16 32
255 255 255
255 255 255
16 16 32
16 16 32
16 16 32
16 16 32
16 16 32
16 16 32
16 16 32
16 16 32
16 16 32
16 16 32
255 255 255
255 255 255
16 16 32
16 16 32
16 16 32
16 16 32
16 16 32
16 16 32
16 16 32
16 16 32
16 16 32
16 16 32
16 16 32
16 16 32
16 16 32
16 16 32
16 16 32
16 16 32
16 16 32
16 16 32
255 255 255
255 255 255
16 16 32
16 16 32
16 16 32
16 16 32
16 16 32
16 16 32
16 16 32
16 16 32
16 16 32
16 16 32
16 16 32
16 16 32
16 16 32
16 16 32
16 16 32
16 16 32
16 16 32
16 16 32
255 255 255
255 255 255
16 16 32
16 16 32
16 16 32
16 16 32
16 16 32
16 16 32
16 16 32
16 16 32
16 16 32
16 16 32
255 255 255
255 255 255
16 16 32
16 16 32
16 16 32
16 16 32
16 16 32
16 16 32
16 16 32
16 16 32
16 16 32
16 16 32
16 16 32
16 16 32
16 16 32
16 16 32
16 16 32
16 16 32
16 16 32
16 16 32
16 16 32
16 16 32
16 16 32
16 16 32
16 16 32
16 16 32
16 16 32
16 16 32
16 16 32
16 16 32
16 16 32
16 16 32
16 16 32
16 16 32
16 16 32
16 16 32
16 16 32
16 16 32
16 16 32
16 16 32
16 16 32
16 16 32
16 16 32
16 16 32
16 16 32
16 16 32
16 16 32
16 16 32
16 16 32
16 16 32
16 16 32
16 16 32
16 16 32
16 16 32
16 16 32
16 16 32
16 16 32
16 16 32
16 16 32
16 16 32
255 255 255
255 255 255
16 16 32
16 16 32
16 16 32
16 16 32
16 16 32
16 16 32
16 16 32
16 16 32
16 16 32
16 16 32
16 16 32
16 16 32
16 16 32
16 16 32
16 16 32
16 16 32
16 16 32
16 16 32
255 255 255
255 255 255
16 16 32
16 16 32
16 16 32
16 16 32
16 16 32
16 16 32
16 16 32
16 16 32
16 16 32
16 16 32
255 255 255
255 255 255
16 16 32
16 16 32
16 16 32
16 16 32
16 16 32
16 16 32
255 255 255
255 255 255
16 16 32
16 16 32
16 16 32
16 16 32
16 16 32
16 16 32
255 255 255
255 255 255
16 16 32
16 16 32
16 16 32
16 16 32
16 16 32
16 16 32
255 255 255
255 255 255
16 16 32
16 16 32
16 16 32
16 16 32
16 16 32
16 16 32
255 255 255
255 255 255
16 16 32
16 16 32
16 16 32
16 16 32
16 16 32
16 16 32
255 255 255
255 255 255
16 16 32
16 16 32
16 16 32
16 16 32
16 16 32
16 16 32
16 16 32
16 16 32
16 16 32
16 16 32
16 16 32
16 16 32
16 16 32
16 16 32
255 255 255
255 255 255
16 16 32
16 16 32
16 16 32
16 16 32
16 16 32
16 16 32
16 16 32
16 16 32
16 16 32
16 16 32
16 16 32
16 16 32
16 16 32
16 16 32
255 255 255
255 255 255
16 16 32
16 16 32
16 16 32
16 16 32
16 16 32
16 16 32
16 16 32
16 16 32
16 16 32
16 16 32
16 16 32
16 16 32
16 16 32
16 16 32
255 255 255
255 255 255
16 16 32
16 16 32
16 16 32
16 16 32
16 16 32
16 16 32
16 16 32
16 16 32
16 16 32
16 16 32
16 16 32
16 16 32
16 16 32
16 16 32
16 16 32
16 16 32
16 16 32
16 16 32
16 16 32
16 16 32
16 16 32
16 16 32
16 16 32
16 16 32
255 255 255
255 255 255
16 16 32
16 16 32
16 16 32
16 16 32
16 16 32
16 16 32
16 16 32
16 16 32
16 16 32
16 16 32
16 16 32
16 16 32
16 16 32
16 16 32
16 16 32
16 16 32
255 255 255
255 255 255
16 16 32
16 16 32
16 16 32
16 16 32
16 16 32
16 16 32
16 16 32
16 16 32
16 16 32
16 16 32
255 255 255
255 255 255
16 16 32
16 16 32
16 16 32
16 16 32
16 16 32
16 16 32
255 255 255
255 255 255
16 16 32
16 16 32
16 16 32
16 16 32
16 16 32
16 16 32
255 255 255
255 255 255
16 16 32
16 16 32
16 16 32
16 16 32
16 16 32
16 16 32
255 255 255
255 255 255
16 16 32
16 16 32
16 16 32
16 16 32
16 16 32
16 16 32
255 255 255
255 255 255
16 16 32
16 16 32
16 16 32
16 16 32
16 16 32
16 16 32
255 255 255
255 255 255
16 16 32
16 16 32
16 16 32
16 16 32
16 16 32
16 16 32
16 16 32
16 16 32
16 16 32
16 16 32
16 16 32
16 16 32
16 16 32
16 16 32
16 16 32
16 16 32
16 16 32
16 16 32
16 16 32
16 16 32
16 16 32
16 16 32
255 255 255
255 255 255
16 16 32
16 16 32
16 16 32
16 16 32
16 16 32
16 16 32
255 255 255
255 255 255
16 16 32
16 16 32
16 16 32
16 16 32
16 16 32
16 16 32
16 16 32
16 16 32
16 16 32
16 16 32
255 255 255
255 255 255
16 16 32
16 16 32
16 16 32
16 16 32
16 16 32
16 16 32
16 16 32
16 16 32
16 16 32
16 16 32
255 255 255
255 255 255
16 16 32
16 16 32
16 16 32
16 16 32
16 16 32
16 16 32
255 255 255
255 255 255
16 16 32
16 16 32
16 16 32
16 16 32
16 16 32
16 16 32
255 255 255
255 255 255
16 16 32
16 16 32
16 16 32
16 16 32
16 16 32
16 16 32
255 255 255
255 255 255
16 16 32
16 16 32
16 16 32
16 16 32
16 16 32
16 16 32
16 16 32
16 16 32
16 16 32
16 16 32
16 16 32
16 16 32
16 16 32
16 16 32
255 255 255
255 255 255
16 16 32
16 16 32
16 16 32
16 16 32
16 16 32
16 16 32
16 16 32
16 16 32
16 16 32
16 16 32
16 16 32
16 16 32
16 16 32
16 16 32
255 255 255
255 255 255
16 16 32
16 16 32
16 16 32
16 16 32
16 16 32
16 16 32
16 16 32
16 16 32
255 255 255
255 255 255
16 16 32
16 16 32
16 16 32
16 16 32
16 16 32
16 16 32
16 16 32
16 16 32
16 16 32
16 16 32
16 16 32
16 16 32
16 16 32
16 16 32
16 16 32
16 16 32
16 16 32
16 16 32
255 255 255
255 255 255
16 16 32
16 16 32
16 16 32
16 16 32
16 16 32
16 16 32
16 16 32
16 16 32
16 16 32
16 16 32
16 16 32
16 16 32
16 16 32
16 16 32
16 16 32
16 16 32
16 16 32
16 16 32
16 16 32
16 16 32
16 16 32
16 16 32
16 16 32
16 16 32
255 255 255
255 255 255
16 16 32
16 16 32
16 16 32
16 16 32
255 255 255
255 255 255
16 16 32
16 16 32
16 16 32
16 16 32
16 16 32
16 16 32
16 16 32
16 16 32
16 16 32
16 16 32
16 16 32
16 16 32
255 255 255
255 255 255
16 16 32
16 16 32
16 16 32
16 16 32
16 16 32
16 16 32
16 16 32
16 16 32
16 16 32
16 16 32
255 255 255
255 255 255
16 16 32
16 16 32
16 16 32
16 16 32
16 16 32
16 16 32
255 255 255
255 255 255
16 16 32
16 16 32
16 16 32
16 16 32
16 16 32
16 16 32
255 255 255
255 255 255
16 16 32
16 16 32
16 16 32
16 16 32
16 16 32
16 16 32
255 255 255
255 255 255
16 16 32
16 16 32
16 16 32
16 16 32
16 16 32
16 16 32
16 16 32
16 16 32
16 16 32
16 16 32
255 255 255
255 255 255
16 16 32
16 16 32
16 16 32
16 16 32
16 16 32
16 16 32
16 16 32
16 16 32
16 16 32
16 16 32
255 255 255
255 255 255
16 16 32
16 16 32
16 16 32
16 16 32
16 16 32
16 16 32
255 255 255
255 255 255
16 16 32
16 16 32
16 16 32
16 16 32
16 16 32
16 16 32
255 255 255
255 255 255
16 16 32
16 16 32
16 16 32
16 16 32
16 16 32
16 16 32
255 255 255
255 255 255
16 16 32
16 16 32
16 16 32
16 16 32
16 16 32
16 16 32
255 255 255
255 255 255
16 16 32
16 16 32
16 16 32
16 16 32
16 16 32
16 16 32
255 255 255
255 255 255
16 16 32
16 16 32
16 16 32
16 16 32
16 16 32
16 16 32
16 16 32
16 16 32
16 16 32
16 16 32
16 16 32
16 16 32
16 16 32
16 16 32
16 16 32
16 16 32
16 16 32
16 16 32
16 16 32
16 16 32
16 16 32
16 16 32
16 16 32
16 16 32
16 16 32
16 16 32
16 16 32
16 16 32
16 16 32
16 16 32
16 16 32
16 16 32
16 16 32
16 16 32
16 16 32
16 16 32
16 16 32
16 16 32
16 16 32
16 16 32
16 16 32
16 16 32
16 16 32
16 16 32
16 16 32
16 16 32
16 16 32
16 16 32
16 16 32
16 16 32
16 16 32
16 16 32
16 16 32
16 16 32
255 255 255
255 255 255
16 16 32
16 16 32
16 16 32
16 16 32
16 16 32
16 16 32
255 255 255
255 255 255
16 16 32
16 16 32
16 16 32
16 16 32
16 16 32
16 16 32
16 16 32
16 16 32
16 16 32
16 16 32
255 255 255
255 255 255
16 16 32
16 16 32
16 16 32
16 16 32
16 16 32
16 16 32
16 16 32
16 16 32
16 16 32
16 16 32
16 16 32
16 16 32
255 255 255
255 255 255
16 16 32
16 16 32
16 16 32
16 16 32
16 16 32
16 16 32
16 16 32
16 16 32
16 16 32
16 16 32
16 16 32
16 16 32
16 16 32
16 16 32
16 16 32
16 16 32
16 16 32
16 16 32
16 16 32
16 16 32
16 16 32
16 16 32
16 16 32
16 16 32
16 16 32
16 16 32
16 16 32
16 16 32
255 255 255
255 255 255
16 16 32
16 16 32
16 16 32
16 16 32
16 16 32
16 16 32
255 255 255
255 255 255
16 16 32
16 16 32
16 16 32
16 16 32
16 16 32
16 16 32
255 255 255
255 255 255
16 16 32
16 16 32
16 16 32
16 16 32
16 16 32
16 16 32
16 16 32
16 16 32
16 16 32
16 16 32
16 16 32
16 16 32
16 16 32
16 16 32
16 16 32
16 16 32
16 16 32
16 16 32
16 16 32
16 16 32
16 16 32
16 16 32
255 255 255
255 255 255
16 16 32
16 16 32
16 16 32
16 16 32
16 16 32
16 16 32
16 16 32
16 16 32
16 16 32
16 16 32
255 255 255
255 255 255
16 16 32
16 16 32
16 16 32
16 16 32
16 16 32
16 16 32
16 16 32
16 16 32
16 16 32
16 16 32
255 255 255
255 255 255
16 16 32
16 16 32
16 16 32
16 16 32
16 16 32
16 16 32
255 255 255
255 255 255
16 16 32
16 16 32
16 16 32
16 16 32
16 16 32
16 16 32
255 255 255
255 255 255
16 16 32
16 16 32
16 16 32
16 16 32
255 255 255
255 255 255
16 16 32
16 16 32
16 16 32
16 16 32
16 16 32
16 16 32
16 16 32
16 16 32
255 255 255
255 255 255
16 16 32
16 16 32
16 16 32
16 16 32
16 16 32
16 16 32
16 16 32
16 16 32
16 16 32
16 16 32
16 16 32
16 16 32
16 16 32
16 16 32
16 16 32
16 16 32
16 16 32
16 16 32
16 16 32
16 16 32
16 16 32
16 16 32
16 16 32
16 16 32
16 16 32
16 16 32
16 16 32
16 16 32
16 16 32
16 16 32
16 16 32
16 16 32
16 16 32
16 16 32
16 16 32
16 16 32
16 16 32
16 16 32
16 16 32
16 16 32
16 16 32
16 16 32
16 16 32
16 16 32
16 16 32
16 16 32
16 16 32
16 16 32
16 16 32
16 16 32
16 16 32
16 16 32
16 16 32
16 16 32
16 16 32
16 16 32
16 16 32
16 16 32
16 16 32
16 16 32
16 16 32
16 16 32
16 16 32
16 16 32
16 16 32
16 16 32
16 16 32
16 16 32
16 16 32
16 16 32
16 16 32
16 16 32
16 16 32
16 16 32
16 16 32
16 16 32
16 16 32
16 16 32
255 255 255
255 255 255
16 16 32
16 16 32
16 16 32
16 16 32
255 255 255
255 255 255
16 16 32
16 16 32
16 16 32
16 16 32
16 16 32
16 16 32
16 16 32
16 16 32
255 255 255
255 255 255
16 16 32
16 16 32
16 16 32
16 16 32
16 16 32
16 16 32
255 255 255
255 255 255
16 16 32
16 16 32
16 16 32
16 16 32
16 16 32
16 16 32
16 16 32
16 16 32
16 16 32
16 16 32
255 255 255
255 255 255
16 16 32
16 16 32
16 16 32
16 16 32
16 16 32
16 16 32
16 16 32
16 16 32
16 16 32
16 16 32
16 16 32
16 16 32
16 16 32
16 16 32
255 255 255
255 255 255
16 16 32
16 16 32
16 16 32
16 16 32
16 16 32
16 16 32
16 16 32
16 16 32
16 16 32
16 16 32
255 255 255
255 255 255
16 16 32
16 16 32
16 16 32
16 16 32
16 16 32
16 16 32
255 255 255
255 255 255
16 16 32
16 16 32
16 16 32
16 16 32
16 16 32
16 16 32
16 16 32
16 16 32
16 16 32
16 16 32
16 16 32
16 16 32
16 16 32
16 16 32
16 16 32
16 16 32
16 16 32
16 16 32
16 16 32
16 16 32
16 16 32
16 16 32
255 255 255
255 255 255
16 16 32
16 16 32
16 16 32
16 16 32
16 16 32
16 16 32
255 255 255
255 255 255
16 16 32
16 16 32
16 16 32
16 16 32
16 16 32
16 16 32
16 16 32
16 16 32
16 16 32
16 16 32
255 255 255
255 255 255
16 16 32
16 16 32
16 16 32
16 16 32
16 16 32
16 16 32
16 16 32
16 16 32
16 16 32
16 16 32
255 255 255
255 255 255
16 16 32
16 16 32
16 16 32
16 16 32
16 16 32
16 16 32
16 16 32
16 16 32
16 16 32
16 16 32
16 16 32
16 16 32
16 16 32
16 16 32
16 16 32
16 16 32
16 16 32
16 16 32
255 255 255
255 255 255
16 16 32
16 16 32
16 16 32
16 16 32
16 16 32
16 16 32
16 16 32
16 16 32
16 16 32
16 16 32
16 16 32
16 16 32
16 16 32
16 16 32
16 16 32
16 16 32
16 16 32
16 16 32
255 255 255
255 255 255
16 16 32
16 16 32
16 16 32
16 16 32
16 16 32
16 16 32
16 16 32
16 16 32
16 16 32
16 16 32
255 255 255
255 255 255
16 16 32
16 16 32
16 16 32
16 16 32
16 16 32
16 16 32
16 16 32
16 16 32
16 16 32
16 16 32
16 16 32
16 16 32
16 16 32
16 16 32
16 16 32
16 16 32
16 16 32
16 16 32
16 16 32
16 16 32
16 16 32
16 16 32
16 16 32
16 16 32
16 16 32
16 16 32
16 16 32
16 16 32
16 16 32
16 16 32
16 16 32
16 16 32
16 16 32
16 16 32
16 16 32
16 16 32
16 16 32
16 16 32
16 16 32
16 16 32
16 16 32
16 16 32
16 16 32
16 16 32
16 16 32
16 16 32
16 16 32
16 16 32
16 16 32
16 16 32
16 16 32
16 16 32
16 16 32
16 16 32
16 16 32
16 16 32
16 16 32
16 16 32
255 255 255
255 255 255
16 16 32
16 16 32
16 16 32
16 16 32
16 16 32
16 16 32
16 16 32
16 16 32
16 16 32
16 16 32
16 16 32
16 16 32
16 16 32
16 16 32
16 16 32
16 16 32
16 16 32
16 16 32
255 255 255
255 255 255
16 16 32
16 16 32
16 16 32
16 16 32
16 16 32
16 16 32
16 16 32
16 16 32
16 16 32
16 16 32
255 255 255
255 255 255
16 16 32
16 16 32
16 16 32
16 16 32
16 16 32
16 16 32
255 255 255
255 255 255
16 16 32
16 16 32
16 16 32
16 16 32
16 16 32
16 16 32
255 255 255
255 255 255
16 16 32
16 16 32
16 16 32
16 16 32
16 16 32
16 16 32
255 255 255
255 255 255
16 16 32
16 16 32
16 16 32
16 16 32
16 16 32
16 16 32
255 255 255
255 255 255
16 16 32
16 16 32
16 16 32
16 16 32
16 16 32
16 16 32
255 255 255
255 255 255
16 16 32
16 16 32
16 16 32
16 16 32
16 16 32
16 16 32
16 16 32
16 16 32
16 16 32
16 16 32
16 16 32
16 16 32
16 16 32
16 16 32
255 255 255
255 255 255
16 16 32
16 16 32
16 16 32
16 16 32
16 16 32
16 16 32
16 16 32
16 16 32
16 16 32
16 16 32
16 16 32
16 16 32
16 16 32
16 16 32
255 255 255
255 255 255
16 16 32
16 16 32
16 16 32
16 16 32
16 16 32
16 16 32
16 16 32
16 16 32
16 16 32
16 16 32
16 16 32
16 16 32
16 16 32
16 16 32
255 255 255
255 255 255
16 16 32
16 16 32
16 16 32
16 16 32
16 16 32
16 16 32
16 16 32
16 16 32
16 16 32
16 16 32
16 16 32
16 16 32
16 16 32
16 16 32
16 16 32
16 16 32
16 16 32
16 16 32
16 16 32
16 16 32
16 16 32
16 16 32
16 16 32
16 16 32
255 255 255
255 255 255
16 16 32
16 16 32
16 16 32
16 16 32
16 16 32
16 16 32
16 16 32
16 16 32
16 16 32
16 16 32
16 16 32
16 16 32
16 16 32
16 16 32
16 16 32
16 16 32
255 255 255
255 255 255
16 16 32
16 16 32
16 16 32
16 16 32
16 16 32
16 16 32
16 16 32
16 16 32
16 16 32
16 16 32
255 255 255
255 255 255
16 16 32
16 16 32
16 16 32
16 16 32
16 16 32
16 16 32
255 255 255
255 255 255
16 16 32
16 16 32
16 16 32
16 16 32
16 16 32
16 16 32
255 255 255
255 255 255
16 16 32
16 16 32
16 16 32
16 16 32
16 16 32
16 16 32
255 255 255
255 255 255
16 16 32
16 16 32
16 16 32
16 16 32
16 16 32
16 16 32
255 255 255
255 255 255
16 16 32
16 16 32
16 16 32
16 16 32
16 16 32
16 16 32
255 255 255
255 255 255
16 16 32
16 16 32
16 16 32
16 16 32
16 16 32
16 16 32
16 16 32
16 16 32
16 16 32
16 16 32
16 16 32
16 16 32
16 16 32
16 16 32
16 16 32
16 16 32
16 16 32
16 16 32
16 16 32
16 16 32
16 16 32
16 16 32
255 255 255
255 255 255
16 16 32
16 16 32
16 16 32
16 16 32
16 16 32
16 16 32
255 255 255
255 255 255
16 16 32
16 16 32
16 16 32
16 16 32
16 16 32
16 16 32
16 16 32
16 16 32
16 16 32
16 16 32
255 255 255
255 255 255
16 16 32
16 16 32
16 16 32
16 16 32
16 16 32
16 16 32
16 16 32
16 16 32
16 16 32
16 16 32
255 255 255
255 255 255
16 16 32
16 16 32
16 16 32
16 16 32
16 16 32
16 16 32
255 255 255
255 255 255
16 16 32
16 16 32
16 16 32
16 16 32
16 16 32
16 16 32
255 255 255
255 255 255
16 16 32
16 16 32
16 16 32
16 16 32
16 16 32
16 16 32
255 255 255
255 255 255
16 16 32
16 16 32
16 16 32
16 16 32
16 16 32
16 16 32
16 16 32
16 16 32
16 16 32
16 16 32
16 16 32
16 16 32
16 16 32
16 16 32
255 255 255
255 255 255
16 16 32
16 16 32
16 16 32
16 16 32
16 16 32
16 16 32
16 16 32
16 16 32
16 16 32
16 16 32
16 16 32
16 16 32
16 16 32
16 16 32
255 255 255
255 255 255
16 16 32
16 16 32
16 16 32
16 16 32
16 16 32
16 16 32
16 16 32
16 16 32
255 255 255
255 255 255
16 16 32
16 16 32
16 16 32
16 16 32
16 16 32
16 16 32
16 16 32
16 16 32
16 16 32
16 16 32
16 16 32
16 16 32
16 16 32
16 16 32
16 16 32
16 16 32
16 16 32
16 16 32
255 255 255
255 255 255
16 16 32
16 16 32
16 16 32
16 16 32
16 16 32
16 16 32
16 16 32
16 16 32
16 16 32
16 16 32
16 16 32
16 16 32
16 16 32
16 16 32
16 16 32
16 16 32
16 16 32
16 16 32
16 16 32
16 16 32
16 16 32
16 16 32
16 16 32
16 16 32
255 255 255
255 255 255
16 16 32
16 16 32
16 16 32
16 16 32
255 255 255
255 255 255
16 16 32
16 16 32
16 16 32
16 16 32
16 16 32
16 16 32
16 16 32
16 16 32
16 16 32
16 16 32
16 16 32
16 16 32
255 255 255
255 255 255
16 16 32
16 16 32
16 16 32
16 16 32
16 16 32
16 16 32
16 16 32
16 16 32
16 16 32
16 16 32
255 255 255
255 255 255
16 16 32
16 16 32
16 16 32
16 16 32
16 16 32
16 16 32
255 255 255
255 255 255
16 16 32
16 16 32
16 16 32
16 16 32
16 16 32
16 16 32
255 255 255
255 255 255
16 16 32
16 16 32
16 16 32
16 16 32
16 16 32
16 16 32
255 255 255
255 255 255
16 16 32
16 16 32
16 16 32
16 16 32
16 16 32
16 16 32
16 16 32
16 16 32
16 16 32
16 16 32
255 255 255
255 255 255
16 16 32
16 16 32
16 16 32
16 16 32
16 16 32
16 16 32
16 16 32
16 16 32
16 16 32
16 16 32
255 255 255
255 255 255
16 16 32
16 16 32
16 16 32
16 16 32
16 16 32
16 16 32
255 255 255
255 255 255
16 16 32
16 16 32
16 16 32
16 16 32
16 16 32
16 16 32
255 255 255
255 255 255
16 16 32
16 16 32
16 16 32
16 16 32
16 16 32
16 16 32
255 255 255
255 255 255
16 16 32
16 16 32
16 16 32
16 16 32
16 16 32
16 16 32
255 255 255
255 255 255
16 16 32
16 16 32
16 16 32
16 16 32
16 16 32
16 16 32
255 255 255
255 255 255
16 16 32
16 16 32
16 16 32
16 16 32
16 16 32
16 16 32
16 16 32
16 16 32
16 16 32
16 16 32
16 16 32
16 16 32
16 16 32
16 16 32
16 16 32
16 16 32
16 16 32
16 16 32
16 16 32
16 16 32
16 16 32
16 16 32
16 16 32
16 16 32
16 16 32
16 16 32
16 16 32
16 16 32
16 16 32
16 16 32
16 16 32
16 16 32
16 16 32
16 16 32
16 16 32
16 16 32
16 16 32
16 16 32
16 16 32
16 16 32
16 16 32
16 16 32
16 16 32
16 16 32
16 16 32
16 16 32
16 16 32
16 16 32
16 16 32
16 16 32
16 16 32
16 16 32
16 16 32
16 16 32
255 255 255
255 255 255
16 16 32
16 16 32
16 16 32
16 16 32
16 16 32
16 16 32
255 255 255
255 255 255
16 16 32
16 16 32
16 16 32
16 16 32
16 16 32
16 16 32
16 16 32
16 16 32
16 16 32
16 16 32
16 16 32
16 16 32
16 16 32
16 16 32
16 16 32
16 16 32
16 16 32
16 16 32
16 16 32
16 16 32
16 16 32
16 16 32
16 16 32
16 16 32
255 255 255
255 255 255
16 16 32
16 16 32
16 16 32
16 16 32
16 16 32
16 16 32
16 16 32
16 16 32
16 16 32
16 16 32
16 16 32
16 16 32
16 16 32
16 16 32
16 16 32
16 16 32
16 16 32
16 16 32
16 16 32
16 16 32
16 16 32
16 16 32
16 16 32
16 16 32
16 16 32
16 16 32
16 16 32
16 16 32
16 16 32
16 16 32
255 255 255
255 255 255
255 255 255
255 255 255
255 255 255
255 255 255
16 16 32
16 16 32
16 16 32
16 16 32
16 16 32
16 16 32
16 16 32
16 16 32
255 255 255
255 255 255
255 255 255
255 255 255
255 255 255
255 255 255
255 255 255
255 255 255
255 255 255
255 255 255
16 16 32
16 16 32
16 16 32
16 16 32
16 16 32
16 16 32
255 255 255
255 255 255
255 255 255
255 255 255
255 255 255
255 255 255
255 255 255
255 255 255
16 16 32
16 16 32
16 16 32
16 16 32
16 16 32
16 16 32
16 16 32
16 16 32
16 16 32
16 16 32
16 16 32
16 16 32
255 255 255
255 255 255
16 16 32
16 16 32
16 16 32
16 16 32
16 16 32
16 16 32
16 16 32
16 16 32
16 16 32
16 16 32
16 16 32
16 16 32
255 255 255
255 255 255
255 255 255
255 255 255
255 255 255
255 255 255
16 16 32
16 16 32
16 16 32
16 16 32
16 16 32
16 16 32
16 16 32
16 16 32
255 255 255
255 255 255
16 16 32
16 16 32
16 16 32
16 16 32
16 16 32
16 16 32
255 255 255
255 255 255
16 16 32
16 16 32
16 16 32
16 16 32
16 16 32
16 16 32
255 255 255
255 255 255
255 255 255
255 255 255
255 255 255
255 255 255
255 255 255
255 255 255
255 255 255
255 255 255
16 16 32
16 16 32
16 16 32
16 16 32
16 16 32
16 16 32
16 16 32
16 16 32
16 16 32
16 16 32
16 16 32
16 16 32
16 16 32
16 16 32
16 16 32
16 16 32
16 16 32
16 16 32
16 16 32
16 16 32
16 16 32
16 16 32
16 16 32
16 16 32
16 16 32
16 16 32
16 16 32
16 16 32
16 16 32
16 16 32
16 16 32
16 16 32
16 16 32
16 16 32
16 16 32
16 16 32
16 16 32
16 16 32
16 16 32
16 16 32
16 16 32
16 16 32
16 16 32
16 16 32
16 16 32
16 16 32
16 16 32
16 16 32
16 16 32
16 16 32
16 16 32
16 16 32
16 16 32
16 16 32
16 16 32
16 16 32
16 16 32
16 16 32
16 16 32
16 16 32
16 16 32
16 16 32
16 16 32
16 16 32
16 16 32
16 16 32
16 16 32
16 16 32
16 16 32
16 16 32
255 255 255
255 255 255
16 16 32
16 16 32
16 16 32
16 16 32
16 16 32
16 16 32
255 255 255
255 255 255
16 16 32
16 16 32
16 16 32
16 16 32
16 16 32
16 16 32
16 16 32
16 16 32
255 255 255
255 255 255
255 255 255
255 255 255
255 255 255
255 255 255
16 16 32
16 16 32
16 16 32
16 16 32
16 16 32
16 16 32
16 16 32
16 16 32
16 16 32
16 16 32
16 16 32
16 16 32
16 16 32
16 16 32
16 16 32
16 16 32
16 16 32
16 16 32
16 16 32
16 16 32
16 16 32
16 16 32
16 16 32
16 16 32
16 16 32
16 16 32
255 255 255
255 255 255
255 255 255
255 255 255
255 255 255
255 255 255
16 16 32
16 16 32
16 16 32
16 16 32
16 16 32
16 16 32
16 16 32
16 16 32
16 16 32
16 16 32
255 255 255
255 255 255
255 255 255
255 255 255
255 255 255
255 255 255
16 16 32
16 16 32
16 16 32
16 16 32
16 16 32
16 16 32
16 16 32
16 16 32
16 16 32
16 16 32
16 16 32
16 16 32
16 16 32
16 16 32
16 16 32
16 16 32
16 16 32
16 16 32
16 16 32
16 16 32
16 16 32
16 16 32
16 16 32
16 16 32
16 16 32
16 16 32
255 255 255
255 255 255
255 255 255
255 255 255
255 255 255
255 255 255
16 16 32
16 16 32
16 16 32
16 16 32
16 16 32
16 16 32
16 16 32
16 16 32
16 16 32
16 16 32
16 16 32
16 16 32
16 16 32
16 16 32
16 16 32
16 16 32
16 16 32
16 16 32
16 16 32
16 16 32
16 16 32
16 16 32
16 16 32
16 16 32
255 255 255
255 255 255
16 16 32
16 16 32
16 16 32
16 16 32
16 16 32
16 16 32
16 16 32
16 16 32
16 16 32
16 16 32
16 16 32
16 16 32
16 16 32
16 16 32
255 255 255
255 255 255
255 255 255
255 255 255
255 255 255
255 255 255
255 255 255
255 255 255
255 255 255
255 255 255
16 16 32
16 16 32
16 16 32
16 16 32
16 16 32
16 16 32
255 255 255
255 255 255
255 255 255
255 255 255
255 255 255
255 255 255
255 255 255
255 255 255
16 16 32
16 16 32
16 16 32
16 16 32
16 16 32
16 16 32
16 16 32
16 16 32
16 16 32
16 16 32
16 16 32
16 16 32
255 255 255
255 255 255
16 16 32
16 16 32
16 16 32
16 16 32
16 16 32
16 16 32
16 16 32
16 16 32
16 16 32
16 16 32
16 16 32
16 16 32
16 16 32
16 16 32
16 16 32
16 16 32
16 16 32
16 16 32
16 16 32
16 16 32
16 16 32
16 16 32
16 16 32
16 16 32
16 16 32
16 16 32
16 16 32
16 16 32
16 16 32
16 16 32
16 16 32
16 16 32
16 16 32
16 16 32
16 16 32
16 16 32
16 16 32
16 16 32
16 16 32
16 16 32
16 16 32
16 16 32
16 16 32
16 16 32
16 16 32
16 16 32
16 16 32
16 16 32
16 16 32
16 16 32
16 16 32
16 16 32
16 16 32
16 16 32
16 16 32
16 16 32
16 16 32
16 16 32
255 255 255
255 255 255
16 16 32
16 16 32
16 16 32
16 16 32
16 16 32
16 16 32
16 16 32
16 16 32
16 16 32
16 16 32
16 16 32
16 16 32
16 16 32
16 16 32
16 16 32
16 16 32
16 16 32
16 16 32
16 16 32
16 16 32
16 16 32
16 16 32
16 16 32
16 16 32
16 16 32
16 16 32
16 16 32
16 16 32
16 16 32
16 16 32
16 16 32
16 16 32
255 255 255
255 255 255
255 255 255
255 255 255
255 255 255
255 255 255
16 16 32
16 16 32
16 16 32
16 16 32
16 16 32
16 16 32
16 16 32
16 16 32
16 16 32
16 16 32
255 255 255
255 255 255
255 255 255
255 255 255
255 255 255
255 255 255
16 16 32
16 16 32
16 16 32
16 16 32
16 16 32
16 16 32
16 16 32
16 16 32
16 16 32
16 16 32
255 255 255
255 255 255
255 255 255
255 255 255
255 255 255
255 255 255
16 16 32
16 16 32
16 16 32
16 16 32
16 16 32
16 16 32
16 16 32
16 16 32
16 16 32
16 16 32
255 255 255
255 255 255
255 255 255
255 255 255
255 255 255
255 255 255
16 16 32
16 16 32
16 16 32
16 16 32
16 16 32
16 16 32
16 16 32
16 16 32
16 16 32
16 16 32
255 255 255
255 255 255
255 255 255
255 255 255
255 255 255
255 255 255
16 16 32
16 16 32
16 16 32
16 16 32
16 16 32
16 16 32
16 16 32
16 16 32
16 16 32
16 16 32
255 255 255
255 255 255
255 255 255
255 255 255
255 255 255
255 255 255
16 16 32
16 16 32
16 16 32
16 16 32
16 16 32
16 16 32
16 16 32
16 16 32
16 16 32
16 16 32
16 16 32
16 16 32
16 16 32
16 16 32
16 16 32
16 16 32
16 16 32
16 16 32
16 16 32
16 16 32
16 16 32
16 16 32
16 16 32
16 16 32
255 255 255
255 255 255
16 16 32
16 16 32
16 16 32
16 16 32
16 16 32
16 16 32
16 16 32
16 16 32
16 16 32
16 16 32
16 16 32
16 16 32
16 16 32
16 16 32
16 16 32
16 16 32
255 255 255
255 255 255
255 255 255
255 255 255
255 255 255
255 255 255
16 16 32
16 16 32
16 16 32
16 16 32
16 16 32
16 16 32
16 16 32
16 16 32
16 16 32
16 16 32
255 255 255
255 255 255
255 255 255
255 255 255
255 255 255
255 255 255
16 16 32
16 16 32
16 16 32
16 16 32
16 16 32
16 16 32
16 16 32
16 16 32
16 16 32
16 16 32
255 255 255
255 255 255
255 255 255
255 255 255
255 255 255
255 255 255
16 16 32
16 16 32
16 16 32
16 16 32
16 16 32
16 16 32
16 16 32
16 16 32
16 16 32
16 16 32
255 255 255
255 255 255
255 255 255
255 255 255
255 255 255
255 255 255
16 16 32
16 16 32
16 16 32
16 16 32
16 16 32
16 16 32
16 16 32
16 16 32
16 16 32
16 16 32
16 16 32
16 16 32
16 16 32
16 16 32
16 16 32
16 16 32
16 16 32
16 16 32
16 16 32
16 16 32
16 16 32
16 16 32
16 16 32
16 16 32
255 255 255
255 255 255
16 16 32
16 16 32
16 16 32
16 16 32
16 16 32
16 16 32
255 255 255
255 255 255
16 16 32
16 16 32
16 16 32
16 16 32
16 16 32
16 16 32
16 16 32
16 16 32
16 16 32
16 16 32
16 16 32
16 16 32
16 16 32
16 16 32
16 16 32
16 16 32
16 16 32
16 16 32
16 16 32
16 16 32
16 16 32
16 16 32
16 16 32
16 16 32
255 255 255
255 255 255
255 255 255
255 255 255
255 255 255
255 255 255
16 16 32
16 16 32
16 16 32
16 16 32
16 16 32
16 16 32
16 16 32
16 16 32
16 16 32
16 16 32
255 255 255
255 255 255
255 255 255
255 255 255
255 255 255
255 255 255
16 16 32
16 16 32
16 16 32
16 16 32
16 16 32
16 16 32
16 16 32
16 16 32
255 255 255
255 255 255
255 255 255
255 255 255
255 255 255
255 255 255
255 255 255
255 255 255
16 16 32
16 16 32
16 16 32
16 16 32
16 16 32
16 16 32
16 16 32
16 16 32
255 255 255
255 255 255
255 255 255
255 255 255
255 255 255
255 255 255
255 255 255
255 255 255
16 16 32
16 16 32
16 16 32
16 16 32
16 16 32
16 16 32
16 16 32
16 16 32
255 255 255
255 255 255
255 255 255
255 255 255
255 255 255
255 255 255
255 255 255
255 255 255
255 255 255
255 255 255
16 16 32
16 16 32
16 16 32
16 16 32
16 16 32
16 16 32
16 16 32
16 16 32
16 16 32
16 16 32
16 16 32
16 16 32
255 255 255
255 255 255
16 16 32
16 16 32
16 16 32
16 16 32
16 16 32
16 16 32
16 16 32
16 16 32
16 16 32
16 16 32
16 16 32
16 16 32
16 16 32
16 16 32
16 16 32
16 16 32
16 16 32
16 16 32
16 16 32
16 16 32
16 16 32
16 16 32
16 16 32
16 16 32
255 255 255
255 255 255
16 16 32
16 16 32
16 16 32
16 16 32
16 16 32
16 16 32
255 255 255
255 255 255
16 16 32
16 16 32
16 16 32
16 16 32
16 16 32
16 16 32
16 16 32
16 16 32
16 16 32
16 16 32
16 16 32
16 16 32
16 16 32
16 16 32
16 16 32
16 16 32
16 16 32
16 16 32
16 16 32
16 16 32
16 16 32
16 16 32
16 16 32
16 16 32
255 255 255
255 255 255
255 255 255
255 255 255
255 255 255
255 255 255
16 16 32
16 16 32
16 16 32
16 16 32
16 16 32
16 16 32
16 16 32
16 16 32
16 16 32
16 16 32
255 255 255
255 255 255
255 255 255
255 255 255
255 255 255
255 255 255
16 16 32
16 16 32
16 16 32
16 16 32
16 16 32
16 16 32
16 16 32
16 16 32
16 16 32
16 16 32
255 255 255
255 255 255
255 255 255
255 255 255
255 255 255
255 255 255
16 16 32
16 16 32
16 16 32
16 16 32
16 16 32
16 16 32
16 16 32
16 16 32
16 16 32
16 16 32
255 255 255
255 255 255
255 255 255
255 255 255
255 255 255
255 255 255
16 16 32
16 16 32
16 16 32
16 16 32
16 16 32
16 16 32
16 16 32
16 16 32
16 16 32
16 16 32
255 255 255
255 255 255
255 255 255
255 255 255
255 255 255
255 255 255
16 16 32
16 16 32
16 16 32
16 16 32
16 16 32
16 16 32
16 16 32
16 16 32
16 16 32
16 16 32
255 255 255
255 255 255
255 255 255
255 255 255
255 255 255
255 255 255
16 16 32
16 16 32
16 16 32
16 16 32
16 16 32
16 16 32
16 16 32
16 16 32
16 16 32
16 16 32
16 16 32
16 16 32
16 16 32
16 16 32
16 16 32
16 16 32
16 16 32
16 16 32
16 16 32
16 16 32
16 16 32
16 16 32
16 16 32
16 16 32
16 16 32
16 16 32
16 16 32
16 16 32
16 16 32
16 16 32
16 16 32
16 16 32
16 16 32
16 16 32
16 16 32
16 16 32
16 16 32
16 16 32
16 16 32
16 16 32
16 16 32
16 16 32
16 16 32
16 16 32
16 16 32
16 16 32
16 16 32
16 16 32
16 16 32
16 16 32
16 16 32
16 16 32
16 16 32
16 16 32
16 16 32
16 16 32
255 255 255
255 255 255
16 16 32
16 16 32
16 16 32
16 16 32
16 16 32
16 16 32
255 255 255
255 255 255
16 16 32
16 16 32
16 16 32
16 16 32
16 16 32
16 16 32
16 16 32
16 16 32
16 16 32
16 16 32
16 16 32
16 16 32
16 16 32
16 16 32
16 16 32
16 16 32
16 16 32
16 16 32
16 16 32
16 16 32
16 16 32
16 16 32
16 16 32
16 16 32
255 255 255
255 255 255
16 16 32
16 16 32
16 16 32
16 16 32
16 16 32
16 16 32
16 16 32
16 16 32
16 16 32
16 16 32
16 16 32
16 16 32
16 16 32
16 16 32
16 16 32
16 16 32
16 16 32
16 16 32
16 16 32
16 16 32
16 16 32
16 16 32
16 16 32
16 16 32
16 16 32
16 16 32
16 16 32
16 16 32
16 16 32
16 16 32
255 255 255
255 255 255
255 255 255
255 255 255
255 255 255
255 255 255
16 16 32
16 16 32
16 16 32
16 16 32
16 16 32
16 16 32
16 16 32
16 16 32
255 255 255
255 255 255
255 255 255
255 255 255
255 255 255
255 255 255
255 255 255
255 255 255
255 255 255
255 255 255
16 16 32
16 16 32
16 16 32
16 16 32
16 16 32
16 16 32
255 255 255
255 255 255
255 255 255
255 255 255
255 255 255
255 255 255
255 255 255
255 255 255
16 16 32
16 16 32
16 16 32
16 16 32
16 16 32
16 16 32
16 16 32
16 16 32
16 16 32
16 16 32
16 16 32
16 16 32
255 255 255
255 255 255
16 16 32
16 16 32
16 16 32
16 16 32
16 16 32
16 16 32
16 16 32
16 16 32
16 16 32
16 16 32
16 16 32
16 16 32
255 255 255
255 255 255
255 255 255
255 255 255
255 255 255
255 255 255
16 16 32
16 16 32
16 16 32
16 16 32
16 16 32
16 16 32
16 16 32
16 16 32
255 255 255
255 255 255
16 16 32
16 16 32
16 16 32
16 16 32
16 16 32
16 16 32
255 255 255
255 255 255
16 16 32
16 16 32
16 16 32
16 16 32
16 16 32
16 16 32
255 255 255
255 255 255
255 255 255
255 255 255
255 255 255
255 255 255
255 255 255
255 255 255
255 255 255
255 255 255
16 16 32
16 16 32
16 16 32
16 16 32
16 16 32
16 16 32
16 16 32
16 16 32
16 16 32
16 16 32
16 16 32
16 16 32
16 16 32
16 16 32
16 16 32
16 16 32
16 16 32
16 16 32
16 16 32
16 16 32
16 16 32
16 16 32
16 16 32
16 16 32
16 16 32
16 16 32
16 16 32
16 16 32
16 16 32
16 16 32
16 16 32
16 16 32
16 16 32
16 16 32
16 16 32
16 16 32
16 16 32
16 16 32
16 16 32
16 16 32
16 16 32
16 16 32
16 16 32
16 16 32
16 16 32
16 16 32
16 16 32
16 16 32
16 16 32
16 16 32
16 16 32
16 16 32
16 16 32
16 16 32
16 16 32
16 16 32
16 16 32
16 16 32
16 16 32
16 16 32
16 16 32
16 16 32
16 16 32
16 16 32
16 16 32
16 16 32
16 16 32
16 16 32
16 16 32
16 16 32
255 255 255
255 255 255
16 16 32
16 16 32
16 16 32
16 16 32
16 16 32
16 16 32
255 255 255
255 255 255
16 16 32
16 16 32
16 16 32
16 16 32
16 16 32
16 16 32
16 16 32
16 16 32
255 255 255
255 255 255
255 255 255
255 255 255
255 255 255
255 255 255
16 16 32
16 16 32
16 16 32
16 16 32
16 16 32
16 16 32
16 16 32
16 16 32
16 16 32
16 16 32
16 16 32
16 16 32
16 16 32
16 16 32
16 16 32
16 16 32
16 16 32
16 16 32
16 16 32
16 16 32
16 16 32
16 16 32
16 16 32
16 16 32
16 16 32
16 16 32
255 255 255
255 255 255
255 255 255
255 255 255
255 255 255
255 255 255
16 16 32
16 16 32
16 16 32
16 16 32
16 16 32
16 16 32
16 16 32
16 16 32
16 16 32
16 16 32
255 255 255
255 255 255
255 255 255
255 255 255
255 255 255
255 255 255
16 16 32
16 16 32
16 16 32
16 16 32
16 16 32
16 16 32
16 16 32
16 16 32
16 16 32
16 16 32
16 16 32
16 16 32
16 16 32
16 16 32
16 16 32
16 16 32
16 16 32
16 16 32
16 16 32
16 16 32
16 16 32
16 16 32
16 16 32
16 16 32
16 16 32
16 16 32
255 255 255
255 255 255
255 255 255
255 255 255
255 255 255
255 255 255
16 16 32
16 16 32
16 16 32
16 16 32
16 16 32
16 16 32
16 16 32
16 16 32
16 16 32
16 16 32
16 16 32
16 16 32
16 16 32
16 16 32
16 16 32
16 16 32
16 16 32
16 16 32
16 16 32
16 16 32
16 16 32
16 16 32
16 16 32
16 16 32
255 255 255
255 255 255
16 16 32
16 16 32
16 16 32
16 16 32
16 16 32
16 16 32
16 16 32
16 16 32
16 16 32
16 16 32
16 16 32
16 16 32
16 16 32
16 16 32
255 255 255
255 255 255
255 255 255
255 255 255
255 255 255
255 255 255
255 255 255
255 255 255
255 255 255
255 255 255
16 16 32
16 16 32
16 16 32
16 16 32
16 16 32
16 16 32
255 255 255
255 255 255
255 255 255
255 255 255
255 255 255
255 255 255
255 255 255
255 255 255
16 16 32
16 16 32
16 16 32
16 16 32
16 16 32
16 16 32
16 16 32
16 16 32
16 16 32
16 16 32
16 16 32
16 16 32
255 255 255
255 255 255
16 16 32
16 16 32
16 16 32
16 16 32
16 16 32
16 16 32
16 16 32
16 16 32
16 16 32
16 16 32
16 16 32
16 16 32
16 16 32
16 16 32
16 16 32
16 16 32
16 16 32
16 16 32
16 16 32
16 16 32
16 16 32
16 16 32
16 16 32
16 16 32
16 16 32
16 16 32
16 16 32
16 16 32
16 16 32
16 16 32
16 16 32
16 16 32
16 16 32
16 16 32
16 16 32
16 16 32
16 16 32
16 16 32
16 16 32
16 16 32
16 16 32
16 16 32
16 16 32
16 16 32
16 16 32
16 16 32
16 16 32
16 16 32
16 16 32
16 16 32
16 16 32
16 16 32
16 16 32
16 16 32
16 16 32
16 16 32
16 16 32
16 16 32
255 255 255
255 255 255
16 16 32
16 16 32
16 16 32
16 16 32
16 16 32
16 16 32
16 16 32
16 16 32
16 16 32
16 16 32
16 16 32
16 16 32
16 16 32
16 16 32
16 16 32
16 16 32
16 16 32
16 16 32
16 16 32
16 16 32
16 16 32
16 16 32
16 16 32
16 16 32
16 16 32
16 16 32
16 16 32
16 16 32
16 16 32
16 16 32
16 16 32
16 16 32
255 255 255
255 255 255
255 255 255
255 255 255
255 255 255
255 255 255
16 16 32
16 16 32
16 16 32
16 16 32
16 16 32
16 16 32
16 16 32
16 16 32
16 16 32
16 16 32
255 255 255
255 255 255
255 255 255
255 255 255
255 255 255
255 255 255
16 16 32
16 16 32
16 16 32
16 16 32
16 16 32
16 16 32
16 16 32
16 16 32
16 16 32
16 16 32
255 255 255
255 255 255
255 255 255
255 255 255
255 255 255
255 255 255
16 16 32
16 16 32
16 16 32
16 16 32
16 16 32
16 16 32
16 16 32
16 16 32
16 16 32
16 16 32
255 255 255
255 255 255
255 255 255
255 255 255
255 255 255
255 255 255
16 16 32
16 16 32
16 16 32
16 16 32
16 16 32
16 16 32
16 16 32
16 16 32
16 16 32
16 16 32
255 255 255
255 255 255
255 255 255
255 255 255
255 255 255
255 255 255
16 16 32
16 16 32
16 16 32
16 16 32
16 16 32
16 16 32
16 16 32
16 16 32
16 16 32
16 16 32
255 255 255
255 255 255
255 255 255
255 255 255
255 255 255
255 255 255
16 16 32
16 16 32
16 16 32
16 16 32
16 16 32
16 16 32
16 16 32
16 16 32
16 16 32
16 16 32
16 16 32
16 16 32
16 16 32
16 16 32
16 16 32
16 16 32
16 16 32
16 16 32
16 16 32
16 16 32
16 16 32
16 16 32
16 16 32
16 16 32
255 255 255
255 255 255
16 16 32
16 16 32
16 16 32
16 16 32
16 16 32
16 16 32
16 16 32
16 16 32
16 16 32
16 16 32
16 16 32
16 16 32
16 16 32
16 16 32
16 16 32
16 16 32
255 255 255
255 255 255
255 255 255
255 255 255
255 255 255
255 255 255
16 16 32
16 16 32
16 16 32
16 16 32
16 16 32
16 16 32
16 16 32
16 16 32
16 16 32
16 16 32
255 255 255
255 255 255
255 255 255
255 255 255
255 255 255
255 255 255
16 16 32
16 16 32
16 16 32
16 16 32
16 16 32
16 16 32
16 16 32
16 16 32
16 16 32
16 16 32
255 255 255
255 255 255
255 255 255
255 255 255
255 255 255
255 255 255
16 16 32
16 16 32
16 16 32
16 16 32
16 16 32
16 16 32
16 16 32
16 16 32
16 16 32
16 16 32
255 255 255
255 255 255
255 255 255
255 255 255
255 255 255
255 255 255
16 16 32
16 16 32
16 16 32
16 16 32
16 16 32
16 16 32
16 16 32
16 16 32
16 16 32
16 16 32
16 16 32
16 16 32
16 16 32
16 16 32
16 16 32
16 16 32
16 16 32
16 16 32
16 16 32
16 16 32
16 16 32
16 16 32
16 16 32
16 16 32
255 255 255
255 255 255
16 16 32
16 16 32
16 16 32
16 16 32
16 16 32
16 16 32
255 255 255
255 255 255
16 16 32
16 16 32
16 16 32
16 16 32
16 16 32
16 16 32
16 16 32
16 16 32
16 16 32
16 16 32
16 16 32
16 16 32
16 16 32
16 16 32
16 16 32
16 16 32
16 16 32
16 16 32
16 16 32
16 16 32
16 16 32
16 16 32
16 16 32
16 16 32
255 255 255
255 255 255
255 255 255
255 255 255
255 255 255
255 255 255
16 16 32
16 16 32
16 16 32
16 16 32
16 16 32
16 16 32
16 16 32
16 16 32
16 16 32
16 16 32
255 255 255
255 255 255
255 255 255
255 255 255
255 255 255
255 255 255
16 16 32
16 16 32
16 16 32
16 16 32
16 16 32
16 16 32
16 16 32
16 16 32
255 255 255
255 255 255
255 255 255
255 255 255
255 255 255
255 255 255
255 255 255
255 255 255
16 16 32
16 16 32
16 16 32
16 16 32
16 16 32
16 16 32
16 16 32
16 16 32
255 255 255
255 255 255
255 255 255
255 255 255
255 255 255
255 255 255
255 255 255
255 255 255
16 16 32
16 16 32
16 16 32
16 16 32
16 16 32
16 16 32
16 16 32
16 16 32
255 255 255
255 255 255
255 255 255
255 255 255
255 255 255
255 255 255
255 255 255
255 255 255
255 255 255
255 255 255
16 16 32
16 16 32
16 16 32
16 16 32
16 16 32
16 16 32
16 16 32
16 16 32
16 16 32
16 16 32
16 16 32
16 16 32
255 255 255
255 255 255
16 16 32
16 16 32
16 16 32
16 16 32
16 16 32
16 16 32
16 16 32
16 16 32
16 16 32
16 16 32
16 16 32
16 16 32
16 16 32
16 16 32
16 16 32
16 16 32
16 16 32
16 16 32
16 16 32
16 16 32
16 16 32
16 16 32
16 16 32
16 16 32
255 255 255
255 255 255
16 16 32
16 16 32
16 16 32
16 16 32
16 16 32
16 16 32
255 255 255
255 255 255
16 16 32
16 16 32
16 16 32
16 16 32
16 16 32
16 16 32
16 16 32
16 16 32
16 16 32
16 16 32
16 16 32
16 16 32
16 16 32
16 16 32
16 16 32
16 16 32
16 16 32
16 16 32
16 16 32
16 16 32
16 16 32
16 16 32
16 16 32
16 16 32
255 255 255
255 255 255
255 255 255
255 255 255
255 255 255
255 255 255
16 16 32
16 16 32
16 16 32
16 16 32
16 16 32
16 16 32
16 16 32
16 16 32
16 16 32
16 16 32
255 255 255
255 255 255
255 255 255
255 255 255
255 255 255
255 255 255
16 16 32
16 16 32
16 16 32
16 16 32
16 16 32
16 16 32
16 16 32
16 16 32
16 16 32
16 16 32
255 255 255
255 255 255
255 255 255
255 255 255
255 255 255
255 255 255
16 16 32
16 16 32
16 16 32
16 16 32
16 16 32
16 16 32
16 16 32
16 16 32
16 16 32
16 16 32
255 255 255
255 255 255
255 255 255
255 255 255
255 255 255
255 255 255
16 16 32
16 16 32
16 16 32
16 16 32
16 16 32
16 16 32
16 16 32
16 16 32
16 16 32
16 16 32
255 255 255
255 255 255
255 255 255
255 255 255
255 255 255
255 255 255
16 16 32
16 16 32
16 16 32
16 16 32
16 16 32
16 16 32
16 16 32
16 16 32
16 16 32
16 16 32
255 255 255
255 255 255
255 255 255
255 255 255
255 255 255
255 255 255
16 16 32
16 16 32
16 16 32
16 16 32
16 16 32
16 16 32
16 16 32
16 16 32
16 16 32
16 16 32
16 16 32
16 16 32
16 16 32
16 16 32
16 16 32
16 16 32
16 16 32
16 16 32
16 16 32
16 16 32
16 16 32
16 16 32
16 16 32
16 16 32
16 16 32
16 16 32
16 16 32
16 16 32
16 16 32
16 16 32
16 16 32
16 16 32
16 16 32
16 16 32
16 16 32
16 16 32
16 16 32
16 16 32
16 16 32
16 16 32
16 16 32
16 16 32
16 16 32
16 16 32
16 16 32
16 16 32
16 16 32
16 16 32
16 16 32
16 16 32
16 16 32
16 16 32
16 16 32
16 16 32
16 16 32
16 16 32
16 16 32
16 16 32
16 16 32
16 16 32
16 16 32
16 16 32
16 16 32
16 16 32
16 16 32
16 16 32
16 16 32
16 16 32
16 16 32
16 16 32
16 16 32
16 16 32
16 16 32
16 16 32
16 16 32
16 16 32
16 16 32
16 16 32
16 16 32
16 16 32
16 16 32
16 16 32
16 16 32
16 16 32
16 16 32
16 16 32
16 16 32
16 16 32
16 16 32
16 16 32
16 16 32
16 16 32
16 16 32
16 16 32
16 16 32
16 16 32
16 16 32
16 16 32
16 16 32
16 16 32
16 16 32
16 16 32
16 16 32
16 16 32
16 16 32
16 16 32
16 16 32
16 16 32
16 16 32
16 16 32
16 16 32
16 16 32
16 16 32
16 16 32
16 16 32
16 16 32
16 16 32
16 16 32
16 16 32
16 16 32
16 16 32
16 16 32
16 16 32
16 16 32
16 16 32
16 16 32
16 16 32
16 16 32
16 16 32
16 16 32
16 16 32
16 16 32
16 16 32
16 16 32
16 16 32
16 16 32
16 16 32
16 16 32
16 16 32
16 16 32
16 16 32
16 16 32
16 16 32
16 16 32
16 16 32
16 16 32
16 16 32
16 16 32
16 16 32
16 16 32
16 16 32
16 16 32
16 16 32
16 16 32
16 16 32
16 16 32
16 16 32
16 16 32
16 16 32
16 16 32
16 16 32
16 16 32
16 16 32
16 16 32
16 16 32
16 16 32
16 16 32
16 16 32
16 16 32
16 16 32
16 16 32
16 16 32
16 16 32
16 16 32
16 16 32
16 16 32
16 16 32
16 16 32
16 16 32
16 16 32
16 16 32
16 16 32
16 16 32
16 16 32
16 16 32
16 16 32
16 16 32
16 16 32
16 16 32
16 16 32
16 16 32
16 16 32
16 16 32
16 16 32
16 16 32
16 16 32
16 16 32
16 16 32
16 16 32
16 16 32
16 16 32
16 16 32
16 16 32
16 16 32
16 16 32
16 16 32
16 16 32
16 16 32
16 16 32
16 16 32
16 16 32
16 16 32
16 16 32
16 16 32
16 16 32
16 16 32
16 16 32
16 16 32
16 16 32
16 16 32
16 16 32
16 16 32
16 16 32
16 16 32
16 16 32
16 16 32
16 16 32
16 16 32
16 16 32
16 16 32
16 16 32
16 16 32
16 16 32
16 16 32
16 16 32
16 16 32
16 16 32
16 16 32
16 16 32
16 16 32
16 16 32
16 16 32
16 16 32
16 16 32
16 16 32
16 16 32
16 16 32
16 16 32
16 16 32
16 16 32
16 16 32
16 16 32
16 16 32
16 16 32
16 16 32
16 16 32
16 16 32
16 16 32
16 16 32
16 16 32
16 16 32
16 16 32
16 16 32
16 16 32
16 16 32
16 16 32
16 16 32
16 16 32
16 16 32
16 16 32
16 16 32
16 16 32
16 16 32
16 16 32
16 16 32
16 16 32
16 16 32
16 16 32
16 16 32
16 16 32
16 16 32
16 16 32
16 16 32
16 16 32
16 16 32
16 16 32
16 16 32
16 16 32
16 16 32
16 16 32
16 16 32
16 16 32
16 16 32
16 16 32
16 16 32
16 16 32
16 16 32
16 16 32
16 16 32
16 16 32
16 16 32
16 16 32
16 16 32
16 16 32
16 16 32
16 16 32
16 16 32
16 16 32
16 16 32
16 16 32
16 16 32
16 16 32
16 16 32
16 16 32
16 16 32
16 16 32
16 16 32
16 16 32
16 16 32
16 16 32
16 16 32
16 16 32
16 16 32
16 16 32
16 16 32
16 16 32
16 16 32
16 16 32
16 16 32
16 16 32
16 16 32
16 16 32
16 16 32
16 16 32
16 16 32
16 16 32
16 16 32
16 16 32
16 16 32
16 16 32
16 16 32
16 16 32
16 16 32
16 16 32
16 16 32
16 16 32
16 16 32
16 16 32
16 16 32
16 16 32
16 16 32
16 16 32
16 16 32
16 16 32
16 16 32
16 16 32
16 16 32
16 16 32
16 16 32
16 16 32
16 16 32
16 16 32
16 16 32
16 16 32
16 16 32
16 16 32
16 16 32
16 16 32
16 16 32
16 16 32
16 16 32
16 16 32
16 16 32
16 16 32
16 16 32
16 16 32
16 16 32
16 16 32
16 16 32
16 16 32
16 16 32
16 16 32
16 16 32
16 16 32
16 16 32
16 16 32
16 16 32
16 16 32
16 16 32
16 16 32
16 16 32
16 16 32
16 16 32
16 16 32
16 16 32
16 16 32
16 16 32
16 16 32
16 16 32
16 16 32
16 16 32
16 16 32
16 16 32
16 16 32
16 16 32
16 16 32
16 16 32
16 16 32
16 16 32
16 16 32
16 16 32
16 16 32
16 16 32
16 16 32
16 16 32
16 16 32
16 16 32
16 16 32
16 16 32
16 16 32
16 16 32
16 16 32
16 16 32
16 16 32
16 16 32
16 16 32
16 16 32
16 16 32
16 16 32
16 16 32
16 16 32
16 16 32
16 16 32
16 16 32
16 16 32
16 16 32
16 16 32
16 16 32
16 16 32
16 16 32
16 16 32
16 16 32
16 16 32
16 16 32
16 16 32
16 16 32
16 16 32
16 16 32
16 16 32
16 16 32
16 16 32
16 16 32
16 16 32
16 16 32
16 16 32
16 16 32
16 16 32
16 16 32
16 16 32
16 16 32
16 16 32
16 16 32
16 16 32
16 16 32
16 16 32
16 16 32
16 16 32
16 16 32
16 16 32
16 16 32
16 16 32
16 16 32
16 16 32
16 16 32
16 16 32
16 16 32
16 16 32
16 16 32
16 16 32
16 16 32
16 16 32
16 16 32
16 16 32
16 16 32
16 16 32
16 16 32
16 16 32
16 16 32
16 16 32
16 16 32
16 16 32
16 16 32
16 16 32
16 16 32
16 16 32
16 16 32
16 16 32
16 16 32
16 16 32
16 16 32
16 16 32
16 16 32
16 16 32
16 16 32
16 16 32
16 16 32
16 16 32
16 16 32
16 16 32
16 16 32
16 16 32
16 16 32
16 16 32
16 16 32
16 16 32
16 16 32
16 16 32
16 16 32
16 16 32
16 16 32
16 16 32
16 16 32
16 16 32
16 16 32
16 16 32
16 16 32
16 16 32
16 16 32
16 16 32
16 16 32
16 16 32
16 16 32
16 16 32
16 16 32
16 16 32
16 16 32
16 16 32
16 16 32
16 16 32
16 16 32
16 16 32
16 16 32
16 16 32
16 16 32
16 16 32
16 16 32
16 16 32
16 16 32
16 16 32
16 16 32
16 16 32
16 16 32
16 16 32
16 16 32
16 16 32
16 16 32
16 16 32
16 16 32
16 16 32
16 16 32
16 16 32
16 16 32
16 16 32
16 16 32
16 16 32
16 16 32
16 16 32
16 16 32
16 16 32
16 16 32
16 16 32
16 16 32
16 16 32
16 16 32
16 16 32
16 16 32
16 16 32
16 16 32
16 16 32
16 16 32
16 16 32
16 16 32
16 16 32
16 16 32
16 16 32
16 16 32
16 16 32
16 16 32
16 16 32
16 16 32
16 16 32
16 16 32
16 16 32
16 16 32
16 16 32
16 16 32
16 16 32
16 16 32
16 16 32
16 16 32
16 16 32
16 16 32
16 16 32
16 16 32
16 16 32
16 16 32
16 16 32
16 16 32
16 16 32
16 16 32
16 16 32
16 16 32
16 16 32
16 16 32
16 16 32
16 16 32
16 16 32
16 16 32
16 16 32
16 16 32
16 16 32
16 16 32
16 16 32
16 16 32
16 16 32
16 16 32
16 16 32
16 16 32
16 16 32
16 16 32
16 16 32
16 16 32
16 16 32
16 16 32
16 16 32
16 16 32
16 16 32
16 16 32
16 16 32
16 16 32
16 16 32
16 16 32
16 16 32
16 16 32
16 16 32
16 16 32
16 16 32
16 16 32
16 16 32
16 16 32
16 16 32
16 16 32
16 16 32
16 16 32
16 16 32
16 16 32
16 16 32
16 16 32
16 16 32
16 16 32
16 16 32
16 16 32
16 16 32
16 16 32
16 16 32
16 16 32
16 16 32
16 16 32
16 16 32
16 16 32
16 16 32
16 16 32
16 16 32
16 16 32
16 16 32
16 16 32
16 16 32
16 16 32
16 16 32
16 16 32
16 16 32
16 16 32
16 16 32
16 16 32
16 16 32
16 16 32
16 16 32
16 16 32
16 16 32
16 16 32
16 16 32
16 16 32
16 16 32
16 16 32
16 16 32
16 16 32
16 16 32
16 16 32
16 16 32
16 16 32
16 16 32
16 16 32
16 16 32
16 16 32
16 16 32
16 16 32
16 16 32
16 16 32
16 16 32
16 16 32
16 16 32
16 16 32
16 16 32
16 16 32
16 16 32
16 16 32
16 16 32
16 16 32
16 16 32
16 16 32
16 16 32
16 16 32
16 16 32
16 16 32
16 16 32
16 16 32
16 16 32
16 16 32
16 16 32
16 16 32
16 16 32
16 16 32
16 16 32
16 16 32
16 16 32
16 16 32
16 16 32
16 16 32
16 16 32
16 16 32
16 16 32
16 16 32
16 16 32
16 16 32
16 16 32
16 16 32
16 16 32
16 16 32
16 16 32
16 16 32
16 16 32
16 16 32
16 16 32
16 16 32
16 16 32
16 16 32
16 16 32
16 16 32
16 16 32
16 16 32
16 16 32
16 16 32
16 16 32
16 16 32
16 16 32
16 16 32
16 16 32
16 16 32
16 16 32
16 16 32
16 16 32
16 16 32
16 16 32
16 16 32
16 16 32
16 16 32
16 16 32
16 16 32
16 16 32
16 16 32
16 16 32
16 16 32
16 16 32
16 16 32
16 16 32
16 16 32
16 16 32
16 16 32
16 16 32
16 16 32
16 16 32
16 16 32
16 16 32
16 16 32
16 16 32
16 16 32
16 16 32
16 16 32
16 16 32
16 16 32
16 16 32
16 16 32
16 16 32
16 16 32
16 16 32
16 16 32
16 16 32
16 16 32
16 16 32
16 16 32
16 16 32
16 16 32
16 16 32
16 16 32
16 16 32
16 16 32
16 16 32
16 16 32
16 16 32
16 16 32
16 16 32
16 16 32
16 16 32
16 16 32
16 16 32
16 16 32
16 16 32
16 16 32
16 16 32
16 16 32
16 16 32
16 16 32
16 16 32
16 16 32
16 16 32
16 16 32
16 16 32
16 16 32
16 16 32
16 16 32
16 16 32
16 16 32
16 16 32
16 16 32
16 16 32
16 16 32
16 16 32
16 16 32
16 16 32
16 16 32
16 16 32
16 16 32
16 16 32
16 16 32
16 16 32
16 16 32
16 16 32
16 16 32
16 16 32
16 16 32
16 16 32
16 16 32
16 16 32
16 16 32
16 16 32
16 16 32
16 16 32
16 16 32
16 16 32
16 16 32
16 16 32
16 16 32
16 16 32
16 16 32
16 16 32
16 16 32
16 16 32
16 16 32
16 16 32
16 16 32
16 16 32
16 16 32
16 16 32
16 16 32
16 16 32
16 16 32
16 16 32
16 16 32
16 16 32
16 16 32
16 16 32
16 16 32
16 16 32
16 16 32
16 16 32
16 16 32
16 16 32
16 16 32
16 16 32
16 16 32
16 16 32
16 16 32
16 16 32
16 16 32
16 16 32
16 16 32
16 16 32
16 16 32
16 16 32
16 16 32
16 16 32
16 16 32
16 16 32
16 16 32
16 16 32
16 16 32
16 16 32
16 16 32
16 16 32
16 16 32
16 16 32
16 16 32
16 16 32
16 16 32
16 16 32
16 16 32
16 16 32
16 16 32
16 16 32
16 16 32
16 16 32
16 16 32
16 16 32
16 16 32
16 16 32
16 16 32
16 16 32
16 16 32
16 16 32
16 16 32
16 16 32
16 16 32
16 16 32
16 16 32
16 16 32
16 16 32
16 16 32
16 16 32
16 16 32
16 16 32
16 16 32
16 16 32
16 16 32
16 16 32
16 16 32
16 16 32
16 16 32
16 16 32
16 16 32
16 16 32
16 16 32
16 16 32
16 16 32
16 16 32
16 16 32
16 16 32
16 16 32
16 16 32
16 16 32
16 16 32
16 16 32
16 16 32
16 16 32
16 16 32
16 16 32
16 16 32
16 16 32
16 16 32
16 16 32
16 16 32
16 16 32
16 16 32
16 16 32
16 16 32
16 16 32
16 16 32
16 16 32
16 16 32
16 16 32
16 16 32
16 16 32
16 16 32
16 16 32
16 16 32
16 16 32
16 16 32
16 16 32
16 16 32
16 16 32
16 16 32
16 16 32
16 16 32
16 16 32
16 16 32
16 16 32
16 16 32
16 16 32
16 16 32
16 16 32
16 16 32
16 16 32
16 16 32
16 16 32
16 16 32
16 16 32
16 16 32
16 16 32
16 16 32
16 16 32
16 16 32
16 16 32
16 16 32
16 16 32
16 16 32
16 16 32
16 16 32
16 16 32
16 16 32
16 16 32
16 16 32
16 16 32
16 16 32
16 16 32
16 16 32
16 16 32
16 16 32
16 16 32
16 16 32
16 16 32
16 16 32
16 16 32
16 16 32
16 16 32
16 16 32
16 16 32
16 16 32
16 16 32
16 16 32
16 16 32
16 16 32
16 16 32
16 16 32
16 16 32
16 16 32
16 16 32
16 16 32
16 16 32
16 16 32
16 16 32
16 16 32
16 16 32
16 16 32
16 16 32
16 16 32
16 16 32
16 16 32
16 16 32
16 16 32
16 16 32
16 16 32
16 16 32
16 16 32
16 16 32
16 16 32
16 16 32
16 16 32
16 16 32
16 16 32
16 16 32
16 16 32
16 16 32
16 16 32
16 16 32
16 16 32
16 16 32
16 16 32
16 16 32
16 16 32
16 16 32
16 16 32
16 16 32
16 16 32
16 16 32
16 16 32
16 16 32
16 16 32
16 16 32
16 16 32
16 16 32
16 16 32
16 16 32
16 16 32
16 16 32
16 16 32
16 16 32
16 16 32
16 16 32
16 16 32
16 16 32
16 16 32
16 16 32
16 16 32
16 16 32
16 16 32
16 16 32
16 16 32
16 16 32
16 16 32
16 16 32
16 16 32
16 16 32
16 16 32
16 16 32
16 16 32
16 16 32
16 16 32
16 16 32
16 16 32
16 16 32
16 16 32
16 16 32
16 16 32
16 16 32
16 16 32
16 16 32
16 16 32
16 16 32
16 16 32
16 16 32
16 16 32
16 16 32
16 16 32
16 16 32
16 16 32
16 16 32
16 16 32
16 16 32
16 16 32
16 16 32
16 16 32
16 16 32
16 16 32
16 16 32
16 16 32
16 16 32
16 16 32
16 16 32
16 16 32
16 16 32
16 16 32
16 16 32
16 16 32
16 16 32
16 16 32
16 16 32
16 16 32
16 16 32
16 16 32
16 16 32
16 16 32
16 16 32
16 16 32
16 16 32
16 16 32
16 16 32
16 16 32
16 16 32
16 16 32
16 16 32
16 16 32
16 16 32
16 16 32
16 16 32
16 16 32
16 16 32
16 16 32
16 16 32
16 16 32
16 16 32
16 16 32
16 16 32
16 16 32
16 16 32
16 16 32
16 16 32
16 16 32
16 16 32
16 16 32
16 16 32
16 16 32
16 16 32
16 16 32
16 16 32
16 16 32
16 16 32
16 16 32
16 16 32
16 16 32
16 16 32
16 16 32
16 16 32
16 16 32
16 16 32
16 16 32
16 16 32
16 16 32
16 16 32
16 16 32
16 16 32
16 16 32
16 16 32
16 16 32
16 16 32
16 16 32
16 16 32
16 16 32
16 16 32
16 16 32
16 16 32
16 16 32
16 16 32
16 16 32
16 16 32
16 16 32
16 16 32
16 16 32
16 16 32
16 16 32
16 16 32
16 16 32
16 16 32
16 16 32
16 16 32
16 16 32
16 16 32
16 16 32
16 16 32
16 16 32
16 16 32
16 16 32
16 16 32
16 16 32
16 16 32
16 16 32
16 16 32
16 16 32
16 16 32
16 16 32
16 16 32
16 16 32
16 16 32
16 16 32
16 16 32
16 16 32
16 16 32
16 16 32
16 16 32
16 16 32
16 16 32
16 16 32
16 16 32
16 16 32
16 16 32
16 16 32
16 16 32
16 16 32
16 16 32
16 16 32
16 16 32
16 16 32
16 16 32
16 16 32
16 16 32
16 16 32
16 16 32
16 16 32
16 16 32
16 16 32
16 16 32
16 16 32
16 16 32
16 16 32
16 16 32
16 16 32
16 16 32
16 16 32
16 16 32
16 16 32
16 16 32
16 16 32
16 16 32
16 16 32
16 16 32
16 16 32
16 16 32
16 16 32
16 16 32
16 16 32
16 16 32
16 16 32
16 16 32
16 16 32
16 16 32
16 16 32
16 16 32
16 16 32
16 16 32
16 16 32
16 16 32
16 16 32
16 16 32
16 16 32
16 16 32
16 16 32
16 16 32
16 16 32
16 16 32
16 16 32
16 16 32
16 16 32
16 16 32
16 16 32
16 16 32
16 16 32
16 16 32
16 16 32
16 16 32
16 16 32
16 16 32
16 16 32
16 16 32
16 16 32
16 16 32
16 16 32
16 16 32
16 16 32
16 16 32
16 16 32
16 16 32
16 16 32
16 16 32
16 16 32
16 16 32
16 16 32
16 16 32
16 16 32
16 16 32
16 16 32
16 16 32
16 16 32
16 16 32
16 16 32
16 16 32
16 16 32
16 16 32
16 16 32
16 16 32
16 16 32
16 16 32
16 16 32
16 16 32
16 16 32
16 16 32
16 16 32
16 16 32
16 16 32
16 16 32
16 16 32
16 16 32
16 16 32
16 16 32
16 16 32
16 16 32
16 16 32
16 16 32
16 16 32
16 16 32
16 16 32
16 16 32
16 16 32
16 16 32
16 16 32
16 16 32
16 16 32
16 16 32
16 16 32
16 16 32
16 16 32
16 16 32
16 16 32
16 16 32
16 16 32
16 16 32
16 16 32
16 16 32
16 16 32
16 16 32
16 16 32
16 16 32
16 16 32
16 16 32
16 16 32
16 16 32
16 16 32
16 16 32
16 16 32
16 16 32
16 16 32
16 16 32
16 16 32
16 16 32
16 16 32
16 16 32
16 16 32
16 16 32
16 16 32
16 16 32
16 16 32
16 16 32
16 16 32
16 16 32
16 16 32
16 16 32
16 16 32
16 16 32
16 16 32
16 16 32
16 16 32
16 16 32
16 16 32
16 16 32
16 16 32
16 16 32
16 16 32
16 16 32
16 16 32
16 16 32
16 16 32
16 16 32
16 16 32
16 16 32
16 16 32
16 16 32
16 16 32
16 16 32
16 16 32
16 16 32
16 16 32
16 16 32
16 16 32
16 16 32
16 16 32
16 16 32
16 16 32
16 16 32
16 16 32
16 16 32
16 16 32
16 16 32
16 16 32
16 16 32
16 16 32
16 16 32
16 16 32
16 16 32
16 16 32
16 16 32
16 16 32
16 16 32
16 16 32
16 16 32
16 16 32
16 16 32
16 16 32
16 16 32
16 16 32
16 16 32
16 16 32
16 16 32
16 16 32
16 16 32
16 16 32
16 16 32
16 16 32
16 16 32
16 16 32
16 16 32
16 16 32
16 16 32
16 16 32
16 16 32
16 16 32
16 16 32
16 16 32
16 16 32
16 16 32
16 16 32
16 16 32
16 16 32
16 16 32
16 16 32
16 16 32
16 16 32
16 16 32
16 16 32
16 16 32
16 16 32
16 16 32
16 16 32
16 16 32
16 16 32
16 16 32
16 16 32
16 16 32
16 16 32
16 16 32
16 16 32
16 16 32
16 16 32
16 16 32
16 16 32
16 16 32
16 16 32
16 16 32
16 16 32
16 16 32
16 16 32
16 16 32
16 16 32
16 16 32
16 16 32
16 16 32
16 16 32
16 16 32
16 16 32
16 16 32
16 16 32
16 16 32
16 16 32
16 16 32
16 16 32
16 16 32
16 16 32
16 16 32
16 16 32
16 16 32
16 16 32
16 16 32
16 16 32
16 16 32
16 16 32
16 16 32
16 16 32
16 16 32
16 16 32
16 16 32
16 16 32
16 16 32
16 16 32
16 16 32
16 16 32
16 16 32
16 16 32
16 16 32
16 16 32
16 16 32
16 16 32
16 16 32
16 16 32
16 16 32
16 16 32
16 16 32
16 16 32
16 16 32
16 16 32
16 16 32
16 16 32
16 16 32
16 16 32
16 16 32
16 16 32
16 16 32
16 16 32
16 16 32
16 16 32
16 16 32
16 16 32
16 16 32
16 16 32
16 16 32
16 16 32
16 16 32
16 16 32
16 16 32
16 16 32
16 16 32
16 16 32
16 16 32
16 16 32
16 16 32
16 16 32
16 16 32
16 16 32
16 16 32
16 16 32
16 16 32
16 16 32
16 16 32
16 16 32
16 16 32
16 16 32
16 16 32
16 16 32
16 16 32
16 16 32
16 16 32
16 16 32
16 16 32
16 16 32
16 16 32
16 16 32
16 16 32
16 16 32
16 16 32
16 16 32
16 16 32
16 16 32
16 16 32
16 16 32
16 16 32
16 16 32
16 16 32
16 16 32
16 16 32
16 16 32
16 16 32
16 16 32
16 16 32
16 16 32
16 16 32
16 16 32
16 16 32
16 16 32
16 16 32
16 16 32
16 16 32
16 16 32
16 16 32
16 16 32
16 16 32
16 16 32
16 16 32
16 16 32
16 16 32
16 16 32
16 16 32
16 16 32
16 16 32
16 16 32
16 16 32
16 16 32
16 16 32
16 16 32
16 16 32
16 16 32
16 16 32
16 16 32
16 16 32
16 16 32
16 16 32
16 16 32
16 16 32
16 16 32
16 16 32
16 16 32
16 16 32
16 16 32
16 16 32
16 16 32
16 16 32
16 16 32
16 16 32
16 16 32
16 16 32
16 16 32
16 16 32
16 16 32
16 16 32
16 16 32
16 16 32
16 16 32
16 16 32
16 16 32
16 16 32
16 16 32
16 16 32
16 16 32
16 16 32
16 16 32
16 16 32
16 16 32
16 16 32
16 16 32
16 16 32
16 16 32
16 16 32
16 16 32
16 16 32
16 16 32
16 16 32
16 16 32
16 16 32
16 16 32
16 16 32
16 16 32
16 16 32
16 16 32
16 16 32
16 16 32
16 16 32
16 16 32
16 16 32
16 16 32
16 16 32
16 16 32
16 16 32
16 16 32
16 16 32
16 16 32
16 16 32
16 16 32
16 16 32
16 16 32
16 16 32
16 16 32
16 16 32
16 16 32
16 16 32
16 16 32
16 16 32
16 16 32
16 16 32
16 16 32
16 16 32
16 16 32
16 16 32
16 16 32
16 16 32
16 16 32
16 16 32
16 16 32
16 16 32
16 16 32
16 16 32
16 16 32
16 16 32
16 16 32
16 16 32
16 16 32
16 16 32
16 16 32
16 16 32
16 16 32
16 16 32
16 16 32
16 16 32
16 16 32
16 16 32
16 16 32
16 16 32
16 16 32
16 16 32
16 16 32
16 16 32
16 16 32
16 16 32
16 16 32
16 16 32
16 16 32
16 16 32
16 16 32
16 16 32
16 16 32
16 16 32
16 16 32
16 16 32
16 16 32
16 16 32
16 16 32
16 16 32
16 16 32
16 16 32
16 16 32
16 16 32
16 16 32
16 16 32
16 16 32
16 16 32
16 16 32
16 16 32
16 16 32
16 16 32
16 16 32
16 16 32
16 16 32
16 16 32
16 16 32
16 16 32
16 16 32
16 16 32
16 16 32
16 16 32
16 16 32
16 16 32
16 16 32
16 16 32
16 16 32
16 16 32
16 16 32
16 16 32
16 16 32
16 16 32
16 16 32
16 16 32
16 16 32
16 16 32
16 16 32
16 16 32
16 16 32
16 16 32
16 16 32
16 16 32
16 16 32
16 16 32
16 16 32
16 16 32
16 16 32
16 16 32
16 16 32
16 16 32
16 16 32
16 16 32
16 16 32
16 16 32
16 16 32
16 16 32
16 16 32
16 16 32
16 16 32
16 16 32
16 16 32
16 16 32
16 16 32
16 16 32
16 16 32
16 16 32
16 16 32
16 16 32
16 16 32
16 16 32
16 16 32
16 16 32
16 16 32
16 16 32
16 16 32
16 16 32
16 16 32
16 16 32
16 16 32
16 16 32
16 16 32
16 16 32
16 16 32
16 16 32
16 16 32
16 16 32
16 16 32
16 16 32
16 16 32
16 16 32
16 16 32
16 16 32
16 16 32
16 16 32
16 16 32
16 16 32
16 16 32
16 16 32
16 16 32
16 16 32
16 16 32
16 16 32
16 16 32
16 16 32
16 16 32
16 16 32
16 16 32
16 16 32
16 16 32
16 16 32
16 16 32
16 16 32
16 16 32
16 16 32
16 16 32
16 16 32
16 16 32
16 16 32
16 16 32
16 16 32
16 16 32
16 16 32
16 16 32
16 16 32
16 16 32
16 16 32
16 16 32
16 16 32
16 16 32
16 16 32
16 16 32
16 16 32
16 16 32
16 16 32
16 16 32
16 16 32
16 16 32
16 16 32
16 16 32
16 16 32
16 16 32
16 16 32
16 16 32
16 16 32
16 16 32
16 16 32
16 16 32
16 16 32
16 16 32
16 16 32
16 16 32
16 16 32
16 16 32
16 16 32
16 16 32
16 16 32
16 16 32
16 16 32
16 16 32
16 16 32
16 16 32
16 16 32
16 16 32
16 16 32
16 16 32
16 16 32
16 16 32
16 16 32
16 16 32
16 16 32
16 16 32
16 16 32
16 16 32
16 16 32
16 16 32
16 16 32
16 16 32
16 16 32
16 16 32
16 16 32
16 16 32
16 16 32
16 16 32
16 16 32
16 16 32
16 16 32
16 16 32
16 16 32
16 16 32
16 16 32
16 16 32
16 16 32
16 16 32
16 16 32
16 16 32
16 16 32
16 16 32
16 16 32
16 16 32
16 16 32
16 16 32
16 16 32
16 16 32
16 16 32
16 16 32
16 16 32
16 16 32
16 16 32
16 16 32
16 16 32
16 16 32
16 16 32
16 16 32
16 16 32
16 16 32
16 16 32
16 16 32
16 16 32
16 16 32
16 16 32
16 16 32
16 16 32
16 16 32
16 16 32
16 16 32
16 16 32
16 16 32
16 16 32
16 16 32
16 16 32
16 16 32
16 16 32
16 16 32
16 16 32
16 16 32
16 16 32
16 16 32
16 16 32
16 16 32
16 16 32
16 16 32
16 16 32
16 16 32
16 16 32
16 16 32
16 16 32
16 16 32
16 16 32
16 16 32
16 16 32
16 16 32
16 16 32
16 16 32
16 16 32
16 16 32
16 16 32
16 16 32
16 16 32
16 16 32
16 16 32
16 16 32
16 16 32
16 16 32
16 16 32
16 16 32
16 16 32
16 16 32
16 16 32
16 16 32
16 16 32
16 16 32
16 16 32
16 16 32
16 16 32
16 16 32
16 16 32
16 16 32
16 16 32
16 16 32
16 16 32
16 16 32
16 16 32
16 16 32
16 16 32
16 16 32
16 16 32
16 16 32
16 16 32
16 16 32
16 16 32
16 16 32
16 16 32
16 16 32
16 16 32
16 16 32
16 16 32
16 16 32
16 16 32
16 16 32
16 16 32
16 16 32
16 16 32
16 16 32
16 16 32
16 16 32
16 16 32
16 16 32
16 16 32
16 16 32
16 16 32
16 16 32
16 16 32
16 16 32
16 16 32
16 16 32
16 16 32
16 16 32
16 16 32
16 16 32
16 16 32
16 16 32
16 16 32
16 16 32
16 16 32
16 16 32
16 16 32
16 16 32
16 16 32
16 16 32
16 16 32
16 16 32
16 16 32
16 16 32
16 16 32
16 16 32
16 16 32
255 255 255
255 255 255
16 16 32
16 16 32
16 16 32
16 16 32
16 16 32
16 16 32
255 255 255
255 255 255
16 16 32
16 16 32
16 16 32
16 16 32
16 16 32
16 16 32
16 16 32
16 16 32
16 16 32
16 16 32
255 255 255
255 255 255
16 16 32
16 16 32
16 16 32
16 16 32
16 16 32
16 16 32
16 16 32
16 16 32
16 16 32
16 16 32
16 16 32
16 16 32
16 16 32
16 16 32
16 16 32
16 16 32
16 16 32
16 16 32
16 16 32
16 16 32
16 16 32
16 16 32
16 16 32
16 16 32
16 16 32
16 16 32
255 255 255
255 255 255
16 16 32
16 16 32
16 16 32
16 16 32
16 16 32
16 16 32
255 255 255
255 255 255
16 16 32
16 16 32
16 16 32
16 16 32
16 16 32
16 16 32
255 255 255
255 255 255
255 255 255
255 255 255
255 255 255
255 255 255
255 255 255
255 255 255
255 255 255
255 255 255
16 16 32
16 16 32
16 16 32
16 16 32
16 16 32
16 16 32
255 255 255
255 255 255
16 16 32
16 16 32
16 16 32
16 16 32
16 16 32
16 16 32
255 255 255
255 255 255
16 16 32
16 16 32
16 16 32
16 16 32
16 16 32
16 16 32
255 255 255
255 255 255
255 255 255
255 255 255
255 255 255
255 255 255
255 255 255
255 255 255
255 255 255
255 255 255
16 16 32
16 16 32
16 16 32
16 16 32
16 16 32
16 16 32
16 16 32
16 16 32
16 16 32
16 16 32
16 16 32
16 16 32
16 16 32
16 16 32
16 16 32
16 16 32
16 16 32
16 16 32
16 16 32
16 16 32
16 16 32
16 16 32
16 16 32
16 16 32
16 16 32
16 16 32
16 16 32
16 16 32
16 16 32
16 16 32
255 255 255
255 255 255
16 16 32
16 16 32
16 16 32
16 16 32
16 16 32
16 16 32
16 16 32
16 16 32
16 16 32
16 16 32
16 16 32
16 16 32
16 16 32
16 16 32
16 16 32
16 16 32
16 16 32
16 16 32
16 16 32
16 16 32
16 16 32
16 16 32
255 255 255
255 255 255
16 16 32
16 16 32
16 16 32
16 16 32
16 16 32
16 16 32
255 255 255
255 255 255
16 16 32
16 16 32
16 16 32
16 16 32
16 16 32
16 16 32
16 16 32
16 16 32
255 255 255
255 255 255
255 255 255
255 255 255
255 255 255
255 255 255
16 16 32
16 16 32
16 16 32
16 16 32
16 16 32
16 16 32
16 16 32
16 16 32
255 255 255
255 255 255
16 16 32
16 16 32
16 16 32
16 16 32
16 16 32
16 16 32
16 16 32
16 16 32
16 16 32
16 16 32
16 16 32
16 16 32
16 16 32
16 16 32
255 255 255
255 255 255
255 255 255
255 255 255
255 255 255
255 255 255
255 255 255
255 255 255
16 16 32
16 16 32
16 16 32
16 16 32
16 16 32
16 16 32
16 16 32
16 16 32
16 16 32
16 16 32
16 16 32
16 16 32
16 16 32
16 16 32
16 16 32
16 16 32
16 16 32
16 16 32
16 16 32
16 16 32
16 16 32
16 16 32
16 16 32
16 16 32
255 255 255
255 255 255
255 255 255
255 255 255
255 255 255
255 255 255
255 255 255
255 255 255
16 16 32
16 16 32
16 16 32
16 16 32
16 16 32
16 16 32
16 16 32
16 16 32
255 255 255
255 255 255
255 255 255
255 255 255
255 255 255
255 255 255
255 255 255
255 255 255
16 16 32
16 16 32
16 16 32
16 16 32
16 16 32
16 16 32
16 16 32
16 16 32
255 255 255
255 255 255
255 255 255
255 255 255
255 255 255
255 255 255
255 255 255
255 255 255
255 255 255
255 255 255
16 16 32
16 16 32
16 16 32
16 16 32
16 16 32
16 16 32
255 255 255
255 255 255
16 16 32
16 16 32
16 16 32
16 16 32
16 16 32
16 16 32
255 255 255
255 255 255
16 16 32
16 16 32
16 16 32
16 16 32
16 16 32
16 16 32
16 16 32
16 16 32
16 16 32
16 16 32
16 16 32
16 16 32
16 16 32
16 16 32
16 16 32
16 16 32
16 16 32
16 16 32
16 16 32
16 16 32
16 16 32
16 16 32
16 16 32
16 16 32
16 16 32
16 16 32
16 16 32
16 16 32
16 16 32
16 16 32
16 16 32
16 16 32
16 16 32
16 16 32
16 16 32
16 16 32
16 16 32
16 16 32
16 16 32
16 16 32
16 16 32
16 16 32
16 16 32
16 16 32
16 16 32
16 16 32
16 16 32
16 16 32
16 16 32
16 16 32
16 16 32
16 16 32
16 16 32
16 16 32
255 255 255
255 255 255
16 16 32
16 16 32
16 16 32
16 16 32
16 16 32
16 16 32
255 255 255
255 255 255
16 16 32
16 16 32
16 16 32
16 16 32
16 16 32
16 16 32
16 16 32
16 16 32
255 255 255
255 255 255
255 255 255
255 255 255
255 255 255
255 255 255
16 16 32
16 16 32
16 16 32
16 16 32
16 16 32
16 16 32
16 16 32
16 16 32
16 16 32
16 16 32
16 16 32
16 16 32
16 16 32
16 16 32
16 16 32
16 16 32
16 16 32
16 16 32
16 16 32
16 16 32
16 16 32
16 16 32
16 16 32
16 16 32
16 16 32
16 16 32
16 16 32
16 16 32
16 16 32
16 16 32
16 16 32
16 16 32
16 16 32
16 16 32
16 16 32
16 16 32
16 16 32
16 16 32
16 16 32
16 16 32
255 255 255
255 255 255
255 255 255
255 255 255
255 255 255
255 255 255
255 255 255
255 255 255
255 255 255
255 255 255
16 16 32
16 16 32
16 16 32
16 16 32
16 16 32
16 16 32
16 16 32
16 16 32
16 16 32
16 16 32
16 16 32
16 16 32
16 16 32
16 16 32
16 16 32
16 16 32
16 16 32
16 16 32
16 16 32
16 16 32
16 16 32
16 16 32
16 16 32
16 16 32
16 16 32
16 16 32
16 16 32
16 16 32
16 16 32
16 16 32
255 255 255
255 255 255
16 16 32
16 16 32
16 16 32
16 16 32
16 16 32
16 16 32
16 16 32
16 16 32
16 16 32
16 16 32
16 16 32
16 16 32
16 16 32
16 16 32
16 16 32
16 16 32
16 16 32
16 16 32
16 16 32
16 16 32
16 16 32
16 16 32
255 255 255
255 255 255
16 16 32
16 16 32
16 16 32
16 16 32
16 16 32
16 16 32
255 255 255
255 255 255
16 16 32
16 16 32
16 16 32
16 16 32
16 16 32
16 16 32
16 16 32
16 16 32
255 255 255
255 255 255
255 255 255
255 255 255
255 255 255
255 255 255
16 16 32
16 16 32
16 16 32
16 16 32
16 16 32
16 16 32
16 16 32
16 16 32
255 255 255
255 255 255
16 16 32
16 16 32
16 16 32
16 16 32
16 16 32
16 16 32
16 16 32
16 16 32
16 16 32
16 16 32
16 16 32
16 16 32
16 16 32
16 16 32
255 255 255
255 255 255
255 255 255
255 255 255
255 255 255
255 255 255
255 255 255
255 255 255
16 16 32
16 16 32
16 16 32
16 16 32
16 16 32
16 16 32
16 16 32
16 16 32
16 16 32
16 16 32
16 16 32
16 16 32
16 16 32
16 16 32
16 16 32
16 16 32
16 16 32
16 16 32
16 16 32
16 16 32
16 16 32
16 16 32
16 16 32
16 16 32
16 16 32
16 16 32
16 16 32
16 16 32
16 16 32
16 16 32
16 16 32
16 16 32
16 16 32
16 16 32
16 16 32
16 16 32
16 16 32
16 16 32
16 16 32
16 16 32
255 255 255
255 255 255
255 255 255
255 255 255
255 255 255
255 255 255
255 255 255
255 255 255
255 255 255
255 255 255
16 16 32
16 16 32
16 16 32
16 16 32
16 16 32
16 16 32
16 16 32
16 16 32
16 16 32
16 16 32
16 16 32
16 16 32
16 16 32
16 16 32
16 16 32
16 16 32
16 16 32
16 16 32
16 16 32
16 16 32
16 16 32
16 16 32
16 16 32
16 16 32
16 16 32
16 16 32
16 16 32
16 16 32
16 16 32
16 16 32
16 16 32
16 16 32
16 16 32
16 16 32
16 16 32
16 16 32
16 16 32
16 16 32
16 16 32
16 16 32
16 16 32
16 16 32
16 16 32
16 16 32
16 16 32
16 16 32
16 16 32
16 16 32
16 16 32
16 16 32
16 16 32
16 16 32
16 16 32
16 16 32
16 16 32
16 16 32
16 16 32
16 16 32
16 16 32
16 16 32
16 16 32
16 16 32
16 16 32
16 16 32
16 16 32
16 16 32
16 16 32
16 16 32
16 16 32
16 16 32
16 16 32
16 16 32
16 16 32
16 16 32
16 16 32
16 16 32
16 16 32
16 16 32
16 16 32
16 16 32
16 16 32
16 16 32
16 16 32
16 16 32
16 16 32
16 16 32
16 16 32
16 16 32
16 16 32
16 16 32
16 16 32
16 16 32
16 16 32
16 16 32
16 16 32
16 16 32
16 16 32
16 16 32
16 16 32
16 16 32
16 16 32
16 16 32
16 16 32
16 16 32
16 16 32
16 16 32
16 16 32
16 16 32
16 16 32
16 16 32
16 16 32
16 16 32
16 16 32
16 16 32
16 16 32
16 16 32
16 16 32
16 16 32
16 16 32
16 16 32
16 16 32
16 16 32
16 16 32
16 16 32
16 16 32
16 16 32
16 16 32
16 16 32
16 16 32
16 16 32
16 16 32
16 16 32
16 16 32
16 16 32
16 16 32
16 16 32
16 16 32
16 16 32
16 16 32
16 16 32
16 16 32
16 16 32
16 16 32
16 16 32
16 16 32
16 16 32
16 16 32
16 16 32
16 16 32
16 16 32
16 16 32
16 16 32
16 16 32
16 16 32
16 16 32
16 16 32
16 16 32
16 16 32
16 16 32
16 16 32
16 16 32
16 16 32
16 16 32
16 16 32
16 16 32
16 16 32
16 16 32
16 16 32
16 16 32
16 16 32
16 16 32
16 16 32
16 16 32
16 16 32
16 16 32
16 16 32
16 16 32
16 16 32
16 16 32
16 16 32
16 16 32
16 16 32
16 16 32
16 16 32
16 16 32
16 16 32
16 16 32
16 16 32
16 16 32
16 16 32
16 16 32
16 16 32
16 16 32
16 16 32
16 16 32
16 16 32
16 16 32
16 16 32
16 16 32
16 16 32
16 16 32
16 16 32
16 16 32
16 16 32
16 16 32
16 16 32
16 16 32
16 16 32
16 16 32
16 16 32
16 16 32
16 16 32
16 16 32
16 16 32
16 16 32
16 16 32
16 16 32
16 16 32
16 16 32
16 16 32
16 16 32
16 16 32
16 16 32
16 16 32
16 16 32
16 16 32
16 16 32
16 16 32
16 16 32
16 16 32
16 16 32
16 16 32
16 16 32
16 16 32
16 16 32
16 16 32
16 16 32
16 16 32
16 16 32
16 16 32
16 16 32
16 16 32
16 16 32
16 16 32
16 16 32
16 16 32
16 16 32
16 16 32
16 16 32
16 16 32
16 16 32
16 16 32
16 16 32
16 16 32
16 16 32
16 16 32
16 16 32
16 16 32
16 16 32
16 16 32
16 16 32
16 16 32
16 16 32
16 16 32
16 16 32
16 16 32
16 16 32
16 16 32
16 16 32
16 16 32
16 16 32
16 16 32
16 16 32
16 16 32
16 16 32
16 16 32
16 16 32
16 16 32
16 16 32
16 16 32
16 16 32
16 16 32
16 16 32
16 16 32
16 16 32
16 16 32
16 16 32
16 16 32
16 16 32
16 16 32
16 16 32
16 16 32
16 16 32
16 16 32
16 16 32
16 16 32
16 16 32
16 16 32
16 16 32
16 16 32
16 16 32
16 16 32
16 16 32
16 16 32
16 16 32
16 16 32
16 16 32
16 16 32
16 16 32
16 16 32
16 16 32
16 16 32
16 16 32
16 16 32
16 16 32
16 16 32
16 16 32
16 16 32
16 16 32
16 16 32
16 16 32
16 16 32
16 16 32
16 16 32
16 16 32
16 16 32
16 16 32
16 16 32
16 16 32
16 16 32
16 16 32
16 16 32
16 16 32
16 16 32
16 16 32
16 16 32
16 16 32
16 16 32
16 16 32
16 16 32
16 16 32
16 16 32
16 16 32
16 16 32
16 16 32
16 16 32
16 16 32
16 16 32
16 16 32
16 16 32
16 16 32
16 16 32
16 16 32
16 16 32
16 16 32
16 16 32
16 16 32
16 16 32
16 16 32
16 16 32
16 16 32
16 16 32
16 16 32
16 16 32
16 16 32
16 16 32
16 16 32
16 16 32
16 16 32
16 16 32
16 16 32
16 16 32
16 16 32
16 16 32
16 16 32
16 16 32
16 16 32
16 16 32
16 16 32
16 16 32
16 16 32
16 16 32
16 16 32
16 16 32
16 16 32
16 16 32
16 16 32
16 16 32
16 16 32
16 16 32
16 16 32
16 16 32
16 16 32
16 16 32
16 16 32
16 16 32
16 16 32
16 16 32
16 16 32
16 16 32
16 16 32
16 16 32
16 16 32
16 16 32
16 16 32
16 16 32
16 16 32
16 16 32
16 16 32
16 16 32
16 16 32
16 16 32
16 16 32
16 16 32
16 16 32
16 16 32
16 16 32
16 16 32
16 16 32
16 16 32
16 16 32
16 16 32
16 16 32
16 16 32
16 16 32
16 16 32
16 16 32
16 16 32
16 16 32
16 16 32
16 16 32
16 16 32
16 16 32
16 16 32
16 16 32
16 16 32
16 16 32
16 16 32
16 16 32
16 16 32
16 16 32
16 16 32
16 16 32
16 16 32
16 16 32
16 16 32
16 16 32
16 16 32
16 16 32
16 16 32
16 16 32
16 16 32
16 16 32
16 16 32
255 255 255
255 255 255
16 16 32
16 16 32
16 16 32
16 16 32
16 16 32
16 16 32
255 255 255
255 255 255
16 16 32
16 16 32
16 16 32
16 16 32
16 16 32
16 16 32
16 16 32
16 16 32
16 16 32
16 16 32
255 255 255
255 255 255
16 16 32
16 16 32
16 16 32
16 16 32
16 16 32
16 16 32
16 16 32
16 16 32
16 16 32
16 16 32
16 16 32
16 16 32
16 16 32
16 16 32
16 16 32
16 16 32
16 16 32
16 16 32
16 16 32
16 16 32
16 16 32
16 16 32
16 16 32
16 16 32
16 16 32
16 16 32
255 255 255
255 255 255
16 16 32
16 16 32
16 16 32
16 16 32
16 16 32
16 16 32
255 255 255
255 255 255
16 16 32
16 16 32
16 16 32
16 16 32
16 16 32
16 16 32
255 255 255
255 255 255
255 255 255
255 255 255
255 255 255
255 255 255
255 255 255
255 255 255
255 255 255
255 255 255
16 16 32
16 16 32
16 16 32
16 16 32
16 16 32
16 16 32
255 255 255
255 255 255
16 16 32
16 16 32
16 16 32
16 16 32
16 16 32
16 16 32
255 255 255
255 255 255
16 16 32
16 16 32
16 16 32
16 16 32
16 16 32
16 16 32
255 255 255
255 255 255
255 255 255
255 255 255
255 255 255
255 255 255
255 255 255
255 255 255
255 255 255
255 255 255
16 16 32
16 16 32
16 16 32
16 16 32
16 16 32
16 16 32
16 16 32
16 16 32
16 16 32
16 16 32
16 16 32
16 16 32
16 16 32
16 16 32
16 16 32
16 16 32
16 16 32
16 16 32
16 16 32
16 16 32
16 16 32
16 16 32
16 16 32
16 16 32
16 16 32
16 16 32
16 16 32
16 16 32
16 16 32
16 16 32
255 255 255
255 255 255
16 16 32
16 16 32
16 16 32
16 16 32
16 16 32
16 16 32
16 16 32
16 16 32
16 16 32
16 16 32
16 16 32
16 16 32
16 16 32
16 16 32
16 16 32
16 16 32
16 16 32
16 16 32
16 16 32
16 16 32
16 16 32
16 16 32
255 255 255
255 255 255
16 16 32
16 16 32
16 16 32
16 16 32
16 16 32
16 16 32
255 255 255
255 255 255
16 16 32
16 16 32
16 16 32
16 16 32
16 16 32
16 16 32
16 16 32
16 16 32
255 255 255
255 255 255
255 255 255
255 255 255
255 255 255
255 255 255
16 16 32
16 16 32
16 16 32
16 16 32
16 16 32
16 16 32
16 16 32
16 16 32
255 255 255
255 255 255
16 16 32
16 16 32
16 16 32
16 16 32
16 16 32
16 16 32
16 16 32
16 16 32
16 16 32
16 16 32
16 16 32
16 16 32
16 16 32
16 16 32
255 255 255
255 255 255
255 255 255
255 255 255
255 255 255
255 255 255
255 255 255
255 255 255
16 16 32
16 16 32
16 16 32
16 16 32
16 16 32
16 16 32
16 16 32
16 16 32
16 16 32
16 16 32
16 16 32
16 16 32
16 16 32
16 16 32
16 16 32
16 16 32
16 16 32
16 16 32
16 16 32
16 16 32
16 16 32
16 16 32
16 16 32
16 16 32
255 255 255
255 255 255
255 255 255
255 255 255
255 255 255
255 255 255
255 255 255
255 255 255
16 16 32
16 16 32
16 16 32
16 16 32
16 16 32
16 16 32
16 16 32
16 16 32
255 255 255
255 255 255
255 255 255
255 255 255
255 255 255
255 255 255
255 255 255
255 255 255
16 16 32
16 16 32
16 16 32
16 16 32
16 16 32
16 16 32
16 16 32
16 16 32
255 255 255
255 255 255
255 255 255
255 255 255
255 255 255
255 255 255
255 255 255
255 255 255
255 255 255
255 255 255
16 16 32
16 16 32
16 16 32
16 16 32
16 16 32
16 16 32
255 255 255
255 255 255
16 16 32
16 16 32
16 16 32
16 16 32
16 16 32
16 16 32
255 255 255
255 255 255
16 16 32
16 16 32
16 16 32
16 16 32
16 16 32
16 16 32
16 16 32
16 16 32
16 16 32
16 16 32
16 16 32
16 16 32
16 16 32
16 16 32
16 16 32
16 16 32
16 16 32
16 16 32
16 16 32
16 16 32
16 16 32
16 16 32
16 16 32
16 16 32
16 16 32
16 16 32
16 16 32
16 16 32
16 16 32
16 16 32
16 16 32
16 16 32
16 16 32
16 16 32
16 16 32
16 16 32
16 16 32
16 16 32
16 16 32
16 16 32
16 16 32
16 16 32
16 16 32
16 16 32
16 16 32
16 16 32
16 16 32
16 16 32
16 16 32
16 16 32
16 16 32
16 16 32
16 16 32
16 16 32
255 255 255
255 255 255
16 16 32
16 16 32
16 16 32
16 16 32
16 16 32
16 16 32
255 255 255
255 255 255
16 16 32
16 16 32
16 16 32
16 16 32
16 16 32
16 16 32
16 16 32
16 16 32
255 255 255
255 255 255
255 255 255
255 255 255
255 255 255
255 255 255
16 16 32
16 16 32
16 16 32
16 16 32
16 16 32
16 16 32
16 16 32
16 16 32
16 16 32
16 16 32
16 16 32
16 16 32
16 16 32
16 16 32
16 16 32
16 16 32
16 16 32
16 16 32
16 16 32
16 16 32
16 16 32
16 16 32
16 16 32
16 16 32
16 16 32
16 16 32
16 16 32
16 16 32
16 16 32
16 16 32
16 16 32
16 16 32
16 16 32
16 16 32
16 16 32
16 16 32
16 16 32
16 16 32
16 16 32
16 16 32
255 255 255
255 255 255
255 255 255
255 255 255
255 255 255
255 255 255
255 255 255
255 255 255
255 255 255
255 255 255
16 16 32
16 16 32
16 16 32
16 16 32
16 16 32
16 16 32
16 16 32
16 16 32
16 16 32
16 16 32
16 16 32
16 16 32
16 16 32
16 16 32
16 16 32
16 16 32
16 16 32
16 16 32
16 16 32
16 16 32
16 16 32
16 16 32
16 16 32
16 16 32
16 16 32
16 16 32
16 16 32
16 16 32
16 16 32
16 16 32
255 255 255
255 255 255
16 16 32
16 16 32
16 16 32
16 16 32
16 16 32
16 16 32
16 16 32
16 16 32
16 16 32
16 16 32
16 16 32
16 16 32
16 16 32
16 16 32
16 16 32
16 16 32
16 16 32
16 16 32
16 16 32
16 16 32
16 16 32
16 16 32
255 255 255
255 255 255
16 16 32
16 16 32
16 16 32
16 16 32
16 16 32
16 16 32
255 255 255
255 255 255
16 16 32
16 16 32
16 16 32
16 16 32
16 16 32
16 16 32
16 16 32
16 16 32
255 255 255
255 255 255
255 255 255
255 255 255
255 255 255
255 255 255
16 16 32
16 16 32
16 16 32
16 16 32
16 16 32
16 16 32
16 16 32
16 16 32
255 255 255
255 255 255
16 16 32
16 16 32
16 16 32
16 16 32
16 16 32
16 16 32
16 16 32
16 16 32
16 16 32
16 16 32
16 16 32
16 16 32
16 16 32
16 16 32
255 255 255
255 255 255
255 255 255
255 255 255
255 255 255
255 255 255
255 255 255
255 255 255
16 16 32
16 16 32
16 16 32
16 16 32
16 16 32
16 16 32
16 16 32
16 16 32
16 16 32
16 16 32
16 16 32
16 16 32
16 16 32
16 16 32
16 16 32
16 16 32
16 16 32
16 16 32
16 16 32
16 16 32
16 16 32
16 16 32
16 16 32
16 16 32
16 16 32
16 16 32
16 16 32
16 16 32
16 16 32
16 16 32
16 16 32
16 16 32
16 16 32
16 16 32
16 16 32
16 16 32
16 16 32
16 16 32
16 16 32
16 16 32
255 255 255
255 255 255
255 255 255
255 255 255
255 255 255
255 255 255
255 255 255
255 255 255
255 255 255
255 255 255
16 16 32
16 16 32
16 16 32
16 16 32
16 16 32
16 16 32
16 16 32
16 16 32
16 16 32
16 16 32
16 16 32
16 16 32
16 16 32
16 16 32
16 16 32
16 16 32
16 16 32
16 16 32
16 16 32
16 16 32
16 16 32
16 16 32
16 16 32
16 16 32
16 16 32
16 16 32
16 16 32
16 16 32
16 16 32
16 16 32
16 16 32
16 16 32
16 16 32
16 16 32
16 16 32
16 16 32
16 16 32
16 16 32
16 16 32
16 16 32
16 16 32
16 16 32
16 16 32
16 16 32
16 16 32
16 16 32
16 16 32
16 16 32
16 16 32
16 16 32
16 16 32
16 16 32
16 16 32
16 16 32
16 16 32
16 16 32
16 16 32
16 16 32
16 16 32
16 16 32
16 16 32
16 16 32
16 16 32
16 16 32
16 16 32
16 16 32
16 16 32
16 16 32
16 16 32
16 16 32
16 16 32
16 16 32
16 16 32
16 16 32
16 16 32
16 16 32
16 16 32
16 16 32
16 16 32
16 16 32
16 16 32
16 16 32
16 16 32
16 16 32
16 16 32
16 16 32
16 16 32
16 16 32
16 16 32
16 16 32
16 16 32
16 16 32
16 16 32
16 16 32
16 16 32
16 16 32
16 16 32
16 16 32
16 16 32
16 16 32
16 16 32
16 16 32
16 16 32
16 16 32
16 16 32
16 16 32
16 16 32
16 16 32
16 16 32
16 16 32
16 16 32
16 16 32
16 16 32
16 16 32
16 16 32
16 16 32
16 16 32
16 16 32
16 16 32
16 16 32
16 16 32
16 16 32
16 16 32
16 16 32
16 16 32
16 16 32
16 16 32
16 16 32
16 16 32
16 16 32
16 16 32
16 16 32
16 16 32
16 16 32
16 16 32
16 16 32
16 16 32
16 16 32
16 16 32
16 16 32
16 16 32
16 16 32
16 16 32
16 16 32
16 16 32
16 16 32
16 16 32
16 16 32
16 16 32
16 16 32
16 16 32
16 16 32
16 16 32
16 16 32
16 16 32
16 16 32
16 16 32
16 16 32
16 16 32
16 16 32
16 16 32
16 16 32
16 16 32
16 16 32
16 16 32
16 16 32
16 16 32
16 16 32
16 16 32
16 16 32
16 16 32
16 16 32
16 16 32
16 16 32
16 16 32
16 16 32
16 16 32
16 16 32
16 16 32
16 16 32
16 16 32
16 16 32
16 16 32
16 16 32
16 16 32
16 16 32
16 16 32
16 16 32
16 16 32
16 16 32
16 16 32
16 16 32
16 16 32
16 16 32
16 16 32
16 16 32
16 16 32
16 16 32
16 16 32
16 16 32
16 16 32
16 16 32
16 16 32
16 16 32
16 16 32
16 16 32
16 16 32
16 16 32
16 16 32
16 16 32
16 16 32
16 16 32
16 16 32
16 16 32
16 16 32
16 16 32
16 16 32
16 16 32
16 16 32
16 16 32
16 16 32
16 16 32
16 16 32
16 16 32
16 16 32
16 16 32
16 16 32
16 16 32
16 16 32
16 16 32
16 16 32
16 16 32
16 16 32
16 16 32
16 16 32
16 16 32
16 16 32
16 16 32
16 16 32
16 16 32
16 16 32
16 16 32
16 16 32
16 16 32
16 16 32
16 16 32
16 16 32
16 16 32
16 16 32
16 16 32
16 16 32
16 16 32
16 16 32
16 16 32
16 16 32
16 16 32
16 16 32
16 16 32
16 16 32
16 16 32
16 16 32
16 16 32
16 16 32
16 16 32
16 16 32
16 16 32
16 16 32
16 16 32
16 16 32
16 16 32
16 16 32
16 16 32
16 16 32
16 16 32
16 16 32
16 16 32
16 16 32
16 16 32
16 16 32
16 16 32
16 16 32
16 16 32
16 16 32
16 16 32
16 16 32
16 16 32
16 16 32
16 16 32
16 16 32
16 16 32
16 16 32
16 16 32
16 16 32
16 16 32
16 16 32
16 16 32
16 16 32
16 16 32
16 16 32
16 16 32
16 16 32
16 16 32
16 16 32
16 16 32
16 16 32
16 16 32
16 16 32
16 16 32
16 16 32
16 16 32
16 16 32
16 16 32
16 16 32
16 16 32
16 16 32
16 16 32
16 16 32
16 16 32
16 16 32
16 16 32
16 16 32
16 16 32
16 16 32
16 16 32
16 16 32
16 16 32
16 16 32
16 16 32
16 16 32
16 16 32
16 16 32
16 16 32
16 16 32
16 16 32
16 16 32
16 16 32
16 16 32
16 16 32
16 16 32
16 16 32
16 16 32
16 16 32
16 16 32
16 16 32
16 16 32
16 16 32
16 16 32
16 16 32
16 16 32
16 16 32
16 16 32
16 16 32
16 16 32
16 16 32
16 16 32
16 16 32
16 16 32
16 16 32
16 16 32
16 16 32
16 16 32
16 16 32
16 16 32
16 16 32
16 16 32
16 16 32
16 16 32
16 16 32
16 16 32
16 16 32
16 16 32
16 16 32
16 16 32
16 16 32
16 16 32
16 16 32
16 16 32
16 16 32
16 16 32
16 16 32
16 16 32
16 16 32
16 16 32
16 16 32
16 16 32
16 16 32
16 16 32
16 16 32
16 16 32
16 16 32
16 16 32
16 16 32
16 16 32
16 16 32
16 16 32
16 16 32
16 16 32
16 16 32
16 16 32
16 16 32
16 16 32
16 16 32
16 16 32
16 16 32
16 16 32
16 16 32
16 16 32
16 16 32
16 16 32
16 16 32
16 16 32
16 16 32
16 16 32
16 16 32
16 16 32
16 16 32
16 16 32
16 16 32
16 16 32
16 16 32
16 16 32
16 16 32
16 16 32
16 16 32
16 16 32
16 16 32
16 16 32
16 16 32
16 16 32
16 16 32
16 16 32
16 16 32
16 16 32
16 16 32
16 16 32
16 16 32
16 16 32
16 16 32
16 16 32
16 16 32
16 16 32
16 16 32
16 16 32
16 16 32
16 16 32
16 16 32
16 16 32
16 16 32
16 16 32
16 16 32
16 16 32
16 16 32
16 16 32
16 16 32
255 255 255
255 255 255
16 16 32
16 16 32
16 16 32
16 16 32
255 255 255
255 255 255
16 16 32
16 16 32
16 16 32
16 16 32
16 16 32
16 16 32
16 16 32
16 16 32
16 16 32
16 16 32
255 255 255
255 255 255
255 255 255
255 255 255
16 16 32
16 16 32
16 16 32
16 16 32
16 16 32
16 16 32
16 16 32
16 16 32
16 16 32
16 16 32
16 16 32
16 16 32
16 16 32
16 16 32
16 16 32
16 16 32
16 16 32
16 16 32
16 16 32
16 16 32
16 16 32
16 16 32
16 16 32
16 16 32
16 16 32
16 16 32
255 255 255
255 255 255
255 255 255
255 255 255
16 16 32
16 16 32
16 16 32
16 16 32
255 255 255
255 255 255
16 16 32
16 16 32
16 16 32
16 16 32
16 16 32
16 16 32
255 255 255
255 255 255
16 16 32
16 16 32
16 16 32
16 16 32
16 16 32
16 16 32
16 16 32
16 16 32
16 16 32
16 16 32
16 16 32
16 16 32
16 16 32
16 16 32
255 255 255
255 255 255
16 16 32
16 16 32
16 16 32
16 16 32
16 16 32
16 16 32
255 255 255
255 255 255
16 16 32
16 16 32
16 16 32
16 16 32
16 16 32
16 16 32
16 16 32
16 16 32
16 16 32
16 16 32
255 255 255
255 255 255
16 16 32
16 16 32
16 16 32
16 16 32
16 16 32
16 16 32
16 16 32
16 16 32
16 16 32
16 16 32
16 16 32
16 16 32
16 16 32
16 16 32
16 16 32
16 16 32
16 16 32
16 16 32
16 16 32
16 16 32
16 16 32
16 16 32
16 16 32
16 16 32
16 16 32
16 16 32
16 16 32
16 16 32
16 16 32
16 16 32
16 16 32
16 16 32
255 255 255
255 255 255
16 16 32
16 16 32
16 16 32
16 16 32
16 16 32
16 16 32
16 16 32
16 16 32
16 16 32
16 16 32
16 16 32
16 16 32
16 16 32
16 16 32
16 16 32
16 16 32
16 16 32
16 16 32
16 16 32
16 16 32
16 16 32
16 16 32
16 16 32
16 16 32
255 255 255
255 255 255
16 16 32
16 16 32
16 16 32
16 16 32
16 16 32
16 16 32
255 255 255
255 255 255
16 16 32
16 16 32
16 16 32
16 16 32
16 16 32
16 16 32
255 255 255
255 255 255
16 16 32
16 16 32
16 16 32
16 16 32
16 16 32
16 16 32
255 255 255
255 255 255
16 16 32
16 16 32
16 16 32
16 16 32
16 16 32
16 16 32
255 255 255
255 255 255
16 16 32
16 16 32
16 16 32
16 16 32
16 16 32
16 16 32
16 16 32
16 16 32
16 16 32
16 16 32
16 16 32
16 16 32
16 16 32
16 16 32
255 255 255
255 255 255
16 16 32
16 16 32
16 16 32
16 16 32
16 16 32
16 16 32
255 255 255
255 255 255
16 16 32
16 16 32
16 16 32
16 16 32
16 16 32
16 16 32
16 16 32
16 16 32
16 16 32
16 16 32
16 16 32
16 16 32
16 16 32
16 16 32
16 16 32
16 16 32
16 16 32
16 16 32
16 16 32
16 16 32
16 16 32
16 16 32
255 255 255
255 255 255
16 16 32
16 16 32
16 16 32
16 16 32
16 16 32
16 16 32
255 255 255
255 255 255
16 16 32
16 16 32
16 16 32
16 16 32
16 16 32
16 16 32
255 255 255
255 255 255
16 16 32
16 16 32
16 16 32
16 16 32
16 16 32
16 16 32
255 255 255
255 255 255
16 16 32
16 16 32
16 16 32
16 16 32
16 16 32
16 16 32
255 255 255
255 255 255
16 16 32
16 16 32
16 16 32
16 16 32
16 16 32
16 16 32
16 16 32
16 16 32
16 16 32
16 16 32
16 16 32
16 16 32
16 16 32
16 16 32
255 255 255
255 255 255
16 16 32
16 16 32
16 16 32
16 16 32
16 16 32
16 16 32
255 255 255
255 255 255
16 16 32
16 16 32
16 16 32
16 16 32
16 16 32
16 16 32
16 16 32
16 16 32
16 16 32
16 16 32
16 16 32
16 16 32
16 16 32
16 16 32
16 16 32
16 16 32
16 16 32
16 16 32
16 16 32
16 16 32
16 16 32
16 16 32
16 16 32
16 16 32
16 16 32
16 16 32
16 16 32
16 16 32
16 16 32
16 16 32
16 16 32
16 16 32
16 16 32
16 16 32
16 16 32
16 16 32
16 16 32
16 16 32
16 16 32
16 16 32
16 16 32
16 16 32
16 16 32
16 16 32
16 16 32
16 16 32
16 16 32
16 16 32
16 16 32
16 16 32
16 16 32
16 16 32
16 16 32
16 16 32
255 255 255
255 255 255
16 16 32
16 16 32
16 16 32
16 16 32
255 255 255
255 255 255
16 16 32
16 16 32
16 16 32
16 16 32
16 16 32
16 16 32
16 16 32
16 16 32
255 255 255
255 255 255
16 16 32
16 16 32
16 16 32
16 16 32
16 16 32
16 16 32
255 255 255
255 255 255
16 16 32
16 16 32
16 16 32
16 16 32
16 16 32
16 16 32
16 16 32
16 16 32
16 16 32
16 16 32
16 16 32
16 16 32
16 16 32
16 16 32
16 16 32
16 16 32
16 16 32
16 16 32
16 16 32
16 16 32
16 16 32
16 16 32
16 16 32
16 16 32
16 16 32
16 16 32
255 255 255
255 255 255
16 16 32
16 16 32
16 16 32
16 16 32
16 16 32
16 16 32
16 16 32
16 16 32
16 16 32
16 16 32
255 255 255
255 255 255
16 16 32
16 16 32
16 16 32
16 16 32
16 16 32
16 16 32
16 16 32
16 16 32
16 16 32
16 16 32
16 16 32
16 16 32
16 16 32
16 16 32
16 16 32
16 16 32
16 16 32
16 16 32
16 16 32
16 16 32
16 16 32
16 16 32
16 16 32
16 16 32
16 16 32
16 16 32
16 16 32
16 16 32
16 16 32
16 16 32
16 16 32
16 16 32
16 16 32
16 16 32
16 16 32
16 16 32
255 255 255
255 255 255
16 16 32
16 16 32
16 16 32
16 16 32
16 16 32
16 16 32
16 16 32
16 16 32
16 16 32
16 16 32
16 16 32
16 16 32
16 16 32
16 16 32
16 16 32
16 16 32
16 16 32
16 16 32
16 16 32
16 16 32
16 16 32
16 16 32
16 16 32
16 16 32
255 255 255
255 255 255
16 16 32
16 16 32
16 16 32
16 16 32
16 16 32
16 16 32
255 255 255
255 255 255
16 16 32
16 16 32
16 16 32
16 16 32
16 16 32
16 16 32
255 255 255
255 255 255
16 16 32
16 16 32
16 16 32
16 16 32
16 16 32
16 16 32
255 255 255
255 255 255
16 16 32
16 16 32
16 16 32
16 16 32
16 16 32
16 16 32
255 255 255
255 255 255
16 16 32
16 16 32
16 16 32
16 16 32
16 16 32
16 16 32
16 16 32
16 16 32
16 16 32
16 16 32
16 16 32
16 16 32
16 16 32
16 16 32
255 255 255
255 255 255
16 16 32
16 16 32
16 16 32
16 16 32
16 16 32
16 16 32
255 255 255
255 255 255
16 16 32
16 16 32
16 16 32
16 16 32
16 16 32
16 16 32
16 16 32
16 16 32
16 16 32
16 16 32
16 16 32
16 16 32
16 16 32
16 16 32
16 16 32
16 16 32
16 16 32
16 16 32
16 16 32
16 16 32
16 16 32
16 16 32
16 16 32
16 16 32
16 16 32
16 16 32
16 16 32
16 16 32
16 16 32
16 16 32
16 16 32
16 16 32
16 16 32
16 16 32
16 16 32
16 16 32
16 16 32
16 16 32
255 255 255
255 255 255
16 16 32
16 16 32
16 16 32
16 16 32
16 16 32
16 16 32
16 16 32
16 16 32
16 16 32
16 16 32
16 16 32
16 16 32
16 16 32
16 16 32
16 16 32
16 16 32
16 16 32
16 16 32
16 16 32
16 16 32
16 16 32
16 16 32
16 16 32
16 16 32
16 16 32
16 16 32
16 16 32
16 16 32
16 16 32
16 16 32
16 16 32
16 16 32
16 16 32
16 16 32
16 16 32
16 16 32
16 16 32
16 16 32
16 16 32
16 16 32
16 16 32
16 16 32
16 16 32
16 16 32
16 16 32
16 16 32
16 16 32
16 16 32
16 16 32
16 16 32
16 16 32
16 16 32
16 16 32
16 16 32
16 16 32
16 16 32
16 16 32
16 16 32
16 16 32
16 16 32
16 16 32
16 16 32
16 16 32
16 16 32
16 16 32
16 16 32
16 16 32
16 16 32
16 16 32
16 16 32
16 16 32
16 16 32
16 16 32
16 16 32
16 16 32
16 16 32
16 16 32
16 16 32
16 16 32
16 16 32
16 16 32
16 16 32
16 16 32
16 16 32
16 16 32
16 16 32
16 16 32
16 16 32
16 16 32
16 16 32
16 16 32
16 16 32
16 16 32
16 16 32
16 16 32
16 16 32
16 16 32
16 16 32
16 16 32
16 16 32
16 16 32
16 16 32
16 16 32
16 16 32
16 16 32
16 16 32
16 16 32
16 16 32
16 16 32
16 16 32
16 16 32
16 16 32
16 16 32
16 16 32
16 16 32
16 16 32
16 16 32
16 16 32
16 16 32
16 16 32
16 16 32
16 16 32
16 16 32
16 16 32
16 16 32
16 16 32
16 16 32
16 16 32
16 16 32
16 16 32
16 16 32
16 16 32
16 16 32
16 16 32
16 16 32
16 16 32
16 16 32
16 16 32
16 16 32
16 16 32
16 16 32
16 16 32
16 16 32
16 16 32
16 16 32
16 16 32
16 16 32
16 16 32
16 16 32
16 16 32
16 16 32
16 16 32
16 16 32
16 16 32
16 16 32
16 16 32
16 16 32
16 16 32
16 16 32
16 16 32
16 16 32
16 16 32
16 16 32
16 16 32
16 16 32
16 16 32
16 16 32
16 16 32
16 16 32
16 16 32
16 16 32
16 16 32
16 16 32
16 16 32
16 16 32
16 16 32
16 16 32
16 16 32
16 16 32
16 16 32
16 16 32
16 16 32
16 16 32
16 16 32
16 16 32
16 16 32
16 16 32
16 16 32
16 16 32
16 16 32
16 16 32
16 16 32
16 16 32
16 16 32
16 16 32
16 16 32
16 16 32
16 16 32
16 16 32
16 16 32
16 16 32
16 16 32
16 16 32
16 16 32
16 16 32
16 16 32
16 16 32
16 16 32
16 16 32
16 16 32
16 16 32
16 16 32
16 16 32
16 16 32
16 16 32
16 16 32
16 16 32
16 16 32
16 16 32
16 16 32
16 16 32
16 16 32
16 16 32
16 16 32
16 16 32
16 16 32
16 16 32
16 16 32
16 16 32
16 16 32
16 16 32
16 16 32
16 16 32
16 16 32
16 16 32
16 16 32
16 16 32
16 16 32
16 16 32
16 16 32
16 16 32
16 16 32
16 16 32
16 16 32
16 16 32
16 16 32
16 16 32
16 16 32
16 16 32
16 16 32
16 16 32
16 16 32
16 16 32
16 16 32
16 16 32
16 16 32
16 16 32
16 16 32
16 16 32
16 16 32
16 16 32
16 16 32
16 16 32
16 16 32
16 16 32
16 16 32
16 16 32
16 16 32
16 16 32
16 16 32
16 16 32
16 16 32
16 16 32
16 16 32
16 16 32
16 16 32
16 16 32
16 16 32
16 16 32
16 16 32
16 16 32
16 16 32
16 16 32
16 16 32
16 16 32
16 16 32
16 16 32
16 16 32
16 16 32
16 16 32
16 16 32
16 16 32
16 16 32
16 16 32
16 16 32
16 16 32
16 16 32
16 16 32
16 16 32
16 16 32
16 16 32
16 16 32
16 16 32
16 16 32
16 16 32
16 16 32
16 16 32
16 16 32
16 16 32
16 16 32
16 16 32
16 16 32
16 16 32
16 16 32
16 16 32
16 16 32
16 16 32
16 16 32
16 16 32
16 16 32
16 16 32
16 16 32
16 16 32
16 16 32
16 16 32
16 16 32
16 16 32
16 16 32
16 16 32
16 16 32
16 16 32
16 16 32
16 16 32
16 16 32
16 16 32
16 16 32
16 16 32
16 16 32
16 16 32
16 16 32
16 16 32
16 16 32
16 16 32
16 16 32
16 16 32
16 16 32
16 16 32
16 16 32
16 16 32
16 16 32
16 16 32
16 16 32
16 16 32
16 16 32
16 16 32
16 16 32
16 16 32
16 16 32
16 16 32
16 16 32
16 16 32
16 16 32
16 16 32
16 16 32
16 16 32
16 16 32
16 16 32
16 16 32
16 16 32
16 16 32
16 16 32
16 16 32
16 16 32
16 16 32
16 16 32
16 16 32
16 16 32
16 16 32
16 16 32
16 16 32
16 16 32
16 16 32
16 16 32
16 16 32
16 16 32
16 16 32
16 16 32
16 16 32
16 16 32
16 16 32
16 16 32
16 16 32
16 16 32
16 16 32
16 16 32
16 16 32
16 16 32
16 16 32
16 16 32
16 16 32
16 16 32
16 16 32
16 16 32
16 16 32
16 16 32
16 16 32
16 16 32
16 16 32
16 16 32
16 16 32
16 16 32
16 16 32
16 16 32
16 16 32
16 16 32
16 16 32
16 16 32
16 16 32
16 16 32
16 16 32
16 16 32
16 16 32
16 16 32
16 16 32
16 16 32
16 16 32
16 16 32
16 16 32
16 16 32
16 16 32
16 16 32
16 16 32
16 16 32
16 16 32
16 16 32
16 16 32
16 16 32
16 16 32
16 16 32
16 16 32
16 16 32
16 16 32
16 16 32
16 16 32
16 16 32
16 16 32
16 16 32
16 16 32
16 16 32
16 16 32
16 16 32
16 16 32
16 16 32
16 16 32
16 16 32
16 16 32
16 16 32
16 16 32
16 16 32
16 16 32
16 16 32
16 16 32
255 255 255
255 255 255
16 16 32
16 16 32
16 16 32
16 16 32
255 255 255
255 255 255
16 16 32
16 16 32
16 16 32
16 16 32
16 16 32
16 16 32
16 16 32
16 16 32
16 16 32
16 16 32
255 255 255
255 255 255
255 255 255
255 255 255
16 16 32
16 16 32
16 16 32
16 16 32
16 16 32
16 16 32
16 16 32
16 16 32
16 16 32
16 16 32
16 16 32
16 16 32
16 16 32
16 16 32
16 16 32
16 16 32
16 16 32
16 16 32
16 16 32
16 16 32
16 16 32
16 16 32
16 16 32
16 16 32
16 16 32
16 16 32
255 255 255
255 255 255
255 255 255
255 255 255
16 16 32
16 16 32
16 16 32
16 16 32
255 255 255
255 255 255
16 16 32
16 16 32
16 16 32
16 16 32
16 16 32
16 16 32
255 255 255
255 255 255
16 16 32
16 16 32
16 16 32
16 16 32
16 16 32
16 16 32
16 16 32
16 16 32
16 16 32
16 16 32
16 16 32
16 16 32
16 16 32
16 16 32
255 255 255
255 255 255
16 16 32
16 16 32
16 16 32
16 16 32
16 16 32
16 16 32
255 255 255
255 255 255
16 16 32
16 16 32
16 16 32
16 16 32
16 16 32
16 16 32
16 16 32
16 16 32
16 16 32
16 16 32
255 255 255
255 255 255
16 16 32
16 16 32
16 16 32
16 16 32
16 16 32
16 16 32
16 16 32
16 16 32
16 16 32
16 16 32
16 16 32
16 16 32
16 16 32
16 16 32
16 16 32
16 16 32
16 16 32
16 16 32
16 16 32
16 16 32
16 16 32
16 16 32
16 16 32
16 16 32
16 16 32
16 16 32
16 16 32
16 16 32
16 16 32
16 16 32
16 16 32
16 16 32
255 255 255
255 255 255
16 16 32
16 16 32
16 16 32
16 16 32
16 16 32
16 16 32
16 16 32
16 16 32
16 16 32
16 16 32
16 16 32
16 16 32
16 16 32
16 16 32
16 16 32
16 16 32
16 16 32
16 16 32
16 16 32
16 16 32
16 16 32
16 16 32
16 16 32
16 16 32
255 255 255
255 255 255
16 16 32
16 16 32
16 16 32
16 16 32
16 16 32
16 16 32
255 255 255
255 255 255
16 16 32
16 16 32
16 16 32
16 16 32
16 16 32
16 16 32
255 255 255
255 255 255
16 16 32
16 16 32
16 16 32
16 16 32
16 16 32
16 16 32
255 255 255
255 255 255
16 16 32
16 16 32
16 16 32
16 16 32
16 16 32
16 16 32
255 255 255
255 255 255
16 16 32
16 16 32
16 16 32
16 16 32
16 16 32
16 16 32
16 16 32
16 16 32
16 16 32
16 16 32
16 16 32
16 16 32
16 16 32
16 16 32
255 255 255
255 255 255
16 16 32
16 16 32
16 16 32
16 16 32
16 16 32
16 16 32
255 255 255
255 255 255
16 16 32
16 16 32
16 16 32
16 16 32
16 16 32
16 16 32
16 16 32
16 16 32
16 16 32
16 16 32
16 16 32
16 16 32
16 16 32
16 16 32
16 16 32
16 16 32
16 16 32
16 16 32
16 16 32
16 16 32
16 16 32
16 16 32
255 255 255
255 255 255
16 16 32
16 16 32
16 16 32
16 16 32
16 16 32
16 16 32
255 255 255
255 255 255
16 16 32
16 16 32
16 16 32
16 16 32
16 16 32
16 16 32
255 255 255
255 255 255
16 16 32
16 16 32
16 16 32
16 16 32
16 16 32
16 16 32
255 255 255
255 255 255
16 16 32
16 16 32
16 16 32
16 16 32
16 16 32
16 16 32
255 255 255
255 255 255
16 16 32
16 16 32
16 16 32
16 16 32
16 16 32
16 16 32
16 16 32
16 16 32
16 16 32
16 16 32
16 16 32
16 16 32
16 16 32
16 16 32
255 255 255
255 255 255
16 16 32
16 16 32
16 16 32
16 16 32
16 16 32
16 16 32
255 255 255
255 255 255
16 16 32
16 16 32
16 16 32
16 16 32
16 16 32
16 16 32
16 16 32
16 16 32
16 16 32
16 16 32
16 16 32
16 16 32
16 16 32
16 16 32
16 16 32
16 16 32
16 16 32
16 16 32
16 16 32
16 16 32
16 16 32
16 16 32
16 16 32
16 16 32
16 16 32
16 16 32
16 16 32
16 16 32
16 16 32
16 16 32
16 16 32
16 16 32
16 16 32
16 16 32
16 16 32
16 16 32
16 16 32
16 16 32
16 16 32
16 16 32
16 16 32
16 16 32
16 16 32
16 16 32
16 16 32
16 16 32
16 16 32
16 16 32
16 16 32
16 16 32
16 16 32
16 16 32
16 16 32
16 16 32
255 255 255
255 255 255
16 16 32
16 16 32
16 16 32
16 16 32
255 255 255
255 255 255
16 16 32
16 16 32
16 16 32
16 16 32
16 16 32
16 16 32
16 16 32
16 16 32
255 255 255
255 255 255
16 16 32
16 16 32
16 16 32
16 16 32
16 16 32
16 16 32
255 255 255
255 255 255
16 16 32
16 16 32
16 16 32
16 16 32
16 16 32
16 16 32
16 16 32
16 16 32
16 16 32
16 16 32
16 16 32
16 16 32
16 16 32
16 16 32
16 16 32
16 16 32
16 16 32
16 16 32
16 16 32
16 16 32
16 16 32
16 16 32
16 16 32
16 16 32
16 16 32
16 16 32
255 255 255
255 255 255
16 16 32
16 16 32
16 16 32
16 16 32
16 16 32
16 16 32
16 16 32
16 16 32
16 16 32
16 16 32
255 255 255
255 255 255
16 16 32
16 16 32
16 16 32
16 16 32
16 16 32
16 16 32
16 16 32
16 16 32
16 16 32
16 16 32
16 16 32
16 16 32
16 16 32
16 16 32
16 16 32
16 16 32
16 16 32
16 16 32
16 16 32
16 16 32
16 16 32
16 16 32
16 16 32
16 16 32
16 16 32
16 16 32
16 16 32
16 16 32
16 16 32
16 16 32
16 16 32
16 16 32
16 16 32
16 16 32
16 16 32
16 16 32
255 255 255
255 255 255
16 16 32
16 16 32
16 16 32
16 16 32
16 16 32
16 16 32
16 16 32
16 16 32
16 16 32
16 16 32
16 16 32
16 16 32
16 16 32
16 16 32
16 16 32
16 16 32
16 16 32
16 16 32
16 16 32
16 16 32
16 16 32
16 16 32
16 16 32
16 16 32
255 255 255
255 255 255
16 16 32
16 16 32
16 16 32
16 16 32
16 16 32
16 16 32
255 255 255
255 255 255
16 16 32
16 16 32
16 16 32
16 16 32
16 16 32
16 16 32
255 255 255
255 255 255
16 16 32
16 16 32
16 16 32
16 16 32
16 16 32
16 16 32
255 255 255
255 255 255
16 16 32
16 16 32
16 16 32
16 16 32
16 16 32
16 16 32
255 255 255
255 255 255
16 16 32
16 16 32
16 16 32
16 16 32
16 16 32
16 16 32
16 16 32
16 16 32
16 16 32
16 16 32
16 16 32
16 16 32
16 16 32
16 16 32
255 255 255
255 255 255
16 16 32
16 16 32
16 16 32
16 16 32
16 16 32
16 16 32
255 255 255
255 255 255
16 16 32
16 16 32
16 16 32
16 16 32
16 16 32
16 16 32
16 16 32
16 16 32
16 16 32
16 16 32
16 16 32
16 16 32
16 16 32
16 16 32
16 16 32
16 16 32
16 16 32
16 16 32
16 16 32
16 16 32
16 16 32
16 16 32
16 16 32
16 16 32
16 16 32
16 16 32
16 16 32
16 16 32
16 16 32
16 16 32
16 16 32
16 16 32
16 16 32
16 16 32
16 16 32
16 16 32
16 16 32
16 16 32
255 255 255
255 255 255
16 16 32
16 16 32
16 16 32
16 16 32
16 16 32
16 16 32
16 16 32
16 16 32
16 16 32
16 16 32
16 16 32
16 16 32
16 16 32
16 16 32
16 16 32
16 16 32
16 16 32
16 16 32
16 16 32
16 16 32
16 16 32
16 16 32
16 16 32
16 16 32
16 16 32
16 16 32
16 16 32
16 16 32
16 16 32
16 16 32
16 16 32
16 16 32
16 16 32
16 16 32
16 16 32
16 16 32
16 16 32
16 16 32
16 16 32
16 16 32
16 16 32
16 16 32
16 16 32
16 16 32
16 16 32
16 16 32
16 16 32
16 16 32
16 16 32
16 16 32
16 16 32
16 16 32
16 16 32
16 16 32
16 16 32
16 16 32
16 16 32
16 16 32
16 16 32
16 16 32
16 16 32
16 16 32
16 16 32
16 16 32
16 16 32
16 16 32
16 16 32
16 16 32
16 16 32
16 16 32
16 16 32
16 16 32
16 16 32
16 16 32
16 16 32
16 16 32
16 16 32
16 16 32
16 16 32
16 16 32
16 16 32
16 16 32
16 16 32
16 16 32
16 16 32
16 16 32
16 16 32
16 16 32
16 16 32
16 16 32
16 16 32
16 16 32
16 16 32
16 16 32
16 16 32
16 16 32
16 16 32
16 16 32
16 16 32
16 16 32
16 16 32
16 16 32
16 16 32
16 16 32
16 16 32
16 16 32
16 16 32
16 16 32
16 16 32
16 16 32
16 16 32
16 16 32
16 16 32
16 16 32
16 16 32
16 16 32
16 16 32
16 16 32
16 16 32
16 16 32
16 16 32
16 16 32
16 16 32
16 16 32
16 16 32
16 16 32
16 16 32
16 16 32
16 16 32
16 16 32
16 16 32
16 16 32
16 16 32
16 16 32
16 16 32
16 16 32
16 16 32
16 16 32
16 16 32
16 16 32
16 16 32
16 16 32
16 16 32
16 16 32
16 16 32
16 16 32
16 16 32
16 16 32
16 16 32
16 16 32
16 16 32
16 16 32
16 16 32
16 16 32
16 16 32
16 16 32
16 16 32
16 16 32
16 16 32
16 16 32
16 16 32
16 16 32
16 16 32
16 16 32
16 16 32
16 16 32
16 16 32
16 16 32
16 16 32
16 16 32
16 16 32
16 16 32
16 16 32
16 16 32
16 16 32
16 16 32
16 16 32
16 16 32
16 16 32
16 16 32
16 16 32
16 16 32
16 16 32
16 16 32
16 16 32
16 16 32
16 16 32
16 16 32
16 16 32
16 16 32
16 16 32
16 16 32
16 16 32
16 16 32
16 16 32
16 16 32
16 16 32
16 16 32
16 16 32
16 16 32
16 16 32
16 16 32
16 16 32
16 16 32
16 16 32
16 16 32
16 16 32
16 16 32
16 16 32
16 16 32
16 16 32
16 16 32
16 16 32
16 16 32
16 16 32
16 16 32
16 16 32
16 16 32
16 16 32
16 16 32
16 16 32
16 16 32
16 16 32
16 16 32
16 16 32
16 16 32
16 16 32
16 16 32
16 16 32
16 16 32
16 16 32
16 16 32
16 16 32
16 16 32
16 16 32
16 16 32
16 16 32
16 16 32
16 16 32
16 16 32
16 16 32
16 16 32
16 16 32
16 16 32
16 16 32
16 16 32
16 16 32
16 16 32
16 16 32
16 16 32
16 16 32
16 16 32
16 16 32
16 16 32
16 16 32
16 16 32
16 16 32
16 16 32
16 16 32
16 16 32
16 16 32
16 16 32
16 16 32
16 16 32
16 16 32
16 16 32
16 16 32
16 16 32
16 16 32
16 16 32
16 16 32
16 16 32
16 16 32
16 16 32
16 16 32
16 16 32
16 16 32
16 16 32
16 16 32
16 16 32
16 16 32
16 16 32
16 16 32
16 16 32
16 16 32
16 16 32
16 16 32
16 16 32
16 16 32
16 16 32
16 16 32
16 16 32
16 16 32
16 16 32
16 16 32
16 16 32
16 16 32
16 16 32
16 16 32
16 16 32
16 16 32
16 16 32
16 16 32
16 16 32
16 16 32
16 16 32
16 16 32
16 16 32
16 16 32
16 16 32
16 16 32
16 16 32
16 16 32
16 16 32
16 16 32
16 16 32
16 16 32
16 16 32
16 16 32
16 16 32
16 16 32
16 16 32
16 16 32
16 16 32
16 16 32
16 16 32
16 16 32
16 16 32
16 16 32
16 16 32
16 16 32
16 16 32
16 16 32
16 16 32
16 16 32
16 16 32
16 16 32
16 16 32
16 16 32
16 16 32
16 16 32
16 16 32
16 16 32
16 16 32
16 16 32
16 16 32
16 16 32
16 16 32
16 16 32
16 16 32
16 16 32
16 16 32
16 16 32
16 16 32
16 16 32
16 16 32
16 16 32
16 16 32
16 16 32
16 16 32
16 16 32
16 16 32
16 16 32
16 16 32
16 16 32
16 16 32
16 16 32
16 16 32
16 16 32
16 16 32
16 16 32
16 16 32
16 16 32
16 16 32
16 16 32
16 16 32
16 16 32
16 16 32
16 16 32
16 16 32
16 16 32
16 16 32
16 16 32
16 16 32
16 16 32
16 16 32
16 16 32
16 16 32
16 16 32
16 16 32
16 16 32
16 16 32
16 16 32
16 16 32
16 16 32
16 16 32
16 16 32
16 16 32
16 16 32
16 16 32
16 16 32
16 16 32
16 16 32
16 16 32
16 16 32
16 16 32
16 16 32
16 16 32
16 16 32
16 16 32
16 16 32
16 16 32
16 16 32
16 16 32
16 16 32
16 16 32
16 16 32
16 16 32
16 16 32
16 16 32
16 16 32
16 16 32
16 16 32
16 16 32
16 16 32
16 16 32
16 16 32
16 16 32
16 16 32
16 16 32
16 16 32
16 16 32
16 16 32
16 16 32
16 16 32
16 16 32
16 16 32
16 16 32
16 16 32
16 16 32
16 16 32
16 16 32
16 16 32
16 16 32
16 16 32
16 16 32
16 16 32
16 16 32
16 16 32
16 16 32
16 16 32
16 16 32
16 16 32
16 16 32
16 16 32
16 16 32
16 16 32
16 16 32
16 16 32
16 16 32
16 16 32
16 16 32
255 255 255
255 255 255
16 16 32
16 16 32
255 255 255
255 255 255
16 16 32
16 16 32
16 16 32
16 16 32
16 16 32
16 16 32
16 16 32
16 16 32
16 16 32
16 16 32
16 16 32
16 16 32
16 16 32
16 16 32
255 255 255
255 255 255
16 16 32
16 16 32
16 16 32
16 16 32
16 16 32
16 16 32
16 16 32
16 16 32
16 16 32
16 16 32
16 16 32
16 16 32
16 16 32
16 16 32
16 16 32
16 16 32
16 16 32
16 16 32
16 16 32
16 16 32
16 16 32
16 16 32
16 16 32
16 16 32
16 16 32
16 16 32
255 255 255
255 255 255
255 255 255
255 255 255
16 16 32
16 16 32
16 16 32
16 16 32
255 255 255
255 255 255
16 16 32
16 16 32
16 16 32
16 16 32
16 16 32
16 16 32
255 255 255
255 255 255
16 16 32
16 16 32
16 16 32
16 16 32
16 16 32
16 16 32
16 16 32
16 16 32
16 16 32
16 16 32
16 16 32
16 16 32
16 16 32
16 16 32
16 16 32
16 16 32
255 255 255
255 255 255
16 16 32
16 16 32
255 255 255
255 255 255
16 16 32
16 16 32
16 16 32
16 16 32
16 16 32
16 16 32
16 16 32
16 16 32
16 16 32
16 16 32
16 16 32
16 16 32
255 255 255
255 255 255
16 16 32
16 16 32
16 16 32
16 16 32
16 16 32
16 16 32
16 16 32
16 16 32
16 16 32
16 16 32
16 16 32
16 16 32
16 16 32
16 16 32
16 16 32
16 16 32
16 16 32
16 16 32
16 16 32
16 16 32
16 16 32
16 16 32
16 16 32
16 16 32
16 16 32
16 16 32
16 16 32
16 16 32
16 16 32
16 16 32
16 16 32
16 16 32
255 255 255
255 255 255
16 16 32
16 16 32
16 16 32
16 16 32
16 16 32
16 16 32
16 16 32
16 16 32
16 16 32
16 16 32
16 16 32
16 16 32
16 16 32
16 16 32
16 16 32
16 16 32
16 16 32
16 16 32
16 16 32
16 16 32
16 16 32
16 16 32
16 16 32
16 16 32
255 255 255
255 255 255
16 16 32
16 16 32
16 16 32
16 16 32
16 16 32
16 16 32
255 255 255
255 255 255
16 16 32
16 16 32
16 16 32
16 16 32
16 16 32
16 16 32
255 255 255
255 255 255
16 16 32
16 16 32
16 16 32
16 16 32
16 16 32
16 16 32
255 255 255
255 255 255
16 16 32
16 16 32
16 16 32
16 16 32
16 16 32
16 16 32
255 255 255
255 255 255
16 16 32
16 16 32
16 16 32
16 16 32
16 16 32
16 16 32
16 16 32
16 16 32
16 16 32
16 16 32
16 16 32
16 16 32
16 16 32
16 16 32
255 255 255
255 255 255
16 16 32
16 16 32
16 16 32
16 16 32
16 16 32
16 16 32
255 255 255
255 255 255
16 16 32
16 16 32
16 16 32
16 16 32
16 16 32
16 16 32
16 16 32
16 16 32
16 16 32
16 16 32
16 16 32
16 16 32
16 16 32
16 16 32
16 16 32
16 16 32
16 16 32
16 16 32
16 16 32
16 16 32
16 16 32
16 16 32
255 255 255
255 255 255
16 16 32
16 16 32
16 16 32
16 16 32
16 16 32
16 16 32
255 255 255
255 255 255
16 16 32
16 16 32
16 16 32
16 16 32
16 16 32
16 16 32
255 255 255
255 255 255
16 16 32
16 16 32
16 16 32
16 16 32
16 16 32
16 16 32
255 255 255
255 255 255
16 16 32
16 16 32
16 16 32
16 16 32
16 16 32
16 16 32
255 255 255
255 255 255
16 16 32
16 16 32
16 16 32
16 16 32
16 16 32
16 16 32
16 16 32
16 16 32
16 16 32
16 16 32
16 16 32
16 16 32
16 16 32
16 16 32
255 255 255
255 255 255
16 16 32
16 16 32
16 16 32
16 16 32
16 16 32
16 16 32
255 255 255
255 255 255
16 16 32
16 16 32
16 16 32
16 16 32
16 16 32
16 16 32
16 16 32
16 16 32
16 16 32
16 16 32
16 16 32
16 16 32
16 16 32
16 16 32
16 16 32
16 16 32
16 16 32
16 16 32
16 16 32
16 16 32
16 16 32
16 16 32
16 16 32
16 16 32
16 16 32
16 16 32
16 16 32
16 16 32
16 16 32
16 16 32
16 16 32
16 16 32
16 16 32
16 16 32
16 16 32
16 16 32
16 16 32
16 16 32
16 16 32
16 16 32
16 16 32
16 16 32
16 16 32
16 16 32
16 16 32
16 16 32
16 16 32
16 16 32
16 16 32
16 16 32
16 16 32
16 16 32
16 16 32
16 16 32
255 255 255
255 255 255
16 16 32
16 16 32
255 255 255
255 255 255
16 16 32
16 16 32
16 16 32
16 16 32
16 16 32
16 16 32
16 16 32
16 16 32
16 16 32
16 16 32
16 16 32
16 16 32
16 16 32
16 16 32
16 16 32
16 16 32
16 16 32
16 16 32
255 255 255
255 255 255
16 16 32
16 16 32
16 16 32
16 16 32
16 16 32
16 16 32
16 16 32
16 16 32
16 16 32
16 16 32
16 16 32
16 16 32
16 16 32
16 16 32
16 16 32
16 16 32
16 16 32
16 16 32
16 16 32
16 16 32
16 16 32
16 16 32
16 16 32
16 16 32
16 16 32
16 16 32
255 255 255
255 255 255
16 16 32
16 16 32
16 16 32
16 16 32
16 16 32
16 16 32
16 16 32
16 16 32
16 16 32
16 16 32
255 255 255
255 255 255
16 16 32
16 16 32
16 16 32
16 16 32
16 16 32
16 16 32
16 16 32
16 16 32
16 16 32
16 16 32
16 16 32
16 16 32
16 16 32
16 16 32
16 16 32
16 16 32
16 16 32
16 16 32
16 16 32
16 16 32
16 16 32
16 16 32
16 16 32
16 16 32
16 16 32
16 16 32
16 16 32
16 16 32
16 16 32
16 16 32
16 16 32
16 16 32
16 16 32
16 16 32
16 16 32
16 16 32
255 255 255
255 255 255
16 16 32
16 16 32
16 16 32
16 16 32
16 16 32
16 16 32
16 16 32
16 16 32
16 16 32
16 16 32
16 16 32
16 16 32
16 16 32
16 16 32
16 16 32
16 16 32
16 16 32
16 16 32
16 16 32
16 16 32
16 16 32
16 16 32
16 16 32
16 16 32
255 255 255
255 255 255
16 16 32
16 16 32
16 16 32
16 16 32
16 16 32
16 16 32
255 255 255
255 255 255
16 16 32
16 16 32
16 16 32
16 16 32
16 16 32
16 16 32
255 255 255
255 255 255
16 16 32
16 16 32
16 16 32
16 16 32
16 16 32
16 16 32
255 255 255
255 255 255
16 16 32
16 16 32
16 16 32
16 16 32
16 16 32
16 16 32
255 255 255
255 255 255
16 16 32
16 16 32
16 16 32
16 16 32
16 16 32
16 16 32
16 16 32
16 16 32
16 16 32
16 16 32
16 16 32
16 16 32
16 16 32
16 16 32
255 255 255
255 255 255
16 16 32
16 16 32
16 16 32
16 16 32
16 16 32
16 16 32
255 255 255
255 255 255
16 16 32
16 16 32
16 16 32
16 16 32
16 16 32
16 16 32
16 16 32
16 16 32
16 16 32
16 16 32
16 16 32
16 16 32
16 16 32
16 16 32
16 16 32
16 16 32
16 16 32
16 16 32
16 16 32
16 16 32
16 16 32
16 16 32
16 16 32
16 16 32
16 16 32
16 16 32
16 16 32
16 16 32
16 16 32
16 16 32
16 16 32
16 16 32
16 16 32
16 16 32
16 16 32
16 16 32
16 16 32
16 16 32
255 255 255
255 255 255
16 16 32
16 16 32
16 16 32
16 16 32
16 16 32
16 16 32
16 16 32
16 16 32
16 16 32
16 16 32
16 16 32
16 16 32
16 16 32
16 16 32
16 16 32
16 16 32
16 16 32
16 16 32
16 16 32
16 16 32
16 16 32
16 16 32
16 16 32
16 16 32
16 16 32
16 16 32
16 16 32
16 16 32
16 16 32
16 16 32
16 16 32
16 16 32
16 16 32
16 16 32
16 16 32
16 16 32
16 16 32
16 16 32
16 16 32
16 16 32
16 16 32
16 16 32
16 16 32
16 16 32
16 16 32
16 16 32
16 16 32
16 16 32
16 16 32
16 16 32
16 16 32
16 16 32
16 16 32
16 16 32
16 16 32
16 16 32
16 16 32
16 16 32
16 16 32
16 16 32
16 16 32
16 16 32
16 16 32
16 16 32
16 16 32
16 16 32
16 16 32
16 16 32
16 16 32
16 16 32
16 16 32
16 16 32
16 16 32
16 16 32
16 16 32
16 16 32
16 16 32
16 16 32
16 16 32
16 16 32
16 16 32
16 16 32
16 16 32
16 16 32
16 16 32
16 16 32
16 16 32
16 16 32
16 16 32
16 16 32
16 16 32
16 16 32
16 16 32
16 16 32
16 16 32
16 16 32
16 16 32
16 16 32
16 16 32
16 16 32
16 16 32
16 16 32
16 16 32
16 16 32
16 16 32
16 16 32
16 16 32
16 16 32
16 16 32
16 16 32
16 16 32
16 16 32
16 16 32
16 16 32
16 16 32
16 16 32
16 16 32
16 16 32
16 16 32
16 16 32
16 16 32
16 16 32
16 16 32
16 16 32
16 16 32
16 16 32
16 16 32
16 16 32
16 16 32
16 16 32
16 16 32
16 16 32
16 16 32
16 16 32
16 16 32
16 16 32
16 16 32
16 16 32
16 16 32
16 16 32
16 16 32
16 16 32
16 16 32
16 16 32
16 16 32
16 16 32
16 16 32
16 16 32
16 16 32
16 16 32
16 16 32
16 16 32
16 16 32
16 16 32
16 16 32
16 16 32
16 16 32
16 16 32
16 16 32
16 16 32
16 16 32
16 16 32
16 16 32
16 16 32
16 16 32
16 16 32
16 16 32
16 16 32
16 16 32
16 16 32
16 16 32
16 16 32
16 16 32
16 16 32
16 16 32
16 16 32
16 16 32
16 16 32
16 16 32
16 16 32
16 16 32
16 16 32
16 16 32
16 16 32
16 16 32
16 16 32
16 16 32
16 16 32
16 16 32
16 16 32
16 16 32
16 16 32
16 16 32
16 16 32
16 16 32
16 16 32
16 16 32
16 16 32
16 16 32
16 16 32
16 16 32
16 16 32
16 16 32
16 16 32
16 16 32
16 16 32
16 16 32
16 16 32
16 16 32
16 16 32
16 16 32
16 16 32
16 16 32
16 16 32
16 16 32
16 16 32
16 16 32
16 16 32
16 16 32
16 16 32
16 16 32
16 16 32
16 16 32
16 16 32
16 16 32
16 16 32
16 16 32
16 16 32
16 16 32
16 16 32
16 16 32
16 16 32
16 16 32
16 16 32
16 16 32
16 16 32
16 16 32
16 16 32
16 16 32
16 16 32
16 16 32
16 16 32
16 16 32
16 16 32
16 16 32
16 16 32
16 16 32
16 16 32
16 16 32
16 16 32
16 16 32
16 16 32
16 16 32
16 16 32
16 16 32
16 16 32
16 16 32
16 16 32
16 16 32
16 16 32
16 16 32
16 16 32
16 16 32
16 16 32
16 16 32
16 16 32
16 16 32
16 16 32
16 16 32
16 16 32
16 16 32
16 16 32
16 16 32
16 16 32
16 16 32
16 16 32
16 16 32
16 16 32
16 16 32
16 16 32
16 16 32
16 16 32
16 16 32
16 16 32
16 16 32
16 16 32
16 16 32
16 16 32
16 16 32
16 16 32
16 16 32
16 16 32
16 16 32
16 16 32
16 16 32
16 16 32
16 16 32
16 16 32
16 16 32
16 16 32
16 16 32
16 16 32
16 16 32
16 16 32
16 16 32
16 16 32
16 16 32
16 16 32
16 16 32
16 16 32
16 16 32
16 16 32
16 16 32
16 16 32
16 16 32
16 16 32
16 16 32
16 16 32
16 16 32
16 16 32
16 16 32
16 16 32
16 16 32
16 16 32
16 16 32
16 16 32
16 16 32
16 16 32
16 16 32
16 16 32
16 16 32
16 16 32
16 16 32
16 16 32
16 16 32
16 16 32
16 16 32
16 16 32
16 16 32
16 16 32
16 16 32
16 16 32
16 16 32
16 16 32
16 16 32
16 16 32
16 16 32
16 16 32
16 16 32
16 16 32
16 16 32
16 16 32
16 16 32
16 16 32
16 16 32
16 16 32
16 16 32
16 16 32
16 16 32
16 16 32
16 16 32
16 16 32
16 16 32
16 16 32
16 16 32
16 16 32
16 16 32
16 16 32
16 16 32
16 16 32
16 16 32
16 16 32
16 16 32
16 16 32
16 16 32
16 16 32
16 16 32
16 16 32
16 16 32
16 16 32
16 16 32
16 16 32
16 16 32
16 16 32
16 16 32
16 16 32
16 16 32
16 16 32
16 16 32
16 16 32
16 16 32
16 16 32
16 16 32
16 16 32
16 16 32
16 16 32
16 16 32
16 16 32
16 16 32
16 16 32
16 16 32
16 16 32
16 16 32
16 16 32
16 16 32
16 16 32
16 16 32
16 16 32
16 16 32
16 16 32
16 16 32
16 16 32
16 16 32
16 16 32
16 16 32
16 16 32
16 16 32
16 16 32
16 16 32
16 16 32
16 16 32
16 16 32
16 16 32
16 16 32
16 16 32
16 16 32
16 16 32
16 16 32
16 16 32
16 16 32
16 16 32
16 16 32
16 16 32
16 16 32
16 16 32
16 16 32
16 16 32
16 16 32
16 16 32
16 16 32
16 16 32
16 16 32
16 16 32
16 16 32
16 16 32
16 16 32
16 16 32
16 16 32
16 16 32
16 16 32
16 16 32
16 16 32
16 16 32
16 16 32
16 16 32
16 16 32
16 16 32
16 16 32
16 16 32
16 16 32
16 16 32
16 16 32
255 255 255
255 255 255
16 16 32
16 16 32
255 255 255
255 255 255
16 16 32
16 16 32
16 16 32
16 16 32
16 16 32
16 16 32
16 16 32
16 16 32
16 16 32
16 16 32
16 16 32
16 16 32
16 16 32
16 16 32
255 255 255
255 255 255
16 16 32
16 16 32
16 16 32
16 16 32
16 16 32
16 16 32
16 16 32
16 16 32
16 16 32
16 16 32
16 16 32
16 16 32
16 16 32
16 16 32
16 16 32
16 16 32
16 16 32
16 16 32
16 16 32
16 16 32
16 16 32
16 16 32
16 16 32
16 16 32
16 16 32
16 16 32
255 255 255
255 255 255
255 255 255
255 255 255
16 16 32
16 16 32
16 16 32
16 16 32
255 255 255
255 255 255
16 16 32
16 16 32
16 16 32
16 16 32
16 16 32
16 16 32
255 255 255
255 255 255
16 16 32
16 16 32
16 16 32
16 16 32
16 16 32
16 16 32
16 16 32
16 16 32
16 16 32
16 16 32
16 16 32
16 16 32
16 16 32
16 16 32
16 16 32
16 16 32
255 255 255
255 255 255
16 16 32
16 16 32
255 255 255
255 255 255
16 16 32
16 16 32
16 16 32
16 16 32
16 16 32
16 16 32
16 16 32
16 16 32
16 16 32
16 16 32
16 16 32
16 16 32
255 255 255
255 255 255
16 16 32
16 16 32
16 16 32
16 16 32
16 16 32
16 16 32
16 16 32
16 16 32
16 16 32
16 16 32
16 16 32
16 16 32
16 16 32
16 16 32
16 16 32
16 16 32
16 16 32
16 16 32
16 16 32
16 16 32
16 16 32
16 16 32
16 16 32
16 16 32
16 16 32
16 16 32
16 16 32
16 16 32
16 16 32
16 16 32
16 16 32
16 16 32
255 255 255
255 255 255
16 16 32
16 16 32
16 16 32
16 16 32
16 16 32
16 16 32
16 16 32
16 16 32
16 16 32
16 16 32
16 16 32
16 16 32
16 16 32
16 16 32
16 16 32
16 16 32
16 16 32
16 16 32
16 16 32
16 16 32
16 16 32
16 16 32
16 16 32
16 16 32
255 255 255
255 255 255
16 16 32
16 16 32
16 16 32
16 16 32
16 16 32
16 16 32
255 255 255
255 255 255
16 16 32
16 16 32
16 16 32
16 16 32
16 16 32
16 16 32
255 255 255
255 255 255
16 16 32
16 16 32
16 16 32
16 16 32
16 16 32
16 16 32
255 255 255
255 255 255
16 16 32
16 16 32
16 16 32
16 16 32
16 16 32
16 16 32
255 255 255
255 255 255
16 16 32
16 16 32
16 16 32
16 16 32
16 16 32
16 16 32
16 16 32
16 16 32
16 16 32
16 16 32
16 16 32
16 16 32
16 16 32
16 16 32
255 255 255
255 255 255
16 16 32
16 16 32
16 16 32
16 16 32
16 16 32
16 16 32
255 255 255
255 255 255
16 16 32
16 16 32
16 16 32
16 16 32
16 16 32
16 16 32
16 16 32
16 16 32
16 16 32
16 16 32
16 16 32
16 16 32
16 16 32
16 16 32
16 16 32
16 16 32
16 16 32
16 16 32
16 16 32
16 16 32
16 16 32
16 16 32
255 255 255
255 255 255
16 16 32
16 16 32
16 16 32
16 16 32
16 16 32
16 16 32
255 255 255
255 255 255
16 16 32
16 16 32
16 16 32
16 16 32
16 16 32
16 16 32
255 255 255
255 255 255
16 16 32
16 16 32
16 16 32
16 16 32
16 16 32
16 16 32
255 255 255
255 255 255
16 16 32
16 16 32
16 16 32
16 16 32
16 16 32
16 16 32
255 255 255
255 255 255
16 16 32
16 16 32
16 16 32
16 16 32
16 16 32
16 16 32
16 16 32
16 16 32
16 16 32
16 16 32
16 16 32
16 16 32
16 16 32
16 16 32
255 255 255
255 255 255
16 16 32
16 16 32
16 16 32
16 16 32
16 16 32
16 16 32
255 255 255
255 255 255
16 16 32
16 16 32
16 16 32
16 16 32
16 16 32
16 16 32
16 16 32
16 16 32
16 16 32
16 16 32
16 16 32
16 16 32
16 16 32
16 16 32
16 16 32
16 16 32
16 16 32
16 16 32
16 16 32
16 16 32
16 16 32
16 16 32
16 16 32
16 16 32
16 16 32
16 16 32
16 16 32
16 16 32
16 16 32
16 16 32
16 16 32
16 16 32
16 16 32
16 16 32
16 16 32
16 16 32
16 16 32
16 16 32
16 16 32
16 16 32
16 16 32
16 16 32
16 16 32
16 16 32
16 16 32
16 16 32
16 16 32
16 16 32
16 16 32
16 16 32
16 16 32
16 16 32
16 16 32
16 16 32
255 255 255
255 255 255
16 16 32
16 16 32
255 255 255
255 255 255
16 16 32
16 16 32
16 16 32
16 16 32
16 16 32
16 16 32
16 16 32
16 16 32
16 16 32
16 16 32
16 16 32
16 16 32
16 16 32
16 16 32
16 16 32
16 16 32
16 16 32
16 16 32
255 255 255
255 255 255
16 16 32
16 16 32
16 16 32
16 16 32
16 16 32
16 16 32
16 16 32
16 16 32
16 16 32
16 16 32
16 16 32
16 16 32
16 16 32
16 16 32
16 16 32
16 16 32
16 16 32
16 16 32
16 16 32
16 16 32
16 16 32
16 16 32
16 16 32
16 16 32
16 16 32
16 16 32
255 255 255
255 255 255
16 16 32
16 16 32
16 16 32
16 16 32
16 16 32
16 16 32
16 16 32
16 16 32
16 16 32
16 16 32
255 255 255
255 255 255
16 16 32
16 16 32
16 16 32
16 16 32
16 16 32
16 16 32
16 16 32
16 16 32
16 16 32
16 16 32
16 16 32
16 16 32
16 16 32
16 16 32
16 16 32
16 16 32
16 16 32
16 16 32
16 16 32
16 16 32
16 16 32
16 16 32
16 16 32
16 16 32
16 16 32
16 16 32
16 16 32
16 16 32
16 16 32
16 16 32
16 16 32
16 16 32
16 16 32
16 16 32
16 16 32
16 16 32
255 255 255
255 255 255
16 16 32
16 16 32
16 16 32
16 16 32
16 16 32
16 16 32
16 16 32
16 16 32
16 16 32
16 16 32
16 16 32
16 16 32
16 16 32
16 16 32
16 16 32
16 16 32
16 16 32
16 16 32
16 16 32
16 16 32
16 16 32
16 16 32
16 16 32
16 16 32
255 255 255
255 255 255
16 16 32
16 16 32
16 16 32
16 16 32
16 16 32
16 16 32
255 255 255
255 255 255
16 16 32
16 16 32
16 16 32
16 16 32
16 16 32
16 16 32
255 255 255
255 255 255
16 16 32
16 16 32
16 16 32
16 16 32
16 16 32
16 16 32
255 255 255
255 255 255
16 16 32
16 16 32
16 16 32
16 16 32
16 16 32
16 16 32
255 255 255
255 255 255
16 16 32
16 16 32
16 16 32
16 16 32
16 16 32
16 16 32
16 16 32
16 16 32
16 16 32
16 16 32
16 16 32
16 16 32
16 16 32
16 16 32
255 255 255
255 255 255
16 16 32
16 16 32
16 16 32
16 16 32
16 16 32
16 16 32
255 255 255
255 255 255
16 16 32
16 16 32
16 16 32
16 16 32
16 16 32
16 16 32
16 16 32
16 16 32
16 16 32
16 16 32
16 16 32
16 16 32
16 16 32
16 16 32
16 16 32
16 16 32
16 16 32
16 16 32
16 16 32
16 16 32
16 16 32
16 16 32
16 16 32
16 16 32
16 16 32
16 16 32
16 16 32
16 16 32
16 16 32
16 16 32
16 16 32
16 16 32
16 16 32
16 16 32
16 16 32
16 16 32
16 16 32
16 16 32
255 255 255
255 255 255
16 16 32
16 16 32
16 16 32
16 16 32
16 16 32
16 16 32
16 16 32
16 16 32
16 16 32
16 16 32
16 16 32
16 16 32
16 16 32
16 16 32
16 16 32
16 16 32
16 16 32
16 16 32
16 16 32
16 16 32
16 16 32
16 16 32
16 16 32
16 16 32
16 16 32
16 16 32
16 16 32
16 16 32
16 16 32
16 16 32
16 16 32
16 16 32
16 16 32
16 16 32
16 16 32
16 16 32
16 16 32
16 16 32
16 16 32
16 16 32
16 16 32
16 16 32
16 16 32
16 16 32
16 16 32
16 16 32
16 16 32
16 16 32
16 16 32
16 16 32
16 16 32
16 16 32
16 16 32
16 16 32
16 16 32
16 16 32
16 16 32
16 16 32
16 16 32
16 16 32
16 16 32
16 16 32
16 16 32
16 16 32
16 16 32
16 16 32
16 16 32
16 16 32
16 16 32
16 16 32
16 16 32
16 16 32
16 16 32
16 16 32
16 16 32
16 16 32
16 16 32
16 16 32
16 16 32
16 16 32
16 16 32
16 16 32
16 16 32
16 16 32
16 16 32
16 16 32
16 16 32
16 16 32
16 16 32
16 16 32
16 16 32
16 16 32
16 16 32
16 16 32
16 16 32
16 16 32
16 16 32
16 16 32
16 16 32
16 16 32
16 16 32
16 16 32
16 16 32
16 16 32
16 16 32
16 16 32
16 16 32
16 16 32
16 16 32
16 16 32
16 16 32
16 16 32
16 16 32
16 16 32
16 16 32
16 16 32
16 16 32
16 16 32
16 16 32
16 16 32
16 16 32
16 16 32
16 16 32
16 16 32
16 16 32
16 16 32
16 16 32
16 16 32
16 16 32
16 16 32
16 16 32
16 16 32
16 16 32
16 16 32
16 16 32
16 16 32
16 16 32
16 16 32
16 16 32
16 16 32
16 16 32
16 16 32
16 16 32
16 16 32
16 16 32
16 16 32
16 16 32
16 16 32
16 16 32
16 16 32
16 16 32
16 16 32
16 16 32
16 16 32
16 16 32
16 16 32
16 16 32
16 16 32
16 16 32
16 16 32
16 16 32
16 16 32
16 16 32
16 16 32
16 16 32
16 16 32
16 16 32
16 16 32
16 16 32
16 16 32
16 16 32
16 16 32
16 16 32
16 16 32
16 16 32
16 16 32
16 16 32
16 16 32
16 16 32
16 16 32
16 16 32
16 16 32
16 16 32
16 16 32
16 16 32
16 16 32
16 16 32
16 16 32
16 16 32
16 16 32
16 16 32
16 16 32
16 16 32
16 16 32
16 16 32
16 16 32
16 16 32
16 16 32
16 16 32
16 16 32
16 16 32
16 16 32
16 16 32
16 16 32
16 16 32
16 16 32
16 16 32
16 16 32
16 16 32
16 16 32
16 16 32
16 16 32
16 16 32
16 16 32
16 16 32
16 16 32
16 16 32
16 16 32
16 16 32
16 16 32
16 16 32
16 16 32
16 16 32
16 16 32
16 16 32
16 16 32
16 16 32
16 16 32
16 16 32
16 16 32
16 16 32
16 16 32
16 16 32
16 16 32
16 16 32
16 16 32
16 16 32
16 16 32
16 16 32
16 16 32
16 16 32
16 16 32
16 16 32
16 16 32
16 16 32
16 16 32
16 16 32
16 16 32
16 16 32
16 16 32
16 16 32
16 16 32
16 16 32
16 16 32
16 16 32
16 16 32
16 16 32
16 16 32
16 16 32
16 16 32
16 16 32
16 16 32
16 16 32
16 16 32
16 16 32
16 16 32
16 16 32
16 16 32
16 16 32
16 16 32
16 16 32
16 16 32
16 16 32
16 16 32
16 16 32
16 16 32
16 16 32
16 16 32
16 16 32
16 16 32
16 16 32
16 16 32
16 16 32
16 16 32
16 16 32
16 16 32
16 16 32
16 16 32
16 16 32
16 16 32
16 16 32
16 16 32
16 16 32
16 16 32
16 16 32
16 16 32
16 16 32
16 16 32
16 16 32
16 16 32
16 16 32
16 16 32
16 16 32
16 16 32
16 16 32
16 16 32
16 16 32
16 16 32
16 16 32
16 16 32
16 16 32
16 16 32
16 16 32
16 16 32
16 16 32
16 16 32
16 16 32
16 16 32
16 16 32
16 16 32
16 16 32
16 16 32
16 16 32
16 16 32
16 16 32
16 16 32
16 16 32
16 16 32
16 16 32
16 16 32
16 16 32
16 16 32
16 16 32
16 16 32
16 16 32
16 16 32
16 16 32
16 16 32
16 16 32
16 16 32
16 16 32
16 16 32
16 16 32
16 16 32
16 16 32
16 16 32
16 16 32
16 16 32
16 16 32
16 16 32
16 16 32
16 16 32
16 16 32
16 16 32
16 16 32
16 16 32
16 16 32
16 16 32
16 16 32
16 16 32
16 16 32
16 16 32
16 16 32
16 16 32
16 16 32
16 16 32
16 16 32
16 16 32
16 16 32
16 16 32
16 16 32
16 16 32
16 16 32
16 16 32
16 16 32
16 16 32
16 16 32
16 16 32
16 16 32
16 16 32
16 16 32
16 16 32
16 16 32
16 16 32
16 16 32
16 16 32
16 16 32
16 16 32
16 16 32
16 16 32
16 16 32
16 16 32
16 16 32
16 16 32
16 16 32
16 16 32
16 16 32
16 16 32
16 16 32
16 16 32
16 16 32
16 16 32
16 16 32
16 16 32
16 16 32
16 16 32
16 16 32
16 16 32
16 16 32
16 16 32
16 16 32
16 16 32
16 16 32
16 16 32
16 16 32
16 16 32
16 16 32
16 16 32
16 16 32
16 16 32
16 16 32
16 16 32
16 16 32
16 16 32
16 16 32
16 16 32
16 16 32
16 16 32
16 16 32
16 16 32
16 16 32
16 16 32
16 16 32
16 16 32
16 16 32
16 16 32
16 16 32
16 16 32
16 16 32
16 16 32
16 16 32
16 16 32
16 16 32
16 16 32
16 16 32
16 16 32
16 16 32
16 16 32
16 16 32
16 16 32
16 16 32
16 16 32
16 16 32
16 16 32
16 16 32
16 16 32
16 16 32
16 16 32
16 16 32
16 16 32
16 16 32
16 16 32
255 255 255
255 255 255
255 255 255
255 255 255
16 16 32
16 16 32
16 16 32
16 16 32
16 16 32
16 16 32
16 16 32
16 16 32
16 16 32
16 16 32
16 16 32
16 16 32
16 16 32
16 16 32
16 16 32
16 16 32
255 255 255
255 255 255
16 16 32
16 16 32
16 16 32
16 16 32
16 16 32
16 16 32
16 16 32
16 16 32
16 16 32
16 16 32
16 16 32
16 16 32
16 16 32
16 16 32
16 16 32
16 16 32
16 16 32
16 16 32
16 16 32
16 16 32
16 16 32
16 16 32
16 16 32
16 16 32
16 16 32
16 16 32
255 255 255
255 255 255
16 16 32
16 16 32
255 255 255
255 255 255
16 16 32
16 16 32
255 255 255
255 255 255
16 16 32
16 16 32
16 16 32
16 16 32
16 16 32
16 16 32
255 255 255
255 255 255
255 255 255
255 255 255
255 255 255
255 255 255
255 255 255
255 255 255
16 16 32
16 16 32
16 16 32
16 16 32
16 16 32
16 16 32
16 16 32
16 16 32
16 16 32
16 16 32
16 16 32
16 16 32
255 255 255
255 255 255
16 16 32
16 16 32
16 16 32
16 16 32
16 16 32
16 16 32
16 16 32
16 16 32
16 16 32
16 16 32
16 16 32
16 16 32
16 16 32
16 16 32
255 255 255
255 255 255
16 16 32
16 16 32
16 16 32
16 16 32
16 16 32
16 16 32
16 16 32
16 16 32
16 16 32
16 16 32
16 16 32
16 16 32
16 16 32
16 16 32
16 16 32
16 16 32
16 16 32
16 16 32
16 16 32
16 16 32
16 16 32
16 16 32
16 16 32
16 16 32
16 16 32
16 16 32
16 16 32
16 16 32
16 16 32
16 16 32
255 255 255
255 255 255
16 16 32
16 16 32
16 16 32
16 16 32
16 16 32
16 16 32
16 16 32
16 16 32
16 16 32
16 16 32
16 16 32
16 16 32
16 16 32
16 16 32
16 16 32
16 16 32
16 16 32
16 16 32
16 16 32
16 16 32
16 16 32
16 16 32
16 16 32
16 16 32
16 16 32
16 16 32
255 255 255
255 255 255
255 255 255
255 255 255
255 255 255
255 255 255
255 255 255
255 255 255
255 255 255
255 255 255
16 16 32
16 16 32
16 16 32
16 16 32
16 16 32
16 16 32
255 255 255
255 255 255
16 16 32
16 16 32
16 16 32
16 16 32
16 16 32
16 16 32
255 255 255
255 255 255
16 16 32
16 16 32
16 16 32
16 16 32
16 16 32
16 16 32
255 255 255
255 255 255
16 16 32
16 16 32
16 16 32
16 16 32
16 16 32
16 16 32
16 16 32
16 16 32
16 16 32
16 16 32
16 16 32
16 16 32
16 16 32
16 16 32
255 255 255
255 255 255
16 16 32
16 16 32
16 16 32
16 16 32
16 16 32
16 16 32
255 255 255
255 255 255
16 16 32
16 16 32
16 16 32
16 16 32
16 16 32
16 16 32
16 16 32
16 16 32
16 16 32
16 16 32
16 16 32
16 16 32
16 16 32
16 16 32
16 16 32
16 16 32
16 16 32
16 16 32
16 16 32
16 16 32
16 16 32
16 16 32
255 255 255
255 255 255
255 255 255
255 255 255
255 255 255
255 255 255
255 255 255
255 255 255
16 16 32
16 16 32
16 16 32
16 16 32
16 16 32
16 16 32
16 16 32
16 16 32
255 255 255
255 255 255
255 255 255
255 255 255
255 255 255
255 255 255
255 255 255
255 255 255
16 16 32
16 16 32
16 16 32
16 16 32
16 16 32
16 16 32
16 16 32
16 16 32
255 255 255
255 255 255
255 255 255
255 255 255
255 255 255
255 255 255
255 255 255
255 255 255
16 16 32
16 16 32
16 16 32
16 16 32
16 16 32
16 16 32
16 16 32
16 16 32
255 255 255
255 255 255
16 16 32
16 16 32
16 16 32
16 16 32
16 16 32
16 16 32
255 255 255
255 255 255
16 16 32
16 16 32
16 16 32
16 16 32
16 16 32
16 16 32
16 16 32
16 16 32
16 16 32
16 16 32
16 16 32
16 16 32
16 16 32
16 16 32
16 16 32
16 16 32
16 16 32
16 16 32
16 16 32
16 16 32
16 16 32
16 16 32
16 16 32
16 16 32
16 16 32
16 16 32
16 16 32
16 16 32
16 16 32
16 16 32
16 16 32
16 16 32
16 16 32
16 16 32
16 16 32
16 16 32
16 16 32
16 16 32
16 16 32
16 16 32
16 16 32
16 16 32
16 16 32
16 16 32
16 16 32
16 16 32
16 16 32
16 16 32
16 16 32
16 16 32
16 16 32
16 16 32
16 16 32
16 16 32
255 255 255
255 255 255
255 255 255
255 255 255
16 16 32
16 16 32
16 16 32
16 16 32
16 16 32
16 16 32
16 16 32
16 16 32
16 16 32
16 16 32
16 16 32
16 16 32
16 16 32
16 16 32
16 16 32
16 16 32
16 16 32
16 16 32
255 255 255
255 255 255
16 16 32
16 16 32
16 16 32
16 16 32
16 16 32
16 16 32
16 16 32
16 16 32
16 16 32
16 16 32
16 16 32
16 16 32
16 16 32
16 16 32
16 16 32
16 16 32
16 16 32
16 16 32
16 16 32
16 16 32
16 16 32
16 16 32
16 16 32
16 16 32
255 255 255
255 255 255
255 255 255
255 255 255
255 255 255
255 255 255
255 255 255
255 255 255
255 255 255
255 255 255
16 16 32
16 16 32
16 16 32
16 16 32
16 16 32
16 16 32
255 255 255
255 255 255
255 255 255
255 255 255
255 255 255
255 255 255
255 255 255
255 255 255
16 16 32
16 16 32
16 16 32
16 16 32
16 16 32
16 16 32
16 16 32
16 16 32
16 16 32
16 16 32
16 16 32
16 16 32
16 16 32
16 16 32
16 16 32
16 16 32
16 16 32
16 16 32
16 16 32
16 16 32
16 16 32
16 16 32
16 16 32
16 16 32
16 16 32
16 16 32
16 16 32
16 16 32
255 255 255
255 255 255
16 16 32
16 16 32
16 16 32
16 16 32
16 16 32
16 16 32
16 16 32
16 16 32
16 16 32
16 16 32
16 16 32
16 16 32
16 16 32
16 16 32
16 16 32
16 16 32
16 16 32
16 16 32
16 16 32
16 16 32
16 16 32
16 16 32
16 16 32
16 16 32
16 16 32
16 16 32
255 255 255
255 255 255
255 255 255
255 255 255
255 255 255
255 255 255
255 255 255
255 255 255
255 255 255
255 255 255
16 16 32
16 16 32
16 16 32
16 16 32
16 16 32
16 16 32
255 255 255
255 255 255
16 16 32
16 16 32
16 16 32
16 16 32
16 16 32
16 16 32
255 255 255
255 255 255
16 16 32
16 16 32
16 16 32
16 16 32
16 16 32
16 16 32
255 255 255
255 255 255
16 16 32
16 16 32
16 16 32
16 16 32
16 16 32
16 16 32
16 16 32
16 16 32
16 16 32
16 16 32
16 16 32
16 16 32
16 16 32
16 16 32
255 255 255
255 255 255
16 16 32
16 16 32
16 16 32
16 16 32
16 16 32
16 16 32
255 255 255
255 255 255
16 16 32
16 16 32
16 16 32
16 16 32
16 16 32
16 16 32
16 16 32
16 16 32
16 16 32
16 16 32
16 16 32
16 16 32
16 16 32
16 16 32
16 16 32
16 16 32
16 16 32
16 16 32
16 16 32
16 16 32
16 16 32
16 16 32
255 255 255
255 255 255
255 255 255
255 255 255
255 255 255
255 255 255
255 255 255
255 255 255
255 255 255
255 255 255
16 16 32
16 16 32
16 16 32
16 16 32
16 16 32
16 16 32
255 255 255
255 255 255
255 255 255
255 255 255
255 255 255
255 255 255
255 255 255
255 255 255
16 16 32
16 16 32
16 16 32
16 16 32
16 16 32
16 16 32
16 16 32
16 16 32
16 16 32
16 16 32
16 16 32
16 16 32
16 16 32
16 16 32
16 16 32
16 16 32
16 16 32
16 16 32
16 16 32
16 16 32
16 16 32
16 16 32
16 16 32
16 16 32
16 16 32
16 16 32
16 16 32
16 16 32
16 16 32
16 16 32
16 16 32
16 16 32
16 16 32
16 16 32
16 16 32
16 16 32
16 16 32
16 16 32
16 16 32
16 16 32
16 16 32
16 16 32
16 16 32
16 16 32
16 16 32
16 16 32
16 16 32
16 16 32
16 16 32
16 16 32
16 16 32
16 16 32
16 16 32
16 16 32
16 16 32
16 16 32
16 16 32
16 16 32
16 16 32
16 16 32
16 16 32
16 16 32
16 16 32
16 16 32
16 16 32
16 16 32
16 16 32
16 16 32
16 16 32
16 16 32
16 16 32
16 16 32
16 16 32
16 16 32
16 16 32
16 16 32
16 16 32
16 16 32
16 16 32
16 16 32
16 16 32
16 16 32
16 16 32
16 16 32
16 16 32
16 16 32
16 16 32
16 16 32
16 16 32
16 16 32
16 16 32
16 16 32
16 16 32
16 16 32
16 16 32
16 16 32
16 16 32
16 16 32
16 16 32
16 16 32
16 16 32
16 16 32
16 16 32
16 16 32
16 16 32
16 16 32
16 16 32
16 16 32
16 16 32
16 16 32
16 16 32
16 16 32
16 16 32
16 16 32
16 16 32
16 16 32
16 16 32
16 16 32
16 16 32
16 16 32
16 16 32
16 16 32
16 16 32
16 16 32
16 16 32
16 16 32
16 16 32
16 16 32
16 16 32
16 16 32
16 16 32
16 16 32
16 16 32
16 16 32
16 16 32
16 16 32
16 16 32
16 16 32
16 16 32
16 16 32
16 16 32
16 16 32
16 16 32
16 16 32
16 16 32
16 16 32
16 16 32
16 16 32
16 16 32
16 16 32
16 16 32
16 16 32
16 16 32
16 16 32
16 16 32
16 16 32
16 16 32
16 16 32
16 16 32
16 16 32
16 16 32
16 16 32
16 16 32
16 16 32
16 16 32
16 16 32
16 16 32
16 16 32
16 16 32
16 16 32
16 16 32
16 16 32
16 16 32
16 16 32
16 16 32
16 16 32
16 16 32
16 16 32
16 16 32
16 16 32
16 16 32
16 16 32
16 16 32
16 16 32
16 16 32
16 16 32
16 16 32
16 16 32
16 16 32
16 16 32
16 16 32
16 16 32
16 16 32
16 16 32
16 16 32
16 16 32
16 16 32
16 16 32
16 16 32
16 16 32
16 16 32
16 16 32
16 16 32
16 16 32
16 16 32
16 16 32
16 16 32
16 16 32
16 16 32
16 16 32
16 16 32
16 16 32
16 16 32
16 16 32
16 16 32
16 16 32
16 16 32
16 16 32
16 16 32
16 16 32
16 16 32
16 16 32
16 16 32
16 16 32
16 16 32
16 16 32
16 16 32
16 16 32
16 16 32
16 16 32
16 16 32
16 16 32
16 16 32
16 16 32
16 16 32
16 16 32
16 16 32
16 16 32
16 16 32
16 16 32
16 16 32
16 16 32
16 16 32
16 16 32
16 16 32
16 16 32
16 16 32
16 16 32
16 16 32
16 16 32
16 16 32
16 16 32
16 16 32
16 16 32
16 16 32
16 16 32
16 16 32
16 16 32
16 16 32
16 16 32
16 16 32
16 16 32
16 16 32
16 16 32
16 16 32
16 16 32
16 16 32
16 16 32
16 16 32
16 16 32
16 16 32
16 16 32
16 16 32
16 16 32
16 16 32
16 16 32
16 16 32
16 16 32
16 16 32
16 16 32
16 16 32
16 16 32
16 16 32
16 16 32
16 16 32
16 16 32
16 16 32
16 16 32
16 16 32
16 16 32
16 16 32
16 16 32
16 16 32
16 16 32
16 16 32
16 16 32
16 16 32
16 16 32
16 16 32
16 16 32
16 16 32
16 16 32
16 16 32
16 16 32
16 16 32
16 16 32
16 16 32
16 16 32
16 16 32
16 16 32
16 16 32
16 16 32
16 16 32
16 16 32
16 16 32
16 16 32
16 16 32
16 16 32
16 16 32
16 16 32
16 16 32
16 16 32
16 16 32
16 16 32
16 16 32
16 16 32
16 16 32
16 16 32
16 16 32
16 16 32
16 16 32
16 16 32
16 16 32
16 16 32
16 16 32
16 16 32
16 16 32
16 16 32
16 16 32
16 16 32
16 16 32
16 16 32
16 16 32
16 16 32
16 16 32
16 16 32
16 16 32
16 16 32
16 16 32
16 16 32
16 16 32
16 16 32
16 16 32
16 16 32
16 16 32
16 16 32
16 16 32
16 16 32
16 16 32
16 16 32
16 16 32
16 16 32
16 16 32
16 16 32
16 16 32
16 16 32
16 16 32
16 16 32
16 16 32
16 16 32
16 16 32
16 16 32
16 16 32
16 16 32
16 16 32
16 16 32
16 16 32
16 16 32
16 16 32
16 16 32
16 16 32
16 16 32
16 16 32
16 16 32
16 16 32
16 16 32
16 16 32
16 16 32
16 16 32
16 16 32
16 16 32
16 16 32
16 16 32
16 16 32
16 16 32
16 16 32
16 16 32
16 16 32
16 16 32
16 16 32
16 16 32
16 16 32
16 16 32
16 16 32
16 16 32
16 16 32
16 16 32
16 16 32
16 16 32
16 16 32
16 16 32
16 16 32
16 16 32
16 16 32
16 16 32
16 16 32
16 16 32
16 16 32
16 16 32
16 16 32
16 16 32
16 16 32
16 16 32
16 16 32
16 16 32
16 16 32
16 16 32
16 16 32
16 16 32
16 16 32
16 16 32
16 16 32
16 16 32
16 16 32
16 16 32
16 16 32
16 16 32
16 16 32
16 16 32
16 16 32
16 16 32
16 16 32
16 16 32
16 16 32
16 16 32
16 16 32
16 16 32
16 16 32
16 16 32
16 16 32
16 16 32
16 16 32
16 16 32
16 16 32
16 16 32
16 16 32
255 255 255
255 255 255
255 255 255
255 255 255
16 16 32
16 16 32
16 16 32
16 16 32
16 16 32
16 16 32
16 16 32
16 16 32
16 16 32
16 16 32
16 16 32
16 16 32
16 16 32
16 16 32
16 16 32
16 16 32
255 255 255
255 255 255
16 16 32
16 16 32
16 16 32
16 16 32
16 16 32
16 16 32
16 16 32
16 16 32
16 16 32
16 16 32
16 16 32
16 16 32
16 16 32
16 16 32
16 16 32
16 16 32
16 16 32
16 16 32
16 16 32
16 16 32
16 16 32
16 16 32
16 16 32
16 16 32
16 16 32
16 16 32
255 255 255
255 255 255
16 16 32
16 16 32
255 255 255
255 255 255
16 16 32
16 16 32
255 255 255
255 255 255
16 16 32
16 16 32
16 16 32
16 16 32
16 16 32
16 16 32
255 255 255
255 255 255
255 255 255
255 255 255
255 255 255
255 255 255
255 255 255
255 255 255
16 16 32
16 16 32
16 16 32
16 16 32
16 16 32
16 16 32
16 16 32
16 16 32
16 16 32
16 16 32
16 16 32
16 16 32
255 255 255
255 255 255
16 16 32
16 16 32
16 16 32
16 16 32
16 16 32
16 16 32
16 16 32
16 16 32
16 16 32
16 16 32
16 16 32
16 16 32
16 16 32
16 16 32
255 255 255
255 255 255
16 16 32
16 16 32
16 16 32
16 16 32
16 16 32
16 16 32
16 16 32
16 16 32
16 16 32
16 16 32
16 16 32
16 16 32
16 16 32
16 16 32
16 16 32
16 16 32
16 16 32
16 16 32
16 16 32
16 16 32
16 16 32
16 16 32
16 16 32
16 16 32
16 16 32
16 16 32
16 16 32
16 16 32
16 16 32
16 16 32
255 255 255
255 255 255
16 16 32
16 16 32
16 16 32
16 16 32
16 16 32
16 16 32
16 16 32
16 16 32
16 16 32
16 16 32
16 16 32
16 16 32
16 16 32
16 16 32
16 16 32
16 16 32
16 16 32
16 16 32
16 16 32
16 16 32
16 16 32
16 16 32
16 16 32
16 16 32
16 16 32
16 16 32
255 255 255
255 255 255
255 255 255
255 255 255
255 255 255
255 255 255
255 255 255
255 255 255
255 255 255
255 255 255
16 16 32
16 16 32
16 16 32
16 16 32
16 16 32
16 16 32
255 255 255
255 255 255
16 16 32
16 16 32
16 16 32
16 16 32
16 16 32
16 16 32
255 255 255
255 255 255
16 16 32
16 16 32
16 16 32
16 16 32
16 16 32
16 16 32
255 255 255
255 255 255
16 16 32
16 16 32
16 16 32
16 16 32
16 16 32
16 16 32
16 16 32
16 16 32
16 16 32
16 16 32
16 16 32
16 16 32
16 16 32
16 16 32
255 255 255
255 255 255
16 16 32
16 16 32
16 16 32
16 16 32
16 16 32
16 16 32
255 255 255
255 255 255
16 16 32
16 16 32
16 16 32
16 16 32
16 16 32
16 16 32
16 16 32
16 16 32
16 16 32
16 16 32
16 16 32
16 16 32
16 16 32
16 16 32
16 16 32
16 16 32
16 16 32
16 16 32
16 16 32
16 16 32
16 16 32
16 16 32
255 255 255
255 255 255
255 255 255
255 255 255
255 255 255
255 255 255
255 255 255
255 255 255
16 16 32
16 16 32
16 16 32
16 16 32
16 16 32
16 16 32
16 16 32
16 16 32
255 255 255
255 255 255
255 255 255
255 255 255
255 255 255
255 255 255
255 255 255
255 255 255
16 16 32
16 16 32
16 16 32
16 16 32
16 16 32
16 16 32
16 16 32
16 16 32
255 255 255
255 255 255
255 255 255
255 255 255
255 255 255
255 255 255
255 255 255
255 255 255
16 16 32
16 16 32
16 16 32
16 16 32
16 16 32
16 16 32
16 16 32
16 16 32
255 255 255
255 255 255
16 16 32
16 16 32
16 16 32
16 16 32
16 16 32
16 16 32
255 255 255
255 255 255
16 16 32
16 16 32
16 16 32
16 16 32
16 16 32
16 16 32
16 16 32
16 16 32
16 16 32
16 16 32
16 16 32
16 16 32
16 16 32
16 16 32
16 16 32
16 16 32
16 16 32
16 16 32
16 16 32
16 16 32
16 16 32
16 16 32
16 16 32
16 16 32
16 16 32
16 16 32
16 16 32
16 16 32
16 16 32
16 16 32
16 16 32
16 16 32
16 16 32
16 16 32
16 16 32
16 16 32
16 16 32
16 16 32
16 16 32
16 16 32
16 16 32
16 16 32
16 16 32
16 16 32
16 16 32
16 16 32
16 16 32
16 16 32
16 16 32
16 16 32
16 16 32
16 16 32
16 16 32
16 16 32
255 255 255
255 255 255
255 255 255
255 255 255
16 16 32
16 16 32
16 16 32
16 16 32
16 16 32
16 16 32
16 16 32
16 16 32
16 16 32
16 16 32
16 16 32
16 16 32
16 16 32
16 16 32
16 16 32
16 16 32
16 16 32
16 16 32
255 255 255
255 255 255
16 16 32
16 16 32
16 16 32
16 16 32
16 16 32
16 16 32
16 16 32
16 16 32
16 16 32
16 16 32
16 16 32
16 16 32
16 16 32
16 16 32
16 16 32
16 16 32
16 16 32
16 16 32
16 16 32
16 16 32
16 16 32
16 16 32
16 16 32
16 16 32
255 255 255
255 255 255
255 255 255
255 255 255
255 255 255
255 255 255
255 255 255
255 255 255
255 255 255
255 255 255
16 16 32
16 16 32
16 16 32
16 16 32
16 16 32
16 16 32
255 255 255
255 255 255
255 255 255
255 255 255
255 255 255
255 255 255
255 255 255
255 255 255
16 16 32
16 16 32
16 16 32
16 16 32
16 16 32
16 16 32
16 16 32
16 16 32
16 16 32
16 16 32
16 16 32
16 16 32
16 16 32
16 16 32
16 16 32
16 16 32
16 16 32
16 16 32
16 16 32
16 16 32
16 16 32
16 16 32
16 16 32
16 16 32
16 16 32
16 16 32
16 16 32
16 16 32
255 255 255
255 255 255
16 16 32
16 16 32
16 16 32
16 16 32
16 16 32
16 16 32
16 16 32
16 16 32
16 16 32
16 16 32
16 16 32
16 16 32
16 16 32
16 16 32
16 16 32
16 16 32
16 16 32
16 16 32
16 16 32
16 16 32
16 16 32
16 16 32
16 16 32
16 16 32
16 16 32
16 16 32
255 255 255
255 255 255
255 255 255
255 255 255
255 255 255
255 255 255
255 255 255
255 255 255
255 255 255
255 255 255
16 16 32
16 16 32
16 16 32
16 16 32
16 16 32
16 16 32
255 255 255
255 255 255
16 16 32
16 16 32
16 16 32
16 16 32
16 16 32
16 16 32
255 255 255
255 255 255
16 16 32
16 16 32
16 16 32
16 16 32
16 16 32
16 16 32
255 255 255
255 255 255
16 16 32
16 16 32
16 16 32
16 16 32
16 16 32
16 16 32
16 16 32
16 16 32
16 16 32
16 16 32
16 16 32
16 16 32
16 16 32
16 16 32
255 255 255
255 255 255
16 16 32
16 16 32
16 16 32
16 16 32
16 16 32
16 16 32
255 255 255
255 255 255
16 16 32
16 16 32
16 16 32
16 16 32
16 16 32
16 16 32
16 16 32
16 16 32
16 16 32
16 16 32
16 16 32
16 16 32
16 16 32
16 16 32
16 16 32
16 16 32
16 16 32
16 16 32
16 16 32
16 16 32
16 16 32
16 16 32
255 255 255
255 255 255
255 255 255
255 255 255
255 255 255
255 255 255
255 255 255
255 255 255
255 255 255
255 255 255
16 16 32
16 16 32
16 16 32
16 16 32
16 16 32
16 16 32
255 255 255
255 255 255
255 255 255
255 255 255
255 255 255
255 255 255
255 255 255
255 255 255
16 16 32
16 16 32
16 16 32
16 16 32
16 16 32
16 16 32
16 16 32
16 16 32
16 16 32
16 16 32
16 16 32
16 16 32
16 16 32
16 16 32
16 16 32
16 16 32
16 16 32
16 16 32
16 16 32
16 16 32
16 16 32
16 16 32
16 16 32
16 16 32
16 16 32
16 16 32
16 16 32
16 16 32
16 16 32
16 16 32
16 16 32
16 16 32
16 16 32
16 16 32
16 16 32
16 16 32
16 16 32
16 16 32
16 16 32
16 16 32
16 16 32
16 16 32
16 16 32
16 16 32
16 16 32
16 16 32
16 16 32
16 16 32
16 16 32
16 16 32
16 16 32
16 16 32
16 16 32
16 16 32
16 16 32
16 16 32
16 16 32
16 16 32
16 16 32
16 16 32
16 16 32
16 16 32
16 16 32
16 16 32
16 16 32
16 16 32
16 16 32
16 16 32
16 16 32
16 16 32
16 16 32
16 16 32
16 16 32
16 16 32
16 16 32
16 16 32
16 16 32
16 16 32
16 16 32
16 16 32
16 16 32
16 16 32
16 16 32
16 16 32
16 16 32
16 16 32
16 16 32
16 16 32
16 16 32
16 16 32
16 16 32
16 16 32
16 16 32
16 16 32
16 16 32
16 16 32
16 16 32
16 16 32
16 16 32
16 16 32
16 16 32
16 16 32
16 16 32
16 16 32
16 16 32
16 16 32
16 16 32
16 16 32
16 16 32
16 16 32
16 16 32
16 16 32
16 16 32
16 16 32
16 16 32
16 16 32
16 16 32
16 16 32
16 16 32
16 16 32
16 16 32
16 16 32
16 16 32
16 16 32
16 16 32
16 16 32
16 16 32
16 16 32
16 16 32
16 16 32
16 16 32
16 16 32
16 16 32
16 16 32
16 16 32
16 16 32
16 16 32
16 16 32
16 16 32
16 16 32
16 16 32
16 16 32
16 16 32
16 16 32
16 16 32
16 16 32
16 16 32
16 16 32
16 16 32
16 16 32
16 16 32
16 16 32
16 16 32
16 16 32
16 16 32
16 16 32
16 16 32
16 16 32
16 16 32
16 16 32
16 16 32
16 16 32
16 16 32
16 16 32
16 16 32
16 16 32
16 16 32
16 16 32
16 16 32
16 16 32
16 16 32
16 16 32
16 16 32
16 16 32
16 16 32
16 16 32
16 16 32
16 16 32
16 16 32
16 16 32
16 16 32
16 16 32
16 16 32
16 16 32
16 16 32
16 16 32
16 16 32
16 16 32
16 16 32
16 16 32
16 16 32
16 16 32
16 16 32
16 16 32
16 16 32
16 16 32
16 16 32
16 16 32
16 16 32
16 16 32
16 16 32
16 16 32
16 16 32
16 16 32
16 16 32
16 16 32
16 16 32
16 16 32
16 16 32
16 16 32
16 16 32
16 16 32
16 16 32
16 16 32
16 16 32
16 16 32
16 16 32
16 16 32
16 16 32
16 16 32
16 16 32
16 16 32
16 16 32
16 16 32
16 16 32
16 16 32
16 16 32
16 16 32
16 16 32
16 16 32
16 16 32
16 16 32
16 16 32
16 16 32
16 16 32
16 16 32
16 16 32
16 16 32
16 16 32
16 16 32
16 16 32
16 16 32
16 16 32
16 16 32
16 16 32
16 16 32
16 16 32
16 16 32
16 16 32
16 16 32
16 16 32
16 16 32
16 16 32
16 16 32
16 16 32
16 16 32
16 16 32
16 16 32
16 16 32
16 16 32
16 16 32
16 16 32
16 16 32
16 16 32
16 16 32
16 16 32
16 16 32
16 16 32
16 16 32
16 16 32
16 16 32
16 16 32
16 16 32
16 16 32
16 16 32
16 16 32
16 16 32
16 16 32
16 16 32
16 16 32
16 16 32
16 16 32
16 16 32
16 16 32
16 16 32
16 16 32
16 16 32
16 16 32
16 16 32
16 16 32
16 16 32
16 16 32
16 16 32
16 16 32
16 16 32
16 16 32
16 16 32
16 16 32
16 16 32
16 16 32
16 16 32
16 16 32
16 16 32
16 16 32
16 16 32
16 16 32
16 16 32
16 16 32
16 16 32
16 16 32
16 16 32
16 16 32
16 16 32
16 16 32
16 16 32
16 16 32
16 16 32
16 16 32
16 16 32
16 16 32
16 16 32
16 16 32
16 16 32
16 16 32
16 16 32
16 16 32
16 16 32
16 16 32
16 16 32
16 16 32
16 16 32
16 16 32
16 16 32
16 16 32
16 16 32
16 16 32
16 16 32
16 16 32
16 16 32
16 16 32
16 16 32
16 16 32
16 16 32
16 16 32
16 16 32
16 16 32
16 16 32
16 16 32
16 16 32
16 16 32
16 16 32
16 16 32
16 16 32
16 16 32
16 16 32
16 16 32
16 16 32
16 16 32
16 16 32
16 16 32
16 16 32
16 16 32
16 16 32
16 16 32
16 16 32
16 16 32
16 16 32
16 16 32
16 16 32
16 16 32
16 16 32
16 16 32
16 16 32
16 16 32
16 16 32
16 16 32
16 16 32
16 16 32
16 16 32
16 16 32
16 16 32
16 16 32
16 16 32
16 16 32
16 16 32
16 16 32
16 16 32
16 16 32
16 16 32
16 16 32
16 16 32
16 16 32
16 16 32
16 16 32
16 16 32
16 16 32
16 16 32
16 16 32
16 16 32
16 16 32
16 16 32
16 16 32
16 16 32
16 16 32
16 16 32
16 16 32
16 16 32
16 16 32
16 16 32
16 16 32
16 16 32
16 16 32
16 16 32
16 16 32
16 16 32
16 16 32
16 16 32
16 16 32
16 16 32
16 16 32
16 16 32
16 16 32
16 16 32
16 16 32
16 16 32
16 16 32
16 16 32
16 16 32
16 16 32
16 16 32
16 16 32
16 16 32
16 16 32
16 16 32
16 16 32
16 16 32
16 16 32
16 16 32
16 16 32
16 16 32
16 16 32
16 16 32
16 16 32
16 16 32
16 16 32
16 16 32
16 16 32
16 16 32
16 16 32
16 16 32
16 16 32
16 16 32
16 16 32
16 16 32
16 16 32
16 16 32
255 255 255
255 255 255
16 16 32
16 16 32
255 255 255
255 255 255
16 16 32
16 16 32
16 16 32
16 16 32
16 16 32
16 16 32
16 16 32
16 16 32
16 16 32
16 16 32
16 16 32
16 16 32
16 16 32
16 16 32
255 255 255
255 255 255
16 16 32
16 16 32
16 16 32
16 16 32
16 16 32
16 16 32
16 16 32
16 16 32
16 16 32
16 16 32
16 16 32
16 16 32
16 16 32
16 16 32
16 16 32
16 16 32
16 16 32
16 16 32
16 16 32
16 16 32
16 16 32
16 16 32
16 16 32
16 16 32
16 16 32
16 16 32
255 255 255
255 255 255
16 16 32
16 16 32
16 16 32
16 16 32
255 255 255
255 255 255
255 255 255
255 255 255
16 16 32
16 16 32
16 16 32
16 16 32
16 16 32
16 16 32
255 255 255
255 255 255
16 16 32
16 16 32
16 16 32
16 16 32
16 16 32
16 16 32
16 16 32
16 16 32
16 16 32
16 16 32
16 16 32
16 16 32
16 16 32
16 16 32
16 16 32
16 16 32
255 255 255
255 255 255
16 16 32
16 16 32
255 255 255
255 255 255
16 16 32
16 16 32
16 16 32
16 16 32
16 16 32
16 16 32
16 16 32
16 16 32
16 16 32
16 16 32
16 16 32
16 16 32
255 255 255
255 255 255
16 16 32
16 16 32
16 16 32
16 16 32
16 16 32
16 16 32
16 16 32
16 16 32
16 16 32
16 16 32
16 16 32
16 16 32
16 16 32
16 16 32
16 16 32
16 16 32
16 16 32
16 16 32
16 16 32
16 16 32
16 16 32
16 16 32
16 16 32
16 16 32
16 16 32
16 16 32
16 16 32
16 16 32
255 255 255
255 255 255
16 16 32
16 16 32
16 16 32
16 16 32
16 16 32
16 16 32
16 16 32
16 16 32
16 16 32
16 16 32
16 16 32
16 16 32
16 16 32
16 16 32
16 16 32
16 16 32
16 16 32
16 16 32
16 16 32
16 16 32
16 16 32
16 16 32
16 16 32
16 16 32
16 16 32
16 16 32
16 16 32
16 16 32
255 255 255
255 255 255
16 16 32
16 16 32
16 16 32
16 16 32
16 16 32
16 16 32
255 255 255
255 255 255
16 16 32
16 16 32
16 16 32
16 16 32
16 16 32
16 16 32
255 255 255
255 255 255
16 16 32
16 16 32
16 16 32
16 16 32
16 16 32
16 16 32
255 255 255
255 255 255
16 16 32
16 16 32
16 16 32
16 16 32
16 16 32
16 16 32
255 255 255
255 255 255
16 16 32
16 16 32
16 16 32
16 16 32
16 16 32
16 16 32
16 16 32
16 16 32
16 16 32
16 16 32
16 16 32
16 16 32
16 16 32
16 16 32
255 255 255
255 255 255
16 16 32
16 16 32
16 16 32
16 16 32
16 16 32
16 16 32
255 255 255
255 255 255
16 16 32
16 16 32
16 16 32
16 16 32
16 16 32
16 16 32
16 16 32
16 16 32
16 16 32
16 16 32
16 16 32
16 16 32
16 16 32
16 16 32
16 16 32
16 16 32
16 16 32
16 16 32
16 16 32
16 16 32
16 16 32
16 16 32
255 255 255
255 255 255
16 16 32
16 16 32
16 16 32
16 16 32
16 16 32
16 16 32
16 16 32
16 16 32
16 16 32
16 16 32
16 16 32
16 16 32
16 16 32
16 16 32
255 255 255
255 255 255
16 16 32
16 16 32
255 255 255
255 255 255
16 16 32
16 16 32
16 16 32
16 16 32
16 16 32
16 16 32
16 16 32
16 16 32
16 16 32
16 16 32
255 255 255
255 255 255
16 16 32
16 16 32
16 16 32
16 16 32
16 16 32
16 16 32
16 16 32
16 16 32
16 16 32
16 16 32
16 16 32
16 16 32
16 16 32
16 16 32
255 255 255
255 255 255
16 16 32
16 16 32
16 16 32
16 16 32
16 16 32
16 16 32
255 255 255
255 255 255
16 16 32
16 16 32
16 16 32
16 16 32
16 16 32
16 16 32
16 16 32
16 16 32
16 16 32
16 16 32
16 16 32
16 16 32
16 16 32
16 16 32
16 16 32
16 16 32
16 16 32
16 16 32
16 16 32
16 16 32
16 16 32
16 16 32
16 16 32
16 16 32
16 16 32
16 16 32
16 16 32
16 16 32
16 16 32
16 16 32
16 16 32
16 16 32
16 16 32
16 16 32
16 16 32
16 16 32
16 16 32
16 16 32
16 16 32
16 16 32
16 16 32
16 16 32
16 16 32
16 16 32
16 16 32
16 16 32
16 16 32
16 16 32
16 16 32
16 16 32
16 16 32
16 16 32
16 16 32
16 16 32
255 255 255
255 255 255
16 16 32
16 16 32
255 255 255
255 255 255
16 16 32
16 16 32
16 16 32
16 16 32
16 16 32
16 16 32
16 16 32
16 16 32
16 16 32
16 16 32
16 16 32
16 16 32
16 16 32
16 16 32
255 255 255
255 255 255
16 16 32
16 16 32
16 16 32
16 16 32
16 16 32
16 16 32
16 16 32
16 16 32
16 16 32
16 16 32
16 16 32
16 16 32
16 16 32
16 16 32
16 16 32
16 16 32
16 16 32
16 16 32
16 16 32
16 16 32
16 16 32
16 16 32
16 16 32
16 16 32
16 16 32
16 16 32
16 16 32
16 16 32
16 16 32
16 16 32
255 255 255
255 255 255
16 16 32
16 16 32
16 16 32
16 16 32
16 16 32
16 16 32
16 16 32
16 16 32
16 16 32
16 16 32
16 16 32
16 16 32
16 16 32
16 16 32
16 16 32
16 16 32
16 16 32
16 16 32
255 255 255
255 255 255
16 16 32
16 16 32
16 16 32
16 16 32
16 16 32
16 16 32
16 16 32
16 16 32
16 16 32
16 16 32
16 16 32
16 16 32
16 16 32
16 16 32
16 16 32
16 16 32
16 16 32
16 16 32
16 16 32
16 16 32
16 16 32
16 16 32
16 16 32
16 16 32
255 255 255
255 255 255
16 16 32
16 16 32
16 16 32
16 16 32
16 16 32
16 16 32
16 16 32
16 16 32
16 16 32
16 16 32
16 16 32
16 16 32
16 16 32
16 16 32
16 16 32
16 16 32
16 16 32
16 16 32
16 16 32
16 16 32
16 16 32
16 16 32
16 16 32
16 16 32
16 16 32
16 16 32
16 16 32
16 16 32
255 255 255
255 255 255
16 16 32
16 16 32
16 16 32
16 16 32
16 16 32
16 16 32
255 255 255
255 255 255
16 16 32
16 16 32
16 16 32
16 16 32
16 16 32
16 16 32
255 255 255
255 255 255
16 16 32
16 16 32
16 16 32
16 16 32
16 16 32
16 16 32
255 255 255
255 255 255
16 16 32
16 16 32
16 16 32
16 16 32
16 16 32
16 16 32
255 255 255
255 255 255
16 16 32
16 16 32
16 16 32
16 16 32
16 16 32
16 16 32
16 16 32
16 16 32
16 16 32
16 16 32
16 16 32
16 16 32
16 16 32
16 16 32
255 255 255
255 255 255
16 16 32
16 16 32
16 16 32
16 16 32
16 16 32
16 16 32
255 255 255
255 255 255
16 16 32
16 16 32
16 16 32
16 16 32
16 16 32
16 16 32
16 16 32
16 16 32
16 16 32
16 16 32
16 16 32
16 16 32
16 16 32
16 16 32
16 16 32
16 16 32
16 16 32
16 16 32
16 16 32
16 16 32
16 16 32
16 16 32
16 16 32
16 16 32
16 16 32
16 16 32
16 16 32
16 16 32
16 16 32
16 16 32
16 16 32
16 16 32
16 16 32
16 16 32
16 16 32
16 16 32
16 16 32
16 16 32
16 16 32
16 16 32
16 16 32
16 16 32
16 16 32
16 16 32
16 16 32
16 16 32
255 255 255
255 255 255
16 16 32
16 16 32
16 16 32
16 16 32
16 16 32
16 16 32
16 16 32
16 16 32
16 16 32
16 16 32
16 16 32
16 16 32
16 16 32
16 16 32
16 16 32
16 16 32
16 16 32
16 16 32
16 16 32
16 16 32
16 16 32
16 16 32
16 16 32
16 16 32
16 16 32
16 16 32
16 16 32
16 16 32
16 16 32
16 16 32
16 16 32
16 16 32
16 16 32
16 16 32
16 16 32
16 16 32
16 16 32
16 16 32
16 16 32
16 16 32
16 16 32
16 16 32
16 16 32
16 16 32
16 16 32
16 16 32
16 16 32
16 16 32
16 16 32
16 16 32
16 16 32
16 16 32
16 16 32
16 16 32
16 16 32
16 16 32
16 16 32
16 16 32
16 16 32
16 16 32
16 16 32
16 16 32
16 16 32
16 16 32
16 16 32
16 16 32
16 16 32
16 16 32
16 16 32
16 16 32
16 16 32
16 16 32
16 16 32
16 16 32
16 16 32
16 16 32
16 16 32
16 16 32
16 16 32
16 16 32
16 16 32
16 16 32
16 16 32
16 16 32
16 16 32
16 16 32
16 16 32
16 16 32
16 16 32
16 16 32
16 16 32
16 16 32
16 16 32
16 16 32
16 16 32
16 16 32
16 16 32
16 16 32
16 16 32
16 16 32
16 16 32
16 16 32
16 16 32
16 16 32
16 16 32
16 16 32
16 16 32
16 16 32
16 16 32
16 16 32
16 16 32
16 16 32
16 16 32
16 16 32
16 16 32
16 16 32
16 16 32
16 16 32
16 16 32
16 16 32
16 16 32
16 16 32
16 16 32
16 16 32
16 16 32
16 16 32
16 16 32
16 16 32
16 16 32
16 16 32
16 16 32
16 16 32
16 16 32
16 16 32
16 16 32
16 16 32
16 16 32
16 16 32
16 16 32
16 16 32
16 16 32
16 16 32
16 16 32
16 16 32
16 16 32
16 16 32
16 16 32
16 16 32
16 16 32
16 16 32
16 16 32
16 16 32
16 16 32
16 16 32
16 16 32
16 16 32
16 16 32
16 16 32
16 16 32
16 16 32
16 16 32
16 16 32
16 16 32
16 16 32
16 16 32
16 16 32
16 16 32
16 16 32
16 16 32
16 16 32
16 16 32
16 16 32
16 16 32
16 16 32
16 16 32
16 16 32
16 16 32
16 16 32
16 16 32
16 16 32
16 16 32
16 16 32
16 16 32
16 16 32
16 16 32
16 16 32
16 16 32
16 16 32
16 16 32
16 16 32
16 16 32
16 16 32
16 16 32
16 16 32
16 16 32
16 16 32
16 16 32
16 16 32
16 16 32
16 16 32
16 16 32
16 16 32
16 16 32
16 16 32
16 16 32
16 16 32
16 16 32
16 16 32
16 16 32
16 16 32
16 16 32
16 16 32
16 16 32
16 16 32
16 16 32
16 16 32
16 16 32
16 16 32
16 16 32
16 16 32
16 16 32
16 16 32
16 16 32
16 16 32
16 16 32
16 16 32
16 16 32
16 16 32
16 16 32
16 16 32
16 16 32
16 16 32
16 16 32
16 16 32
16 16 32
16 16 32
16 16 32
16 16 32
16 16 32
16 16 32
16 16 32
16 16 32
16 16 32
16 16 32
16 16 32
16 16 32
16 16 32
16 16 32
16 16 32
16 16 32
16 16 32
16 16 32
16 16 32
16 16 32
16 16 32
16 16 32
16 16 32
16 16 32
16 16 32
16 16 32
16 16 32
16 16 32
16 16 32
16 16 32
16 16 32
16 16 32
16 16 32
16 16 32
16 16 32
16 16 32
16 16 32
16 16 32
16 16 32
16 16 32
16 16 32
16 16 32
16 16 32
16 16 32
16 16 32
16 16 32
16 16 32
16 16 32
16 16 32
16 16 32
16 16 32
16 16 32
16 16 32
16 16 32
16 16 32
16 16 32
16 16 32
16 16 32
16 16 32
16 16 32
16 16 32
16 16 32
16 16 32
16 16 32
16 16 32
16 16 32
16 16 32
16 16 32
16 16 32
16 16 32
16 16 32
16 16 32
16 16 32
16 16 32
16 16 32
16 16 32
16 16 32
16 16 32
16 16 32
16 16 32
16 16 32
16 16 32
16 16 32
16 16 32
16 16 32
16 16 32
16 16 32
16 16 32
16 16 32
16 16 32
16 16 32
16 16 32
16 16 32
16 16 32
16 16 32
16 16 32
16 16 32
16 16 32
16 16 32
16 16 32
16 16 32
16 16 32
16 16 32
16 16 32
16 16 32
16 16 32
16 16 32
16 16 32
16 16 32
16 16 32
16 16 32
16 16 32
16 16 32
16 16 32
16 16 32
16 16 32
16 16 32
16 16 32
16 16 32
16 16 32
16 16 32
16 16 32
16 16 32
16 16 32
16 16 32
16 16 32
16 16 32
16 16 32
16 16 32
16 16 32
16 16 32
16 16 32
16 16 32
16 16 32
16 16 32
16 16 32
16 16 32
16 16 32
16 16 32
16 16 32
16 16 32
16 16 32
16 16 32
16 16 32
16 16 32
16 16 32
16 16 32
16 16 32
16 16 32
16 16 32
16 16 32
16 16 32
16 16 32
16 16 32
16 16 32
16 16 32
16 16 32
16 16 32
16 16 32
16 16 32
16 16 32
16 16 32
16 16 32
16 16 32
16 16 32
16 16 32
16 16 32
16 16 32
16 16 32
16 16 32
16 16 32
16 16 32
16 16 32
16 16 32
16 16 32
16 16 32
16 16 32
16 16 32
16 16 32
16 16 32
16 16 32
16 16 32
16 16 32
16 16 32
16 16 32
16 16 32
16 16 32
16 16 32
16 16 32
16 16 32
16 16 32
16 16 32
16 16 32
16 16 32
16 16 32
16 16 32
16 16 32
16 16 32
16 16 32
16 16 32
16 16 32
16 16 32
16 16 32
16 16 32
16 16 32
16 16 32
16 16 32
16 16 32
16 16 32
16 16 32
16 16 32
16 16 32
16 16 32
16 16 32
16 16 32
16 16 32
16 16 32
16 16 32
16 16 32
16 16 32
255 255 255
255 255 255
16 16 32
16 16 32
255 255 255
255 255 255
16 16 32
16 16 32
16 16 32
16 16 32
16 16 32
16 16 32
16 16 32
16 16 32
16 16 32
16 16 32
16 16 32
16 16 32
16 16 32
16 16 32
255 255 255
255 255 255
16 16 32
16 16 32
16 16 32
16 16 32
16 16 32
16 16 32
16 16 32
16 16 32
16 16 32
16 16 32
16 16 32
16 16 32
16 16 32
16 16 32
16 16 32
16 16 32
16 16 32
16 16 32
16 16 32
16 16 32
16 16 32
16 16 32
16 16 32
16 16 32
16 16 32
16 16 32
255 255 255
255 255 255
16 16 32
16 16 32
16 16 32
16 16 32
255 255 255
255 255 255
255 255 255
255 255 255
16 16 32
16 16 32
16 16 32
16 16 32
16 16 32
16 16 32
255 255 255
255 255 255
16 16 32
16 16 32
16 16 32
16 16 32
16 16 32
16 16 32
16 16 32
16 16 32
16 16 32
16 16 32
16 16 32
16 16 32
16 16 32
16 16 32
16 16 32
16 16 32
255 255 255
255 255 255
16 16 32
16 16 32
255 255 255
255 255 255
16 16 32
16 16 32
16 16 32
16 16 32
16 16 32
16 16 32
16 16 32
16 16 32
16 16 32
16 16 32
16 16 32
16 16 32
255 255 255
255 255 255
16 16 32
16 16 32
16 16 32
16 16 32
16 16 32
16 16 32
16 16 32
16 16 32
16 16 32
16 16 32
16 16 32
16 16 32
16 16 32
16 16 32
16 16 32
16 16 32
16 16 32
16 16 32
16 16 32
16 16 32
16 16 32
16 16 32
16 16 32
16 16 32
16 16 32
16 16 32
16 16 32
16 16 32
255 255 255
255 255 255
16 16 32
16 16 32
16 16 32
16 16 32
16 16 32
16 16 32
16 16 32
16 16 32
16 16 32
16 16 32
16 16 32
16 16 32
16 16 32
16 16 32
16 16 32
16 16 32
16 16 32
16 16 32
16 16 32
16 16 32
16 16 32
16 16 32
16 16 32
16 16 32
16 16 32
16 16 32
16 16 32
16 16 32
255 255 255
255 255 255
16 16 32
16 16 32
16 16 32
16 16 32
16 16 32
16 16 32
255 255 255
255 255 255
16 16 32
16 16 32
16 16 32
16 16 32
16 16 32
16 16 32
255 255 255
255 255 255
16 16 32
16 16 32
16 16 32
16 16 32
16 16 32
16 16 32
255 255 255
255 255 255
16 16 32
16 16 32
16 16 32
16 16 32
16 16 32
16 16 32
255 255 255
255 255 255
16 16 32
16 16 32
16 16 32
16 16 32
16 16 32
16 16 32
16 16 32
16 16 32
16 16 32
16 16 32
16 16 32
16 16 32
16 16 32
16 16 32
255 255 255
255 255 255
16 16 32
16 16 32
16 16 32
16 16 32
16 16 32
16 16 32
255 255 255
255 255 255
16 16 32
16 16 32
16 16 32
16 16 32
16 16 32
16 16 32
16 16 32
16 16 32
16 16 32
16 16 32
16 16 32
16 16 32
16 16 32
16 16 32
16 16 32
16 16 32
16 16 32
16 16 32
16 16 32
16 16 32
16 16 32
16 16 32
255 255 255
255 255 255
16 16 32
16 16 32
16 16 32
16 16 32
16 16 32
16 16 32
16 16 32
16 16 32
16 16 32
16 16 32
16 16 32
16 16 32
16 16 32
16 16 32
255 255 255
255 255 255
16 16 32
16 16 32
255 255 255
255 255 255
16 16 32
16 16 32
16 16 32
16 16 32
16 16 32
16 16 32
16 16 32
16 16 32
16 16 32
16 16 32
255 255 255
255 255 255
16 16 32
16 16 32
16 16 32
16 16 32
16 16 32
16 16 32
16 16 32
16 16 32
16 16 32
16 16 32
16 16 32
16 16 32
16 16 32
16 16 32
255 255 255
255 255 255
16 16 32
16 16 32
16 16 32
16 16 32
16 16 32
16 16 32
255 255 255
255 255 255
16 16 32
16 16 32
16 16 32
16 16 32
16 16 32
16 16 32
16 16 32
16 16 32
16 16 32
16 16 32
16 16 32
16 16 32
16 16 32
16 16 32
16 16 32
16 16 32
16 16 32
16 16 32
16 16 32
16 16 32
16 16 32
16 16 32
16 16 32
16 16 32
16 16 32
16 16 32
16 16 32
16 16 32
16 16 32
16 16 32
16 16 32
16 16 32
16 16 32
16 16 32
16 16 32
16 16 32
16 16 32
16 16 32
16 16 32
16 16 32
16 16 32
16 16 32
16 16 32
16 16 32
16 16 32
16 16 32
16 16 32
16 16 32
16 16 32
16 16 32
16 16 32
16 16 32
16 16 32
16 16 32
255 255 255
255 255 255
16 16 32
16 16 32
255 255 255
255 255 255
16 16 32
16 16 32
16 16 32
16 16 32
16 16 32
16 16 32
16 16 32
16 16 32
16 16 32
16 16 32
16 16 32
16 16 32
16 16 32
16 16 32
255 255 255
255 255 255
16 16 32
16 16 32
16 16 32
16 16 32
16 16 32
16 16 32
16 16 32
16 16 32
16 16 32
16 16 32
16 16 32
16 16 32
16 16 32
16 16 32
16 16 32
16 16 32
16 16 32
16 16 32
16 16 32
16 16 32
16 16 32
16 16 32
16 16 32
16 16 32
16 16 32
16 16 32
16 16 32
16 16 32
16 16 32
16 16 32
255 255 255
255 255 255
16 16 32
16 16 32
16 16 32
16 16 32
16 16 32
16 16 32
16 16 32
16 16 32
16 16 32
16 16 32
16 16 32
16 16 32
16 16 32
16 16 32
16 16 32
16 16 32
16 16 32
16 16 32
255 255 255
255 255 255
16 16 32
16 16 32
16 16 32
16 16 32
16 16 32
16 16 32
16 16 32
16 16 32
16 16 32
16 16 32
16 16 32
16 16 32
16 16 32
16 16 32
16 16 32
16 16 32
16 16 32
16 16 32
16 16 32
16 16 32
16 16 32
16 16 32
16 16 32
16 16 32
255 255 255
255 255 255
16 16 32
16 16 32
16 16 32
16 16 32
16 16 32
16 16 32
16 16 32
16 16 32
16 16 32
16 16 32
16 16 32
16 16 32
16 16 32
16 16 32
16 16 32
16 16 32
16 16 32
16 16 32
16 16 32
16 16 32
16 16 32
16 16 32
16 16 32
16 16 32
16 16 32
16 16 32
16 16 32
16 16 32
255 255 255
255 255 255
16 16 32
16 16 32
16 16 32
16 16 32
16 16 32
16 16 32
255 255 255
255 255 255
16 16 32
16 16 32
16 16 32
16 16 32
16 16 32
16 16 32
255 255 255
255 255 255
16 16 32
16 16 32
16 16 32
16 16 32
16 16 32
16 16 32
255 255 255
255 255 255
16 16 32
16 16 32
16 16 32
16 16 32
16 16 32
16 16 32
255 255 255
255 255 255
16 16 32
16 16 32
16 16 32
16 16 32
16 16 32
16 16 32
16 16 32
16 16 32
16 16 32
16 16 32
16 16 32
16 16 32
16 16 32
16 16 32
255 255 255
255 255 255
16 16 32
16 16 32
16 16 32
16 16 32
16 16 32
16 16 32
255 255 255
255 255 255
16 16 32
16 16 32
16 16 32
16 16 32
16 16 32
16 16 32
16 16 32
16 16 32
16 16 32
16 16 32
16 16 32
16 16 32
16 16 32
16 16 32
16 16 32
16 16 32
16 16 32
16 16 32
16 16 32
16 16 32
16 16 32
16 16 32
16 16 32
16 16 32
16 16 32
16 16 32
16 16 32
16 16 32
16 16 32
16 16 32
16 16 32
16 16 32
16 16 32
16 16 32
16 16 32
16 16 32
16 16 32
16 16 32
16 16 32
16 16 32
16 16 32
16 16 32
16 16 32
16 16 32
16 16 32
16 16 32
255 255 255
255 255 255
16 16 32
16 16 32
16 16 32
16 16 32
16 16 32
16 16 32
16 16 32
16 16 32
16 16 32
16 16 32
16 16 32
16 16 32
16 16 32
16 16 32
16 16 32
16 16 32
16 16 32
16 16 32
16 16 32
16 16 32
16 16 32
16 16 32
16 16 32
16 16 32
16 16 32
16 16 32
16 16 32
16 16 32
16 16 32
16 16 32
16 16 32
16 16 32
16 16 32
16 16 32
16 16 32
16 16 32
16 16 32
16 16 32
16 16 32
16 16 32
16 16 32
16 16 32
16 16 32
16 16 32
16 16 32
16 16 32
16 16 32
16 16 32
16 16 32
16 16 32
16 16 32
16 16 32
16 16 32
16 16 32
16 16 32
16 16 32
16 16 32
16 16 32
16 16 32
16 16 32
16 16 32
16 16 32
16 16 32
16 16 32
16 16 32
16 16 32
16 16 32
16 16 32
16 16 32
16 16 32
16 16 32
16 16 32
16 16 32
16 16 32
16 16 32
16 16 32
16 16 32
16 16 32
16 16 32
16 16 32
16 16 32
16 16 32
16 16 32
16 16 32
16 16 32
16 16 32
16 16 32
16 16 32
16 16 32
16 16 32
16 16 32
16 16 32
16 16 32
16 16 32
16 16 32
16 16 32
16 16 32
16 16 32
16 16 32
16 16 32
16 16 32
16 16 32
16 16 32
16 16 32
16 16 32
16 16 32
16 16 32
16 16 32
16 16 32
16 16 32
16 16 32
16 16 32
16 16 32
16 16 32
16 16 32
16 16 32
16 16 32
16 16 32
16 16 32
16 16 32
16 16 32
16 16 32
16 16 32
16 16 32
16 16 32
16 16 32
16 16 32
16 16 32
16 16 32
16 16 32
16 16 32
16 16 32
16 16 32
16 16 32
16 16 32
16 16 32
16 16 32
16 16 32
16 16 32
16 16 32
16 16 32
16 16 32
16 16 32
16 16 32
16 16 32
16 16 32
16 16 32
16 16 32
16 16 32
16 16 32
16 16 32
16 16 32
16 16 32
16 16 32
16 16 32
16 16 32
16 16 32
16 16 32
16 16 32
16 16 32
16 16 32
16 16 32
16 16 32
16 16 32
16 16 32
16 16 32
16 16 32
16 16 32
16 16 32
16 16 32
16 16 32
16 16 32
16 16 32
16 16 32
16 16 32
16 16 32
16 16 32
16 16 32
16 16 32
16 16 32
16 16 32
16 16 32
16 16 32
16 16 32
16 16 32
16 16 32
16 16 32
16 16 32
16 16 32
16 16 32
16 16 32
16 16 32
16 16 32
16 16 32
16 16 32
16 16 32
16 16 32
16 16 32
16 16 32
16 16 32
16 16 32
16 16 32
16 16 32
16 16 32
16 16 32
16 16 32
16 16 32
16 16 32
16 16 32
16 16 32
16 16 32
16 16 32
16 16 32
16 16 32
16 16 32
16 16 32
16 16 32
16 16 32
16 16 32
16 16 32
16 16 32
16 16 32
16 16 32
16 16 32
16 16 32
16 16 32
16 16 32
16 16 32
16 16 32
16 16 32
16 16 32
16 16 32
16 16 32
16 16 32
16 16 32
16 16 32
16 16 32
16 16 32
16 16 32
16 16 32
16 16 32
16 16 32
16 16 32
16 16 32
16 16 32
16 16 32
16 16 32
16 16 32
16 16 32
16 16 32
16 16 32
16 16 32
16 16 32
16 16 32
16 16 32
16 16 32
16 16 32
16 16 32
16 16 32
16 16 32
16 16 32
16 16 32
16 16 32
16 16 32
16 16 32
16 16 32
16 16 32
16 16 32
16 16 32
16 16 32
16 16 32
16 16 32
16 16 32
16 16 32
16 16 32
16 16 32
16 16 32
16 16 32
16 16 32
16 16 32
16 16 32
16 16 32
16 16 32
16 16 32
16 16 32
16 16 32
16 16 32
16 16 32
16 16 32
16 16 32
16 16 32
16 16 32
16 16 32
16 16 32
16 16 32
16 16 32
16 16 32
16 16 32
16 16 32
16 16 32
16 16 32
16 16 32
16 16 32
16 16 32
16 16 32
16 16 32
16 16 32
16 16 32
16 16 32
16 16 32
16 16 32
16 16 32
16 16 32
16 16 32
16 16 32
16 16 32
16 16 32
16 16 32
16 16 32
16 16 32
16 16 32
16 16 32
16 16 32
16 16 32
16 16 32
16 16 32
16 16 32
16 16 32
16 16 32
16 16 32
16 16 32
16 16 32
16 16 32
16 16 32
16 16 32
16 16 32
16 16 32
16 16 32
16 16 32
16 16 32
16 16 32
16 16 32
16 16 32
16 16 32
16 16 32
16 16 32
16 16 32
16 16 32
16 16 32
16 16 32
16 16 32
16 16 32
16 16 32
16 16 32
16 16 32
16 16 32
16 16 32
16 16 32
16 16 32
16 16 32
16 16 32
16 16 32
16 16 32
16 16 32
16 16 32
16 16 32
16 16 32
16 16 32
16 16 32
16 16 32
16 16 32
16 16 32
16 16 32
16 16 32
16 16 32
16 16 32
16 16 32
16 16 32
16 16 32
16 16 32
16 16 32
16 16 32
16 16 32
16 16 32
16 16 32
16 16 32
16 16 32
16 16 32
16 16 32
16 16 32
16 16 32
16 16 32
16 16 32
16 16 32
16 16 32
16 16 32
16 16 32
16 16 32
16 16 32
16 16 32
16 16 32
16 16 32
16 16 32
16 16 32
16 16 32
16 16 32
16 16 32
16 16 32
16 16 32
16 16 32
16 16 32
16 16 32
16 16 32
16 16 32
16 16 32
16 16 32
16 16 32
16 16 32
16 16 32
16 16 32
16 16 32
16 16 32
16 16 32
16 16 32
16 16 32
16 16 32
16 16 32
16 16 32
16 16 32
16 16 32
16 16 32
16 16 32
16 16 32
16 16 32
16 16 32
16 16 32
16 16 32
16 16 32
16 16 32
16 16 32
16 16 32
16 16 32
16 16 32
16 16 32
16 16 32
16 16 32
16 16 32
16 16 32
16 16 32
16 16 32
16 16 32
16 16 32
16 16 32
16 16 32
255 255 255
255 255 255
16 16 32
16 16 32
16 16 32
16 16 32
255 255 255
255 255 255
16 16 32
16 16 32
16 16 32
16 16 32
16 16 32
16 16 32
16 16 32
16 16 32
16 16 32
16 16 32
16 16 32
16 16 32
255 255 255
255 255 255
16 16 32
16 16 32
16 16 32
16 16 32
16 16 32
16 16 32
16 16 32
16 16 32
16 16 32
16 16 32
16 16 32
16 16 32
16 16 32
16 16 32
16 16 32
16 16 32
16 16 32
16 16 32
16 16 32
16 16 32
16 16 32
16 16 32
16 16 32
16 16 32
16 16 32
16 16 32
255 255 255
255 255 255
16 16 32
16 16 32
16 16 32
16 16 32
255 255 255
255 255 255
255 255 255
255 255 255
16 16 32
16 16 32
16 16 32
16 16 32
16 16 32
16 16 32
255 255 255
255 255 255
16 16 32
16 16 32
16 16 32
16 16 32
16 16 32
16 16 32
16 16 32
16 16 32
16 16 32
16 16 32
16 16 32
16 16 32
16 16 32
16 16 32
255 255 255
255 255 255
16 16 32
16 16 32
16 16 32
16 16 32
16 16 32
16 16 32
255 255 255
255 255 255
16 16 32
16 16 32
16 16 32
16 16 32
16 16 32
16 16 32
16 16 32
16 16 32
16 16 32
16 16 32
255 255 255
255 255 255
16 16 32
16 16 32
16 16 32
16 16 32
16 16 32
16 16 32
16 16 32
16 16 32
16 16 32
16 16 32
16 16 32
16 16 32
16 16 32
16 16 32
16 16 32
16 16 32
16 16 32
16 16 32
16 16 32
16 16 32
16 16 32
16 16 32
16 16 32
16 16 32
16 16 32
16 16 32
16 16 32
16 16 32
255 255 255
255 255 255
16 16 32
16 16 32
16 16 32
16 16 32
16 16 32
16 16 32
16 16 32
16 16 32
16 16 32
16 16 32
16 16 32
16 16 32
16 16 32
16 16 32
16 16 32
16 16 32
16 16 32
16 16 32
16 16 32
16 16 32
16 16 32
16 16 32
16 16 32
16 16 32
16 16 32
16 16 32
16 16 32
16 16 32
255 255 255
255 255 255
16 16 32
16 16 32
16 16 32
16 16 32
16 16 32
16 16 32
255 255 255
255 255 255
16 16 32
16 16 32
16 16 32
16 16 32
16 16 32
16 16 32
255 255 255
255 255 255
16 16 32
16 16 32
16 16 32
16 16 32
16 16 32
16 16 32
255 255 255
255 255 255
16 16 32
16 16 32
16 16 32
16 16 32
16 16 32
16 16 32
255 255 255
255 255 255
16 16 32
16 16 32
16 16 32
16 16 32
16 16 32
16 16 32
16 16 32
16 16 32
16 16 32
16 16 32
16 16 32
16 16 32
16 16 32
16 16 32
255 255 255
255 255 255
16 16 32
16 16 32
16 16 32
16 16 32
16 16 32
16 16 32
255 255 255
255 255 255
16 16 32
16 16 32
16 16 32
16 16 32
16 16 32
16 16 32
16 16 32
16 16 32
16 16 32
16 16 32
16 16 32
16 16 32
16 16 32
16 16 32
16 16 32
16 16 32
16 16 32
16 16 32
16 16 32
16 16 32
16 16 32
16 16 32
255 255 255
255 255 255
16 16 32
16 16 32
16 16 32
16 16 32
16 16 32
16 16 32
16 16 32
16 16 32
16 16 32
16 16 32
16 16 32
16 16 32
16 16 32
16 16 32
255 255 255
255 255 255
16 16 32
16 16 32
16 16 32
16 16 32
255 255 255
255 255 255
16 16 32
16 16 32
16 16 32
16 16 32
16 16 32
16 16 32
16 16 32
16 16 32
255 255 255
255 255 255
16 16 32
16 16 32
16 16 32
16 16 32
16 16 32
16 16 32
16 16 32
16 16 32
16 16 32
16 16 32
16 16 32
16 16 32
16 16 32
16 16 32
16 16 32
16 16 32
255 255 255
255 255 255
16 16 32
16 16 32
255 255 255
255 255 255
16 16 32
16 16 32
16 16 32
16 16 32
16 16 32
16 16 32
16 16 32
16 16 32
16 16 32
16 16 32
16 16 32
16 16 32
16 16 32
16 16 32
16 16 32
16 16 32
16 16 32
16 16 32
16 16 32
16 16 32
16 16 32
16 16 32
16 16 32
16 16 32
16 16 32
16 16 32
16 16 32
16 16 32
16 16 32
16 16 32
16 16 32
16 16 32
16 16 32
16 16 32
16 16 32
16 16 32
16 16 32
16 16 32
16 16 32
16 16 32
16 16 32
16 16 32
16 16 32
16 16 32
16 16 32
16 16 32
16 16 32
16 16 32
16 16 32
16 16 32
16 16 32
16 16 32
16 16 32
16 16 32
16 16 32
16 16 32
255 255 255
255 255 255
16 16 32
16 16 32
16 16 32
16 16 32
255 255 255
255 255 255
16 16 32
16 16 32
16 16 32
16 16 32
16 16 32
16 16 32
16 16 32
16 16 32
16 16 32
16 16 32
255 255 255
255 255 255
16 16 32
16 16 32
16 16 32
16 16 32
16 16 32
16 16 32
16 16 32
16 16 32
16 16 32
16 16 32
16 16 32
16 16 32
16 16 32
16 16 32
16 16 32
16 16 32
16 16 32
16 16 32
16 16 32
16 16 32
16 16 32
16 16 32
16 16 32
16 16 32
16 16 32
16 16 32
16 16 32
16 16 32
16 16 32
16 16 32
16 16 32
16 16 32
255 255 255
255 255 255
16 16 32
16 16 32
16 16 32
16 16 32
16 16 32
16 16 32
16 16 32
16 16 32
16 16 32
16 16 32
16 16 32
16 16 32
16 16 32
16 16 32
16 16 32
16 16 32
16 16 32
16 16 32
255 255 255
255 255 255
16 16 32
16 16 32
16 16 32
16 16 32
16 16 32
16 16 32
16 16 32
16 16 32
16 16 32
16 16 32
16 16 32
16 16 32
16 16 32
16 16 32
16 16 32
16 16 32
16 16 32
16 16 32
16 16 32
16 16 32
16 16 32
16 16 32
16 16 32
16 16 32
255 255 255
255 255 255
16 16 32
16 16 32
16 16 32
16 16 32
16 16 32
16 16 32
16 16 32
16 16 32
16 16 32
16 16 32
16 16 32
16 16 32
16 16 32
16 16 32
16 16 32
16 16 32
16 16 32
16 16 32
16 16 32
16 16 32
16 16 32
16 16 32
16 16 32
16 16 32
16 16 32
16 16 32
16 16 32
16 16 32
255 255 255
255 255 255
16 16 32
16 16 32
16 16 32
16 16 32
16 16 32
16 16 32
255 255 255
255 255 255
16 16 32
16 16 32
16 16 32
16 16 32
16 16 32
16 16 32
255 255 255
255 255 255
16 16 32
16 16 32
16 16 32
16 16 32
16 16 32
16 16 32
255 255 255
255 255 255
16 16 32
16 16 32
16 16 32
16 16 32
16 16 32
16 16 32
255 255 255
255 255 255
16 16 32
16 16 32
16 16 32
16 16 32
16 16 32
16 16 32
16 16 32
16 16 32
16 16 32
16 16 32
16 16 32
16 16 32
16 16 32
16 16 32
255 255 255
255 255 255
16 16 32
16 16 32
16 16 32
16 16 32
16 16 32
16 16 32
255 255 255
255 255 255
16 16 32
16 16 32
16 16 32
16 16 32
16 16 32
16 16 32
16 16 32
16 16 32
16 16 32
16 16 32
16 16 32
16 16 32
16 16 32
16 16 32
16 16 32
16 16 32
16 16 32
16 16 32
16 16 32
16 16 32
16 16 32
16 16 32
16 16 32
16 16 32
16 16 32
16 16 32
16 16 32
16 16 32
16 16 32
16 16 32
16 16 32
16 16 32
16 16 32
16 16 32
16 16 32
16 16 32
16 16 32
16 16 32
16 16 32
16 16 32
16 16 32
16 16 32
16 16 32
16 16 32
16 16 32
16 16 32
255 255 255
255 255 255
16 16 32
16 16 32
16 16 32
16 16 32
16 16 32
16 16 32
16 16 32
16 16 32
16 16 32
16 16 32
16 16 32
16 16 32
16 16 32
16 16 32
16 16 32
16 16 32
16 16 32
16 16 32
16 16 32
16 16 32
16 16 32
16 16 32
16 16 32
16 16 32
16 16 32
16 16 32
16 16 32
16 16 32
16 16 32
16 16 32
16 16 32
16 16 32
16 16 32
16 16 32
16 16 32
16 16 32
16 16 32
16 16 32
16 16 32
16 16 32
16 16 32
16 16 32
16 16 32
16 16 32
16 16 32
16 16 32
16 16 32
16 16 32
16 16 32
16 16 32
16 16 32
16 16 32
16 16 32
16 16 32
16 16 32
16 16 32
16 16 32
16 16 32
16 16 32
16 16 32
16 16 32
16 16 32
16 16 32
16 16 32
16 16 32
16 16 32
16 16 32
16 16 32
16 16 32
16 16 32
16 16 32
16 16 32
16 16 32
16 16 32
16 16 32
16 16 32
16 16 32
16 16 32
16 16 32
16 16 32
16 16 32
16 16 32
16 16 32
16 16 32
16 16 32
16 16 32
16 16 32
16 16 32
16 16 32
16 16 32
16 16 32
16 16 32
16 16 32
16 16 32
16 16 32
16 16 32
16 16 32
16 16 32
16 16 32
16 16 32
16 16 32
16 16 32
16 16 32
16 16 32
16 16 32
16 16 32
16 16 32
16 16 32
16 16 32
16 16 32
16 16 32
16 16 32
16 16 32
16 16 32
16 16 32
16 16 32
16 16 32
16 16 32
16 16 32
16 16 32
16 16 32
16 16 32
16 16 32
16 16 32
16 16 32
16 16 32
16 16 32
16 16 32
16 16 32
16 16 32
16 16 32
16 16 32
16 16 32
16 16 32
16 16 32
16 16 32
16 16 32
16 16 32
16 16 32
16 16 32
16 16 32
16 16 32
16 16 32
16 16 32
16 16 32
16 16 32
16 16 32
16 16 32
16 16 32
16 16 32
16 16 32
16 16 32
16 16 32
16 16 32
16 16 32
16 16 32
16 16 32
16 16 32
16 16 32
16 16 32
16 16 32
16 16 32
16 16 32
16 16 32
16 16 32
16 16 32
16 16 32
16 16 32
16 16 32
16 16 32
16 16 32
16 16 32
16 16 32
16 16 32
16 16 32
16 16 32
16 16 32
16 16 32
16 16 32
16 16 32
16 16 32
16 16 32
16 16 32
16 16 32
16 16 32
16 16 32
16 16 32
16 16 32
16 16 32
16 16 32
16 16 32
16 16 32
16 16 32
16 16 32
16 16 32
16 16 32
16 16 32
16 16 32
16 16 32
16 16 32
16 16 32
16 16 32
16 16 32
16 16 32
16 16 32
16 16 32
16 16 32
16 16 32
16 16 32
16 16 32
16 16 32
16 16 32
16 16 32
16 16 32
16 16 32
16 16 32
16 16 32
16 16 32
16 16 32
16 16 32
16 16 32
16 16 32
16 16 32
16 16 32
16 16 32
16 16 32
16 16 32
16 16 32
16 16 32
16 16 32
16 16 32
16 16 32
16 16 32
16 16 32
16 16 32
16 16 32
16 16 32
16 16 32
16 16 32
16 16 32
16 16 32
16 16 32
16 16 32
16 16 32
16 16 32
16 16 32
16 16 32
16 16 32
16 16 32
16 16 32
16 16 32
16 16 32
16 16 32
16 16 32
16 16 32
16 16 32
16 16 32
16 16 32
16 16 32
16 16 32
16 16 32
16 16 32
16 16 32
16 16 32
16 16 32
16 16 32
16 16 32
16 16 32
16 16 32
16 16 32
16 16 32
16 16 32
16 16 32
16 16 32
16 16 32
16 16 32
16 16 32
16 16 32
16 16 32
16 16 32
16 16 32
16 16 32
16 16 32
16 16 32
16 16 32
16 16 32
16 16 32
16 16 32
16 16 32
16 16 32
16 16 32
16 16 32
16 16 32
16 16 32
16 16 32
16 16 32
16 16 32
16 16 32
16 16 32
16 16 32
16 16 32
16 16 32
16 16 32
16 16 32
16 16 32
16 16 32
16 16 32
16 16 32
16 16 32
16 16 32
16 16 32
16 16 32
16 16 32
16 16 32
16 16 32
16 16 32
16 16 32
16 16 32
16 16 32
16 16 32
16 16 32
16 16 32
16 16 32
16 16 32
16 16 32
16 16 32
16 16 32
16 16 32
16 16 32
16 16 32
16 16 32
16 16 32
16 16 32
16 16 32
16 16 32
16 16 32
16 16 32
16 16 32
16 16 32
16 16 32
16 16 32
16 16 32
16 16 32
16 16 32
16 16 32
16 16 32
16 16 32
16 16 32
16 16 32
16 16 32
16 16 32
16 16 32
16 16 32
16 16 32
16 16 32
16 16 32
16 16 32
16 16 32
16 16 32
16 16 32
16 16 32
16 16 32
16 16 32
16 16 32
16 16 32
16 16 32
16 16 32
16 16 32
16 16 32
16 16 32
16 16 32
16 16 32
16 16 32
16 16 32
16 16 32
16 16 32
16 16 32
16 16 32
16 16 32
16 16 32
16 16 32
16 16 32
16 16 32
16 16 32
16 16 32
16 16 32
16 16 32
16 16 32
16 16 32
16 16 32
16 16 32
16 16 32
16 16 32
16 16 32
16 16 32
16 16 32
16 16 32
16 16 32
16 16 32
16 16 32
16 16 32
16 16 32
16 16 32
16 16 32
16 16 32
16 16 32
16 16 32
16 16 32
16 16 32
16 16 32
16 16 32
16 16 32
16 16 32
16 16 32
16 16 32
16 16 32
16 16 32
16 16 32
16 16 32
16 16 32
16 16 32
16 16 32
16 16 32
16 16 32
16 16 32
16 16 32
16 16 32
16 16 32
16 16 32
16 16 32
16 16 32
16 16 32
16 16 32
16 16 32
16 16 32
16 16 32
16 16 32
16 16 32
16 16 32
16 16 32
16 16 32
16 16 32
16 16 32
16 16 32
16 16 32
16 16 32
16 16 32
16 16 32
16 16 32
16 16 32
16 16 32
16 16 32
16 16 32
16 16 32
255 255 255
255 255 255
16 16 32
16 16 32
16 16 32
16 16 32
255 255 255
255 255 255
16 16 32
16 16 32
16 16 32
16 16 32
16 16 32
16 16 32
16 16 32
16 16 32
16 16 32
16 16 32
16 16 32
16 16 32
255 255 255
255 255 255
16 16 32
16 16 32
16 16 32
16 16 32
16 16 32
16 16 32
16 16 32
16 16 32
16 16 32
16 16 32
16 16 32
16 16 32
16 16 32
16 16 32
16 16 32
16 16 32
16 16 32
16 16 32
16 16 32
16 16 32
16 16 32
16 16 32
16 16 32
16 16 32
16 16 32
16 16 32
255 255 255
255 255 255
16 16 32
16 16 32
16 16 32
16 16 32
255 255 255
255 255 255
255 255 255
255 255 255
16 16 32
16 16 32
16 16 32
16 16 32
16 16 32
16 16 32
255 255 255
255 255 255
16 16 32
16 16 32
16 16 32
16 16 32
16 16 32
16 16 32
16 16 32
16 16 32
16 16 32
16 16 32
16 16 32
16 16 32
16 16 32
16 16 32
255 255 255
255 255 255
16 16 32
16 16 32
16 16 32
16 16 32
16 16 32
16 16 32
255 255 255
255 255 255
16 16 32
16 16 32
16 16 32
16 16 32
16 16 32
16 16 32
16 16 32
16 16 32
16 16 32
16 16 32
255 255 255
255 255 255
16 16 32
16 16 32
16 16 32
16 16 32
16 16 32
16 16 32
16 16 32
16 16 32
16 16 32
16 16 32
16 16 32
16 16 32
16 16 32
16 16 32
16 16 32
16 16 32
16 16 32
16 16 32
16 16 32
16 16 32
16 16 32
16 16 32
16 16 32
16 16 32
16 16 32
16 16 32
16 16 32
16 16 32
255 255 255
255 255 255
16 16 32
16 16 32
16 16 32
16 16 32
16 16 32
16 16 32
16 16 32
16 16 32
16 16 32
16 16 32
16 16 32
16 16 32
16 16 32
16 16 32
16 16 32
16 16 32
16 16 32
16 16 32
16 16 32
16 16 32
16 16 32
16 16 32
16 16 32
16 16 32
16 16 32
16 16 32
16 16 32
16 16 32
255 255 255
255 255 255
16 16 32
16 16 32
16 16 32
16 16 32
16 16 32
16 16 32
255 255 255
255 255 255
16 16 32
16 16 32
16 16 32
16 16 32
16 16 32
16 16 32
255 255 255
255 255 255
16 16 32
16 16 32
16 16 32
16 16 32
16 16 32
16 16 32
255 255 255
255 255 255
16 16 32
16 16 32
16 16 32
16 16 32
16 16 32
16 16 32
255 255 255
255 255 255
16 16 32
16 16 32
16 16 32
16 16 32
16 16 32
16 16 32
16 16 32
16 16 32
16 16 32
16 16 32
16 16 32
16 16 32
16 16 32
16 16 32
255 255 255
255 255 255
16 16 32
16 16 32
16 16 32
16 16 32
16 16 32
16 16 32
255 255 255
255 255 255
16 16 32
16 16 32
16 16 32
16 16 32
16 16 32
16 16 32
16 16 32
16 16 32
16 16 32
16 16 32
16 16 32
16 16 32
16 16 32
16 16 32
16 16 32
16 16 32
16 16 32
16 16 32
16 16 32
16 16 32
16 16 32
16 16 32
255 255 255
255 255 255
16 16 32
16 16 32
16 16 32
16 16 32
16 16 32
16 16 32
16 16 32
16 16 32
16 16 32
16 16 32
16 16 32
16 16 32
16 16 32
16 16 32
255 255 255
255 255 255
16 16 32
16 16 32
16 16 32
16 16 32
255 255 255
255 255 255
16 16 32
16 16 32
16 16 32
16 16 32
16 16 32
16 16 32
16 16 32
16 16 32
255 255 255
255 255 255
16 16 32
16 16 32
16 16 32
16 16 32
16 16 32
16 16 32
16 16 32
16 16 32
16 16 32
16 16 32
16 16 32
16 16 32
16 16 32
16 16 32
16 16 32
16 16 32
255 255 255
255 255 255
16 16 32
16 16 32
255 255 255
255 255 255
16 16 32
16 16 32
16 16 32
16 16 32
16 16 32
16 16 32
16 16 32
16 16 32
16 16 32
16 16 32
16 16 32
16 16 32
16 16 32
16 16 32
16 16 32
16 16 32
16 16 32
16 16 32
16 16 32
16 16 32
16 16 32
16 16 32
16 16 32
16 16 32
16 16 32
16 16 32
16 16 32
16 16 32
16 16 32
16 16 32
16 16 32
16 16 32
16 16 32
16 16 32
16 16 32
16 16 32
16 16 32
16 16 32
16 16 32
16 16 32
16 16 32
16 16 32
16 16 32
16 16 32
16 16 32
16 16 32
16 16 32
16 16 32
16 16 32
16 16 32
16 16 32
16 16 32
16 16 32
16 16 32
16 16 32
16 16 32
255 255 255
255 255 255
16 16 32
16 16 32
16 16 32
16 16 32
255 255 255
255 255 255
16 16 32
16 16 32
16 16 32
16 16 32
16 16 32
16 16 32
16 16 32
16 16 32
16 16 32
16 16 32
255 255 255
255 255 255
16 16 32
16 16 32
16 16 32
16 16 32
16 16 32
16 16 32
16 16 32
16 16 32
16 16 32
16 16 32
16 16 32
16 16 32
16 16 32
16 16 32
16 16 32
16 16 32
16 16 32
16 16 32
16 16 32
16 16 32
16 16 32
16 16 32
16 16 32
16 16 32
16 16 32
16 16 32
16 16 32
16 16 32
16 16 32
16 16 32
16 16 32
16 16 32
255 255 255
255 255 255
16 16 32
16 16 32
16 16 32
16 16 32
16 16 32
16 16 32
16 16 32
16 16 32
16 16 32
16 16 32
16 16 32
16 16 32
16 16 32
16 16 32
16 16 32
16 16 32
16 16 32
16 16 32
255 255 255
255 255 255
16 16 32
16 16 32
16 16 32
16 16 32
16 16 32
16 16 32
16 16 32
16 16 32
16 16 32
16 16 32
16 16 32
16 16 32
16 16 32
16 16 32
16 16 32
16 16 32
16 16 32
16 16 32
16 16 32
16 16 32
16 16 32
16 16 32
16 16 32
16 16 32
255 255 255
255 255 255
16 16 32
16 16 32
16 16 32
16 16 32
16 16 32
16 16 32
16 16 32
16 16 32
16 16 32
16 16 32
16 16 32
16 16 32
16 16 32
16 16 32
16 16 32
16 16 32
16 16 32
16 16 32
16 16 32
16 16 32
16 16 32
16 16 32
16 16 32
16 16 32
16 16 32
16 16 32
16 16 32
16 16 32
255 255 255
255 255 255
16 16 32
16 16 32
16 16 32
16 16 32
16 16 32
16 16 32
255 255 255
255 255 255
16 16 32
16 16 32
16 16 32
16 16 32
16 16 32
16 16 32
255 255 255
255 255 255
16 16 32
16 16 32
16 16 32
16 16 32
16 16 32
16 16 32
255 255 255
255 255 255
16 16 32
16 16 32
16 16 32
16 16 32
16 16 32
16 16 32
255 255 255
255 255 255
16 16 32
16 16 32
16 16 32
16 16 32
16 16 32
16 16 32
16 16 32
16 16 32
16 16 32
16 16 32
16 16 32
16 16 32
16 16 32
16 16 32
255 255 255
255 255 255
16 16 32
16 16 32
16 16 32
16 16 32
16 16 32
16 16 32
255 255 255
255 255 255
16 16 32
16 16 32
16 16 32
16 16 32
16 16 32
16 16 32
16 16 32
16 16 32
16 16 32
16 16 32
16 16 32
16 16 32
16 16 32
16 16 32
16 16 32
16 16 32
16 16 32
16 16 32
16 16 32
16 16 32
16 16 32
16 16 32
16 16 32
16 16 32
16 16 32
16 16 32
16 16 32
16 16 32
16 16 32
16 16 32
16 16 32
16 16 32
16 16 32
16 16 32
16 16 32
16 16 32
16 16 32
16 16 32
16 16 32
16 16 32
16 16 32
16 16 32
16 16 32
16 16 32
16 16 32
16 16 32
255 255 255
255 255 255
16 16 32
16 16 32
16 16 32
16 16 32
16 16 32
16 16 32
16 16 32
16 16 32
16 16 32
16 16 32
16 16 32
16 16 32
16 16 32
16 16 32
16 16 32
16 16 32
16 16 32
16 16 32
16 16 32
16 16 32
16 16 32
16 16 32
16 16 32
16 16 32
16 16 32
16 16 32
16 16 32
16 16 32
16 16 32
16 16 32
16 16 32
16 16 32
16 16 32
16 16 32
16 16 32
16 16 32
16 16 32
16 16 32
16 16 32
16 16 32
16 16 32
16 16 32
16 16 32
16 16 32
16 16 32
16 16 32
16 16 32
16 16 32
16 16 32
16 16 32
16 16 32
16 16 32
16 16 32
16 16 32
16 16 32
16 16 32
16 16 32
16 16 32
16 16 32
16 16 32
16 16 32
16 16 32
16 16 32
16 16 32
16 16 32
16 16 32
16 16 32
16 16 32
16 16 32
16 16 32
16 16 32
16 16 32
16 16 32
16 16 32
16 16 32
16 16 32
16 16 32
16 16 32
16 16 32
16 16 32
16 16 32
16 16 32
16 16 32
16 16 32
16 16 32
16 16 32
16 16 32
16 16 32
16 16 32
16 16 32
16 16 32
16 16 32
16 16 32
16 16 32
16 16 32
16 16 32
16 16 32
16 16 32
16 16 32
16 16 32
16 16 32
16 16 32
16 16 32
16 16 32
16 16 32
16 16 32
16 16 32
16 16 32
16 16 32
16 16 32
16 16 32
16 16 32
16 16 32
16 16 32
16 16 32
16 16 32
16 16 32
16 16 32
16 16 32
16 16 32
16 16 32
16 16 32
16 16 32
16 16 32
16 16 32
16 16 32
16 16 32
16 16 32
16 16 32
16 16 32
16 16 32
16 16 32
16 16 32
16 16 32
16 16 32
16 16 32
16 16 32
16 16 32
16 16 32
16 16 32
16 16 32
16 16 32
16 16 32
16 16 32
16 16 32
16 16 32
16 16 32
16 16 32
16 16 32
16 16 32
16 16 32
16 16 32
16 16 32
16 16 32
16 16 32
16 16 32
16 16 32
16 16 32
16 16 32
16 16 32
16 16 32
16 16 32
16 16 32
16 16 32
16 16 32
16 16 32
16 16 32
16 16 32
16 16 32
16 16 32
16 16 32
16 16 32
16 16 32
16 16 32
16 16 32
16 16 32
16 16 32
16 16 32
16 16 32
16 16 32
16 16 32
16 16 32
16 16 32
16 16 32
16 16 32
16 16 32
16 16 32
16 16 32
16 16 32
16 16 32
16 16 32
16 16 32
16 16 32
16 16 32
16 16 32
16 16 32
16 16 32
16 16 32
16 16 32
16 16 32
16 16 32
16 16 32
16 16 32
16 16 32
16 16 32
16 16 32
16 16 32
16 16 32
16 16 32
16 16 32
16 16 32
16 16 32
16 16 32
16 16 32
16 16 32
16 16 32
16 16 32
16 16 32
16 16 32
16 16 32
16 16 32
16 16 32
16 16 32
16 16 32
16 16 32
16 16 32
16 16 32
16 16 32
16 16 32
16 16 32
16 16 32
16 16 32
16 16 32
16 16 32
16 16 32
16 16 32
16 16 32
16 16 32
16 16 32
16 16 32
16 16 32
16 16 32
16 16 32
16 16 32
16 16 32
16 16 32
16 16 32
16 16 32
16 16 32
16 16 32
16 16 32
16 16 32
16 16 32
16 16 32
16 16 32
16 16 32
16 16 32
16 16 32
16 16 32
16 16 32
16 16 32
16 16 32
16 16 32
16 16 32
16 16 32
16 16 32
16 16 32
16 16 32
16 16 32
16 16 32
16 16 32
16 16 32
16 16 32
16 16 32
16 16 32
16 16 32
16 16 32
16 16 32
16 16 32
16 16 32
16 16 32
16 16 32
16 16 32
16 16 32
16 16 32
16 16 32
16 16 32
16 16 32
16 16 32
16 16 32
16 16 32
16 16 32
16 16 32
16 16 32
16 16 32
16 16 32
16 16 32
16 16 32
16 16 32
16 16 32
16 16 32
16 16 32
16 16 32
16 16 32
16 16 32
16 16 32
16 16 32
16 16 32
16 16 32
16 16 32
16 16 32
16 16 32
16 16 32
16 16 32
16 16 32
16 16 32
16 16 32
16 16 32
16 16 32
16 16 32
16 16 32
16 16 32
16 16 32
16 16 32
16 16 32
16 16 32
16 16 32
16 16 32
16 16 32
16 16 32
16 16 32
16 16 32
16 16 32
16 16 32
16 16 32
16 16 32
16 16 32
16 16 32
16 16 32
16 16 32
16 16 32
16 16 32
16 16 32
16 16 32
16 16 32
16 16 32
16 16 32
16 16 32
16 16 32
16 16 32
16 16 32
16 16 32
16 16 32
16 16 32
16 16 32
16 16 32
16 16 32
16 16 32
16 16 32
16 16 32
16 16 32
16 16 32
16 16 32
16 16 32
16 16 32
16 16 32
16 16 32
16 16 32
16 16 32
16 16 32
16 16 32
16 16 32
16 16 32
16 16 32
16 16 32
16 16 32
16 16 32
16 16 32
16 16 32
16 16 32
16 16 32
16 16 32
16 16 32
16 16 32
16 16 32
16 16 32
16 16 32
16 16 32
16 16 32
16 16 32
16 16 32
16 16 32
16 16 32
16 16 32
16 16 32
16 16 32
16 16 32
16 16 32
16 16 32
16 16 32
16 16 32
16 16 32
16 16 32
16 16 32
16 16 32
16 16 32
16 16 32
16 16 32
16 16 32
16 16 32
16 16 32
16 16 32
16 16 32
16 16 32
16 16 32
16 16 32
16 16 32
16 16 32
16 16 32
16 16 32
16 16 32
16 16 32
16 16 32
16 16 32
16 16 32
16 16 32
16 16 32
16 16 32
16 16 32
16 16 32
16 16 32
16 16 32
16 16 32
16 16 32
16 16 32
16 16 32
16 16 32
16 16 32
16 16 32
16 16 32
16 16 32
16 16 32
16 16 32
16 16 32
16 16 32
16 16 32
16 16 32
16 16 32
16 16 32
16 16 32
16 16 32
16 16 32
16 16 32
16 16 32
255 255 255
255 255 255
16 16 32
16 16 32
16 16 32
16 16 32
16 16 32
16 16 32
255 255 255
255 255 255
16 16 32
16 16 32
16 16 32
16 16 32
16 16 32
16 16 32
16 16 32
16 16 32
255 255 255
255 255 255
255 255 255
255 255 255
255 255 255
255 255 255
16 16 32
16 16 32
16 16 32
16 16 32
16 16 32
16 16 32
16 16 32
16 16 32
16 16 32
16 16 32
16 16 32
16 16 32
16 16 32
16 16 32
16 16 32
16 16 32
16 16 32
16 16 32
16 16 32
16 16 32
16 16 32
16 16 32
16 16 32
16 16 32
255 255 255
255 255 255
16 16 32
16 16 32
16 16 32
16 16 32
16 16 32
16 16 32
255 255 255
255 255 255
16 16 32
16 16 32
16 16 32
16 16 32
16 16 32
16 16 32
255 255 255
255 255 255
255 255 255
255 255 255
255 255 255
255 255 255
255 255 255
255 255 255
255 255 255
255 255 255
16 16 32
16 16 32
16 16 32
16 16 32
16 16 32
16 16 32
255 255 255
255 255 255
16 16 32
16 16 32
16 16 32
16 16 32
16 16 32
16 16 32
255 255 255
255 255 255
16 16 32
16 16 32
16 16 32
16 16 32
16 16 32
16 16 32
16 16 32
16 16 32
16 16 32
16 16 32
255 255 255
255 255 255
16 16 32
16 16 32
16 16 32
16 16 32
16 16 32
16 16 32
16 16 32
16 16 32
16 16 32
16 16 32
16 16 32
16 16 32
16 16 32
16 16 32
16 16 32
16 16 32
16 16 32
16 16 32
16 16 32
16 16 32
16 16 32
16 16 32
16 16 32
16 16 32
16 16 32
16 16 32
255 255 255
255 255 255
16 16 32
16 16 32
16 16 32
16 16 32
16 16 32
16 16 32
16 16 32
16 16 32
16 16 32
16 16 32
16 16 32
16 16 32
16 16 32
16 16 32
16 16 32
16 16 32
16 16 32
16 16 32
16 16 32
16 16 32
16 16 32
16 16 32
16 16 32
16 16 32
16 16 32
16 16 32
16 16 32
16 16 32
16 16 32
16 16 32
255 255 255
255 255 255
16 16 32
16 16 32
16 16 32
16 16 32
16 16 32
16 16 32
255 255 255
255 255 255
16 16 32
16 16 32
16 16 32
16 16 32
16 16 32
16 16 32
16 16 32
16 16 32
255 255 255
255 255 255
255 255 255
255 255 255
255 255 255
255 255 255
16 16 32
16 16 32
16 16 32
16 16 32
16 16 32
16 16 32
16 16 32
16 16 32
255 255 255
255 255 255
255 255 255
255 255 255
255 255 255
255 255 255
255 255 255
255 255 255
255 255 255
255 255 255
16 16 32
16 16 32
16 16 32
16 16 32
16 16 32
16 16 32
255 255 255
255 255 255
255 255 255
255 255 255
255 255 255
255 255 255
255 255 255
255 255 255
16 16 32
16 16 32
16 16 32
16 16 32
16 16 32
16 16 32
16 16 32
16 16 32
16 16 32
16 16 32
16 16 32
16 16 32
16 16 32
16 16 32
16 16 32
16 16 32
16 16 32
16 16 32
16 16 32
16 16 32
16 16 32
16 16 32
16 16 32
16 16 32
255 255 255
255 255 255
16 16 32
16 16 32
16 16 32
16 16 32
16 16 32
16 16 32
16 16 32
16 16 32
16 16 32
16 16 32
16 16 32
16 16 32
16 16 32
16 16 32
255 255 255
255 255 255
16 16 32
16 16 32
16 16 32
16 16 32
16 16 32
16 16 32
255 255 255
255 255 255
16 16 32
16 16 32
16 16 32
16 16 32
16 16 32
16 16 32
255 255 255
255 255 255
255 255 255
255 255 255
255 255 255
255 255 255
255 255 255
255 255 255
255 255 255
255 255 255
16 16 32
16 16 32
16 16 32
16 16 32
16 16 32
16 16 32
16 16 32
16 16 32
16 16 32
16 16 32
255 255 255
255 255 255
16 16 32
16 16 32
16 16 32
16 16 32
16 16 32
16 16 32
16 16 32
16 16 32
16 16 32
16 16 32
16 16 32
16 16 32
16 16 32
16 16 32
16 16 32
16 16 32
16 16 32
16 16 32
16 16 32
16 16 32
16 16 32
16 16 32
16 16 32
16 16 32
16 16 32
16 16 32
16 16 32
16 16 32
16 16 32
16 16 32
16 16 32
16 16 32
16 16 32
16 16 32
16 16 32
16 16 32
16 16 32
16 16 32
16 16 32
16 16 32
16 16 32
16 16 32
16 16 32
16 16 32
16 16 32
16 16 32
16 16 32
16 16 32
16 16 32
16 16 32
16 16 32
16 16 32
16 16 32
16 16 32
16 16 32
16 16 32
16 16 32
16 16 32
255 255 255
255 255 255
16 16 32
16 16 32
16 16 32
16 16 32
16 16 32
16 16 32
255 255 255
255 255 255
16 16 32
16 16 32
16 16 32
16 16 32
16 16 32
16 16 32
255 255 255
255 255 255
255 255 255
255 255 255
255 255 255
255 255 255
255 255 255
255 255 255
255 255 255
255 255 255
16 16 32
16 16 32
16 16 32
16 16 32
16 16 32
16 16 32
16 16 32
16 16 32
16 16 32
16 16 32
16 16 32
16 16 32
16 16 32
16 16 32
16 16 32
16 16 32
16 16 32
16 16 32
16 16 32
16 16 32
16 16 32
16 16 32
16 16 32
16 16 32
16 16 32
16 16 32
16 16 32
16 16 32
16 16 32
16 16 32
16 16 32
16 16 32
16 16 32
16 16 32
16 16 32
16 16 32
16 16 32
16 16 32
255 255 255
255 255 255
255 255 255
255 255 255
255 255 255
255 255 255
255 255 255
255 255 255
16 16 32
16 16 32
16 16 32
16 16 32
16 16 32
16 16 32
16 16 32
16 16 32
16 16 32
16 16 32
16 16 32
16 16 32
16 16 32
16 16 32
16 16 32
16 16 32
16 16 32
16 16 32
16 16 32
16 16 32
16 16 32
16 16 32
16 16 32
16 16 32
255 255 255
255 255 255
16 16 32
16 16 32
16 16 32
16 16 32
16 16 32
16 16 32
16 16 32
16 16 32
16 16 32
16 16 32
16 16 32
16 16 32
16 16 32
16 16 32
16 16 32
16 16 32
16 16 32
16 16 32
16 16 32
16 16 32
16 16 32
16 16 32
16 16 32
16 16 32
16 16 32
16 16 32
16 16 32
16 16 32
16 16 32
16 16 32
255 255 255
255 255 255
16 16 32
16 16 32
16 16 32
16 16 32
16 16 32
16 16 32
255 255 255
255 255 255
16 16 32
16 16 32
16 16 32
16 16 32
16 16 32
16 16 32
16 16 32
16 16 32
255 255 255
255 255 255
255 255 255
255 255 255
255 255 255
255 255 255
16 16 32
16 16 32
16 16 32
16 16 32
16 16 32
16 16 32
16 16 32
16 16 32
255 255 255
255 255 255
255 255 255
255 255 255
255 255 255
255 255 255
255 255 255
255 255 255
255 255 255
255 255 255
16 16 32
16 16 32
16 16 32
16 16 32
16 16 32
16 16 32
255 255 255
255 255 255
255 255 255
255 255 255
255 255 255
255 255 255
255 255 255
255 255 255
16 16 32
16 16 32
16 16 32
16 16 32
16 16 32
16 16 32
16 16 32
16 16 32
16 16 32
16 16 32
16 16 32
16 16 32
16 16 32
16 16 32
16 16 32
16 16 32
16 16 32
16 16 32
16 16 32
16 16 32
16 16 32
16 16 32
16 16 32
16 16 32
16 16 32
16 16 32
16 16 32
16 16 32
16 16 32
16 16 32
16 16 32
16 16 32
16 16 32
16 16 32
16 16 32
16 16 32
16 16 32
16 16 32
16 16 32
16 16 32
255 255 255
255 255 255
255 255 255
255 255 255
255 255 255
255 255 255
255 255 255
255 255 255
16 16 32
16 16 32
16 16 32
16 16 32
16 16 32
16 16 32
16 16 32
16 16 32
16 16 32
16 16 32
16 16 32
16 16 32
16 16 32
16 16 32
16 16 32
16 16 32
16 16 32
16 16 32
16 16 32
16 16 32
16 16 32
16 16 32
16 16 32
16 16 32
16 16 32
16 16 32
16 16 32
16 16 32
16 16 32
16 16 32
16 16 32
16 16 32
16 16 32
16 16 32
16 16 32
16 16 32
16 16 32
16 16 32
16 16 32
16 16 32
16 16 32
16 16 32
16 16 32
16 16 32
16 16 32
16 16 32
16 16 32
16 16 32
16 16 32
16 16 32
16 16 32
16 16 32
16 16 32
16 16 32
16 16 32
16 16 32
16 16 32
16 16 32
16 16 32
16 16 32
16 16 32
16 16 32
16 16 32
16 16 32
16 16 32
16 16 32
16 16 32
16 16 32
16 16 32
16 16 32
16 16 32
16 16 32
16 16 32
16 16 32
16 16 32
16 16 32
16 16 32
16 16 32
16 16 32
16 16 32
16 16 32
16 16 32
16 16 32
16 16 32
16 16 32
16 16 32
16 16 32
16 16 32
16 16 32
16 16 32
16 16 32
16 16 32
16 16 32
16 16 32
16 16 32
16 16 32
16 16 32
16 16 32
16 16 32
16 16 32
16 16 32
16 16 32
16 16 32
16 16 32
16 16 32
16 16 32
16 16 32
16 16 32
16 16 32
16 16 32
16 16 32
16 16 32
16 16 32
16 16 32
16 16 32
16 16 32
16 16 32
16 16 32
16 16 32
16 16 32
16 16 32
16 16 32
16 16 32
16 16 32
16 16 32
16 16 32
16 16 32
16 16 32
16 16 32
16 16 32
16 16 32
16 16 32
16 16 32
16 16 32
16 16 32
16 16 32
16 16 32
16 16 32
16 16 32
16 16 32
16 16 32
16 16 32
16 16 32
16 16 32
16 16 32
16 16 32
16 16 32
16 16 32
16 16 32
16 16 32
16 16 32
16 16 32
16 16 32
16 16 32
16 16 32
16 16 32
16 16 32
16 16 32
16 16 32
16 16 32
16 16 32
16 16 32
16 16 32
16 16 32
16 16 32
16 16 32
16 16 32
16 16 32
16 16 32
16 16 32
16 16 32
16 16 32
16 16 32
16 16 32
16 16 32
16 16 32
16 16 32
16 16 32
16 16 32
16 16 32
16 16 32
16 16 32
16 16 32
16 16 32
16 16 32
16 16 32
16 16 32
16 16 32
16 16 32
16 16 32
16 16 32
16 16 32
16 16 32
16 16 32
16 16 32
16 16 32
16 16 32
16 16 32
16 16 32
16 16 32
16 16 32
16 16 32
16 16 32
16 16 32
16 16 32
16 16 32
16 16 32
16 16 32
16 16 32
16 16 32
16 16 32
16 16 32
16 16 32
16 16 32
16 16 32
16 16 32
16 16 32
16 16 32
16 16 32
16 16 32
16 16 32
16 16 32
16 16 32
16 16 32
16 16 32
16 16 32
16 16 32
16 16 32
16 16 32
16 16 32
16 16 32
16 16 32
16 16 32
16 16 32
16 16 32
16 16 32
16 16 32
16 16 32
16 16 32
16 16 32
16 16 32
16 16 32
16 16 32
16 16 32
16 16 32
16 16 32
16 16 32
16 16 32
16 16 32
16 16 32
16 16 32
16 16 32
16 16 32
16 16 32
16 16 32
16 16 32
16 16 32
16 16 32
16 16 32
16 16 32
16 16 32
16 16 32
16 16 32
16 16 32
16 16 32
16 16 32
16 16 32
16 16 32
16 16 32
16 16 32
16 16 32
16 16 32
16 16 32
16 16 32
16 16 32
16 16 32
16 16 32
16 16 32
16 16 32
16 16 32
16 16 32
16 16 32
16 16 32
16 16 32
16 16 32
16 16 32
16 16 32
16 16 32
16 16 32
16 16 32
16 16 32
16 16 32
16 16 32
16 16 32
16 16 32
16 16 32
16 16 32
16 16 32
16 16 32
16 16 32
16 16 32
16 16 32
16 16 32
16 16 32
16 16 32
16 16 32
16 16 32
16 16 32
16 16 32
16 16 32
16 16 32
16 16 32
16 16 32
16 16 32
16 16 32
16 16 32
16 16 32
16 16 32
16 16 32
16 16 32
16 16 32
16 16 32
16 16 32
16 16 32
16 16 32
16 16 32
16 16 32
16 16 32
16 16 32
16 16 32
16 16 32
16 16 32
16 16 32
16 16 32
16 16 32
16 16 32
16 16 32
16 16 32
16 16 32
16 16 32
16 16 32
16 16 32
16 16 32
16 16 32
16 16 32
16 16 32
16 16 32
16 16 32
16 16 32
16 16 32
16 16 32
16 16 32
16 16 32
16 16 32
16 16 32
16 16 32
16 16 32
16 16 32
16 16 32
16 16 32
16 16 32
16 16 32
16 16 32
16 16 32
16 16 32
16 16 32
16 16 32
16 16 32
16 16 32
16 16 32
16 16 32
16 16 32
16 16 32
16 16 32
16 16 32
16 16 32
16 16 32
16 16 32
16 16 32
16 16 32
16 16 32
16 16 32
16 16 32
16 16 32
16 16 32
16 16 32
16 16 32
16 16 32
16 16 32
16 16 32
16 16 32
16 16 32
16 16 32
16 16 32
16 16 32
16 16 32
16 16 32
16 16 32
16 16 32
16 16 32
16 16 32
16 16 32
16 16 32
16 16 32
16 16 32
16 16 32
16 16 32
16 16 32
16 16 32
16 16 32
16 16 32
16 16 32
16 16 32
16 16 32
16 16 32
16 16 32
16 16 32
16 16 32
16 16 32
16 16 32
16 16 32
16 16 32
16 16 32
16 16 32
16 16 32
16 16 32
16 16 32
16 16 32
16 16 32
16 16 32
16 16 32
16 16 32
16 16 32
16 16 32
16 16 32
16 16 32
16 16 32
16 16 32
16 16 32
16 16 32
16 16 32
16 16 32
16 16 32
16 16 32
16 16 32
16 16 32
16 16 32
16 16 32
16 16 32
16 16 32
16 16 32
16 16 32
16 16 32
16 16 32
16 16 32
16 16 32
255 255 255
255 255 255
16 16 32
16 16 32
16 16 32
16 16 32
16 16 32
16 16 32
255 255 255
255 255 255
16 16 32
16 16 32
16 16 32
16 16 32
16 16 32
16 16 32
16 16 32
16 16 32
255 255 255
255 255 255
255 255 255
255 255 255
255 255 255
255 255 255
16 16 32
16 16 32
16 16 32
16 16 32
16 16 32
16 16 32
16 16 32
16 16 32
16 16 32
16 16 32
16 16 32
16 16 32
16 16 32
16 16 32
16 16 32
16 16 32
16 16 32
16 16 32
16 16 32
16 16 32
16 16 32
16 16 32
16 16 32
16 16 32
255 255 255
255 255 255
16 16 32
16 16 32
16 16 32
16 16 32
16 16 32
16 16 32
255 255 255
255 255 255
16 16 32
16 16 32
16 16 32
16 16 32
16 16 32
16 16 32
255 255 255
255 255 255
255 255 255
255 255 255
255 255 255
255 255 255
255 255 255
255 255 255
255 255 255
255 255 255
16 16 32
16 16 32
16 16 32
16 16 32
16 16 32
16 16 32
255 255 255
255 255 255
16 16 32
16 16 32
16 16 32
16 16 32
16 16 32
16 16 32
255 255 255
255 255 255
16 16 32
16 16 32
16 16 32
16 16 32
16 16 32
16 16 32
16 16 32
16 16 32
16 16 32
16 16 32
255 255 255
255 255 255
16 16 32
16 16 32
16 16 32
16 16 32
16 16 32
16 16 32
16 16 32
16 16 32
16 16 32
16 16 32
16 16 32
16 16 32
16 16 32
16 16 32
16 16 32
16 16 32
16 16 32
16 16 32
16 16 32
16 16 32
16 16 32
16 16 32
16 16 32
16 16 32
16 16 32
16 16 32
255 255 255
255 255 255
16 16 32
16 16 32
16 16 32
16 16 32
16 16 32
16 16 32
16 16 32
16 16 32
16 16 32
16 16 32
16 16 32
16 16 32
16 16 32
16 16 32
16 16 32
16 16 32
16 16 32
16 16 32
16 16 32
16 16 32
16 16 32
16 16 32
16 16 32
16 16 32
16 16 32
16 16 32
16 16 32
16 16 32
16 16 32
16 16 32
255 255 255
255 255 255
16 16 32
16 16 32
16 16 32
16 16 32
16 16 32
16 16 32
255 255 255
255 255 255
16 16 32
16 16 32
16 16 32
16 16 32
16 16 32
16 16 32
16 16 32
16 16 32
255 255 255
255 255 255
255 255 255
255 255 255
255 255 255
255 255 255
16 16 32
16 16 32
16 16 32
16 16 32
16 16 32
16 16 32
16 16 32
16 16 32
255 255 255
255 255 255
255 255 255
255 255 255
255 255 255
255 255 255
255 255 255
255 255 255
255 255 255
255 255 255
16 16 32
16 16 32
16 16 32
16 16 32
16 16 32
16 16 32
255 255 255
255 255 255
255 255 255
255 255 255
255 255 255
255 255 255
255 255 255
255 255 255
16 16 32
16 16 32
16 16 32
16 16 32
16 16 32
16 16 32
16 16 32
16 16 32
16 16 32
16 16 32
16 16 32
16 16 32
16 16 32
16 16 32
16 16 32
16 16 32
16 16 32
16 16 32
16 16 32
16 16 32
16 16 32
16 16 32
16 16 32
16 16 32
255 255 255
255 255 255
16 16 32
16 16 32
16 16 32
16 16 32
16 16 32
16 16 32
16 16 32
16 16 32
16 16 32
16 16 32
16 16 32
16 16 32
16 16 32
16 16 32
255 255 255
255 255 255
16 16 32
16 16 32
16 16 32
16 16 32
16 16 32
16 16 32
255 255 255
255 255 255
16 16 32
16 16 32
16 16 32
16 16 32
16 16 32
16 16 32
255 255 255
255 255 255
255 255 255
255 255 255
255 255 255
255 255 255
255 255 255
255 255 255
255 255 255
255 255 255
16 16 32
16 16 32
16 16 32
16 16 32
16 16 32
16 16 32
16 16 32
16 16 32
16 16 32
16 16 32
255 255 255
255 255 255
16 16 32
16 16 32
16 16 32
16 16 32
16 16 32
16 16 32
16 16 32
16 16 32
16 16 32
16 16 32
16 16 32
16 16 32
16 16 32
16 16 32
16 16 32
16 16 32
16 16 32
16 16 32
16 16 32
16 16 32
16 16 32
16 16 32
16 16 32
16 16 32
16 16 32
16 16 32
16 16 32
16 16 32
16 16 32
16 16 32
16 16 32
16 16 32
16 16 32
16 16 32
16 16 32
16 16 32
16 16 32
16 16 32
16 16 32
16 16 32
16 16 32
16 16 32
16 16 32
16 16 32
16 16 32
16 16 32
16 16 32
16 16 32
16 16 32
16 16 32
16 16 32
16 16 32
16 16 32
16 16 32
16 16 32
16 16 32
16 16 32
16 16 32
255 255 255
255 255 255
16 16 32
16 16 32
16 16 32
16 16 32
16 16 32
16 16 32
255 255 255
255 255 255
16 16 32
16 16 32
16 16 32
16 16 32
16 16 32
16 16 32
255 255 255
255 255 255
255 255 255
255 255 255
255 255 255
255 255 255
255 255 255
255 255 255
255 255 255
255 255 255
16 16 32
16 16 32
16 16 32
16 16 32
16 16 32
16 16 32
16 16 32
16 16 32
16 16 32
16 16 32
16 16 32
16 16 32
16 16 32
16 16 32
16 16 32
16 16 32
16 16 32
16 16 32
16 16 32
16 16 32
16 16 32
16 16 32
16 16 32
16 16 32
16 16 32
16 16 32
16 16 32
16 16 32
16 16 32
16 16 32
16 16 32
16 16 32
16 16 32
16 16 32
16 16 32
16 16 32
16 16 32
16 16 32
255 255 255
255 255 255
255 255 255
255 255 255
255 255 255
255 255 255
255 255 255
255 255 255
16 16 32
16 16 32
16 16 32
16 16 32
16 16 32
16 16 32
16 16 32
16 16 32
16 16 32
16 16 32
16 16 32
16 16 32
16 16 32
16 16 32
16 16 32
16 16 32
16 16 32
16 16 32
16 16 32
16 16 32
16 16 32
16 16 32
16 16 32
16 16 32
255 255 255
255 255 255
16 16 32
16 16 32
16 16 32
16 16 32
16 16 32
16 16 32
16 16 32
16 16 32
16 16 32
16 16 32
16 16 32
16 16 32
16 16 32
16 16 32
16 16 32
16 16 32
16 16 32
16 16 32
16 16 32
16 16 32
16 16 32
16 16 32
16 16 32
16 16 32
16 16 32
16 16 32
16 16 32
16 16 32
16 16 32
16 16 32
255 255 255
255 255 255
16 16 32
16 16 32
16 16 32
16 16 32
16 16 32
16 16 32
255 255 255
255 255 255
16 16 32
16 16 32
16 16 32
16 16 32
16 16 32
16 16 32
16 16 32
16 16 32
255 255 255
255 255 255
255 255 255
255 255 255
255 255 255
255 255 255
16 16 32
16 16 32
16 16 32
16 16 32
16 16 32
16 16 32
16 16 32
16 16 32
255 255 255
255 255 255
255 255 255
255 255 255
255 255 255
255 255 255
255 255 255
255 255 255
255 255 255
255 255 255
16 16 32
16 16 32
16 16 32
16 16 32
16 16 32
16 16 32
255 255 255
255 255 255
255 255 255
255 255 255
255 255 255
255 255 255
255 255 255
255 255 255
16 16 32
16 16 32
16 16 32
16 16 32
16 16 32
16 16 32
16 16 32
16 16 32
16 16 32
16 16 32
16 16 32
16 16 32
16 16 32
16 16 32
16 16 32
16 16 32
16 16 32
16 16 32
16 16 32
16 16 32
16 16 32
16 16 32
16 16 32
16 16 32
16 16 32
16 16 32
16 16 32
16 16 32
16 16 32
16 16 32
16 16 32
16 16 32
16 16 32
16 16 32
16 16 32
16 16 32
16 16 32
16 16 32
16 16 32
16 16 32
255 255 255
255 255 255
255 255 255
255 255 255
255 255 255
255 255 255
255 255 255
255 255 255
16 16 32
16 16 32
16 16 32
16 16 32
16 16 32
16 16 32
16 16 32
16 16 32
16 16 32
16 16 32
16 16 32
16 16 32
16 16 32
16 16 32
16 16 32
16 16 32
16 16 32
16 16 32
16 16 32
16 16 32
16 16 32
16 16 32
16 16 32
16 16 32
16 16 32
16 16 32
16 16 32
16 16 32
16 16 32
16 16 32
16 16 32
16 16 32
16 16 32
16 16 32
16 16 32
16 16 32
16 16 32
16 16 32
16 16 32
16 16 32
16 16 32
16 16 32
16 16 32
16 16 32
16 16 32
16 16 32
16 16 32
16 16 32
16 16 32
16 16 32
16 16 32
16 16 32
16 16 32
16 16 32
16 16 32
16 16 32
16 16 32
16 16 32
16 16 32
16 16 32
16 16 32
16 16 32
16 16 32
16 16 32
16 16 32
16 16 32
16 16 32
16 16 32
16 16 32
16 16 32
16 16 32
16 16 32
16 16 32
16 16 32
16 16 32
16 16 32
16 16 32
16 16 32
16 16 32
16 16 32
16 16 32
16 16 32
16 16 32
16 16 32
16 16 32
16 16 32
16 16 32
16 16 32
16 16 32
16 16 32
16 16 32
16 16 32
16 16 32
16 16 32
16 16 32
16 16 32
16 16 32
16 16 32
16 16 32
16 16 32
16 16 32
16 16 32
16 16 32
16 16 32
16 16 32
16 16 32
16 16 32
16 16 32
16 16 32
16 16 32
16 16 32
16 16 32
16 16 32
16 16 32
16 16 32
16 16 32
16 16 32
16 16 32
16 16 32
16 16 32
16 16 32
16 16 32
16 16 32
16 16 32
16 16 32
16 16 32
16 16 32
16 16 32
16 16 32
16 16 32
16 16 32
16 16 32
16 16 32
16 16 32
16 16 32
16 16 32
16 16 32
16 16 32
16 16 32
16 16 32
16 16 32
16 16 32
16 16 32
16 16 32
16 16 32
16 16 32
16 16 32
16 16 32
16 16 32
16 16 32
16 16 32
16 16 32
16 16 32
16 16 32
16 16 32
16 16 32
16 16 32
16 16 32
16 16 32
16 16 32
16 16 32
16 16 32
16 16 32
16 16 32
16 16 32
16 16 32
16 16 32
16 16 32
16 16 32
16 16 32
16 16 32
16 16 32
16 16 32
16 16 32
16 16 32
16 16 32
16 16 32
16 16 32
16 16 32
16 16 32
16 16 32
16 16 32
16 16 32
16 16 32
16 16 32
16 16 32
16 16 32
16 16 32
16 16 32
16 16 32
16 16 32
16 16 32
16 16 32
16 16 32
16 16 32
16 16 32
16 16 32
16 16 32
16 16 32
16 16 32
16 16 32
16 16 32
16 16 32
16 16 32
16 16 32
16 16 32
16 16 32
16 16 32
16 16 32
16 16 32
16 16 32
16 16 32
16 16 32
16 16 32
16 16 32
16 16 32
16 16 32
16 16 32
16 16 32
16 16 32
16 16 32
16 16 32
16 16 32
16 16 32
16 16 32
16 16 32
16 16 32
16 16 32
16 16 32
16 16 32
16 16 32
16 16 32
16 16 32
16 16 32
16 16 32
16 16 32
16 16 32
16 16 32
16 16 32
16 16 32
16 16 32
16 16 32
16 16 32
16 16 32
16 16 32
16 16 32
16 16 32
16 16 32
16 16 32
16 16 32
16 16 32
16 16 32
16 16 32
16 16 32
16 16 32
16 16 32
16 16 32
16 16 32
16 16 32
16 16 32
16 16 32
16 16 32
16 16 32
16 16 32
16 16 32
16 16 32
16 16 32
16 16 32
16 16 32
16 16 32
16 16 32
16 16 32
16 16 32
16 16 32
16 16 32
16 16 32
16 16 32
16 16 32
16 16 32
16 16 32
16 16 32
16 16 32
16 16 32
16 16 32
16 16 32
16 16 32
16 16 32
16 16 32
16 16 32
16 16 32
16 16 32
16 16 32
16 16 32
16 16 32
16 16 32
16 16 32
16 16 32
16 16 32
16 16 32
16 16 32
16 16 32
16 16 32
16 16 32
16 16 32
16 16 32
16 16 32
16 16 32
16 16 32
16 16 32
16 16 32
16 16 32
16 16 32
16 16 32
16 16 32
16 16 32
16 16 32
16 16 32
16 16 32
16 16 32
16 16 32
16 16 32
16 16 32
16 16 32
16 16 32
16 16 32
16 16 32
16 16 32
16 16 32
16 16 32
16 16 32
16 16 32
16 16 32
16 16 32
16 16 32
16 16 32
16 16 32
16 16 32
16 16 32
16 16 32
16 16 32
16 16 32
16 16 32
16 16 32
16 16 32
16 16 32
16 16 32
16 16 32
16 16 32
16 16 32
16 16 32
16 16 32
16 16 32
16 16 32
16 16 32
16 16 32
16 16 32
16 16 32
16 16 32
16 16 32
16 16 32
16 16 32
16 16 32
16 16 32
16 16 32
16 16 32
16 16 32
16 16 32
16 16 32
16 16 32
16 16 32
16 16 32
16 16 32
16 16 32
16 16 32
16 16 32
16 16 32
16 16 32
16 16 32
16 16 32
16 16 32
16 16 32
16 16 32
16 16 32
16 16 32
16 16 32
16 16 32
16 16 32
16 16 32
16 16 32
16 16 32
16 16 32
16 16 32
16 16 32
16 16 32
16 16 32
16 16 32
16 16 32
16 16 32
16 16 32
16 16 32
16 16 32
16 16 32
16 16 32
16 16 32
16 16 32
16 16 32
16 16 32
16 16 32
16 16 32
16 16 32
16 16 32
16 16 32
16 16 32
16 16 32
16 16 32
16 16 32
16 16 32
16 16 32
16 16 32
16 16 32
16 16 32
16 16 32
16 16 32
16 16 32
16 16 32
16 16 32
16 16 32
16 16 32
16 16 32
16 16 32
16 16 32
16 16 32
16 16 32
16 16 32
16 16 32
16 16 32
16 16 32
16 16 32
16 16 32
16 16 32
16 16 32
16 16 32
16 16 32
16 16 32
16 16 32
16 16 32
16 16 32
16 16 32
16 16 32
16 16 32
16 16 32
16 16 32
16 16 32
16 16 32
16 16 32
16 16 32
16 16 32
16 16 32
16 16 32
16 16 32
16 16 32
16 16 32
16 16 32
16 16 32
16 16 32
16 16 32
16 16 32
16 16 32
16 16 32
16 16 32
16 16 32
16 16 32
16 16 32
16 16 32
16 16 32
16 16 32
16 16 32
16 16 32
16 16 32
16 16 32
16 16 32
16 16 32
16 16 32
16 16 32
16 16 32
16 16 32
16 16 32
16 16 32
16 16 32
16 16 32
16 16 32
16 16 32
16 16 32
16 16 32
16 16 32
16 16 32
16 16 32
16 16 32
16 16 32
16 16 32
16 16 32
16 16 32
16 16 32
16 16 32
16 16 32
16 16 32
16 16 32
16 16 32
16 16 32
16 16 32
16 16 32
16 16 32
16 16 32
16 16 32
16 16 32
16 16 32
16 16 32
16 16 32
16 16 32
16 16 32
16 16 32
16 16 32
16 16 32
16 16 32
16 16 32
16 16 32
16 16 32
16 16 32
16 16 32
16 16 32
16 16 32
16 16 32
16 16 32
16 16 32
16 16 32
16 16 32
16 16 32
16 16 32
16 16 32
16 16 32
16 16 32
16 16 32
16 16 32
16 16 32
16 16 32
16 16 32
16 16 32
16 16 32
16 16 32
16 16 32
16 16 32
16 16 32
16 16 32
16 16 32
16 16 32
16 16 32
16 16 32
16 16 32
16 16 32
16 16 32
16 16 32
16 16 32
16 16 32
16 16 32
16 16 32
16 16 32
16 16 32
16 16 32
16 16 32
16 16 32
16 16 32
16 16 32
16 16 32
16 16 32
16 16 32
16 16 32
16 16 32
16 16 32
16 16 32
16 16 32
16 16 32
16 16 32
16 16 32
16 16 32
16 16 32
16 16 32
16 16 32
16 16 32
16 16 32
16 16 32
16 16 32
16 16 32
16 16 32
16 16 32
16 16 32
16 16 32
16 16 32
16 16 32
16 16 32
16 16 32
16 16 32
16 16 32
16 16 32
16 16 32
16 16 32
16 16 32
16 16 32
16 16 32
16 16 32
16 16 32
16 16 32
16 16 32
16 16 32
16 16 32
16 16 32
16 16 32
16 16 32
16 16 32
16 16 32
16 16 32
16 16 32
16 16 32
16 16 32
16 16 32
16 16 32
16 16 32
16 16 32
16 16 32
16 16 32
16 16 32
16 16 32
16 16 32
16 16 32
16 16 32
16 16 32
16 16 32
16 16 32
16 16 32
16 16 32
16 16 32
16 16 32
16 16 32
16 16 32
16 16 32
16 16 32
16 16 32
16 16 32
16 16 32
16 16 32
16 16 32
16 16 32
16 16 32
16 16 32
16 16 32
16 16 32
16 16 32
16 16 32
16 16 32
16 16 32
16 16 32
16 16 32
16 16 32
16 16 32
16 16 32
16 16 32
16 16 32
16 16 32
16 16 32
16 16 32
16 16 32
16 16 32
16 16 32
16 16 32
16 16 32
16 16 32
16 16 32
16 16 32
16 16 32
16 16 32
16 16 32
16 16 32
16 16 32
16 16 32
16 16 32
16 16 32
16 16 32
16 16 32
16 16 32
16 16 32
16 16 32
16 16 32
16 16 32
16 16 32
16 16 32
16 16 32
16 16 32
16 16 32
16 16 32
16 16 32
16 16 32
16 16 32
16 16 32
16 16 32
16 16 32
16 16 32
16 16 32
16 16 32
16 16 32
16 16 32
16 16 32
16 16 32
16 16 32
16 16 32
16 16 32
16 16 32
16 16 32
16 16 32
16 16 32
16 16 32
16 16 32
16 16 32
16 16 32
16 16 32
16 16 32
16 16 32
16 16 32
16 16 32
16 16 32
16 16 32
16 16 32
16 16 32
16 16 32
16 16 32
16 16 32
16 16 32
16 16 32
16 16 32
16 16 32
16 16 32
16 16 32
16 16 32
16 16 32
16 16 32
16 16 32
16 16 32
16 16 32
16 16 32
16 16 32
16 16 32
16 16 32
16 16 32
16 16 32
16 16 32
16 16 32
16 16 32
16 16 32
16 16 32
16 16 32
16 16 32
16 16 32
16 16 32
16 16 32
16 16 32
16 16 32
16 16 32
16 16 32
16 16 32
16 16 32
16 16 32
16 16 32
16 16 32
16 16 32
16 16 32
16 16 32
16 16 32
16 16 32
16 16 32
16 16 32
16 16 32
16 16 32
16 16 32
16 16 32
16 16 32
16 16 32
16 16 32
16 16 32
16 16 32
16 16 32
16 16 32
16 16 32
16 16 32
16 16 32
16 16 32
16 16 32
16 16 32
16 16 32
16 16 32
16 16 32
16 16 32
16 16 32
16 16 32
16 16 32
16 16 32
16 16 32
16 16 32
16 16 32
16 16 32
16 16 32
16 16 32
16 16 32
16 16 32
16 16 32
16 16 32
16 16 32
16 16 32
16 16 32
16 16 32
16 16 32
16 16 32
16 16 32
16 16 32
16 16 32
16 16 32
16 16 32
16 16 32
16 16 32
16 16 32
16 16 32
16 16 32
16 16 32
16 16 32
16 16 32
16 16 32
16 16 32
16 16 32
16 16 32
16 16 32
16 16 32
16 16 32
16 16 32
16 16 32
16 16 32
16 16 32
16 16 32
16 16 32
16 16 32
16 16 32
16 16 32
16 16 32
16 16 32
16 16 32
16 16 32
16 16 32
16 16 32
16 16 32
16 16 32
16 16 32
16 16 32
16 16 32
16 16 32
16 16 32
16 16 32
16 16 32
16 16 32
16 16 32
16 16 32
16 16 32
16 16 32
16 16 32
16 16 32
16 16 32
16 16 32
16 16 32
16 16 32
16 16 32
16 16 32
16 16 32
16 16 32
16 16 32
16 16 32
16 16 32
16 16 32
16 16 32
16 16 32
16 16 32
16 16 32
16 16 32
16 16 32
16 16 32
16 16 32
16 16 32
16 16 32
16 16 32
16 16 32
16 16 32
16 16 32
16 16 32
16 16 32
16 16 32
16 16 32
16 16 32
16 16 32
16 16 32
16 16 32
16 16 32
16 16 32
16 16 32
16 16 32
16 16 32
16 16 32
16 16 32
16 16 32
16 16 32
16 16 32
16 16 32
16 16 32
16 16 32
16 16 32
16 16 32
16 16 32
16 16 32
16 16 32
16 16 32
16 16 32
16 16 32
16 16 32
16 16 32
16 16 32
16 16 32
16 16 32
16 16 32
16 16 32
16 16 32
16 16 32
16 16 32
16 16 32
16 16 32
16 16 32
16 16 32
16 16 32
16 16 32
16 16 32
16 16 32
16 16 32
16 16 32
16 16 32
16 16 32
16 16 32
16 16 32
16 16 32
16 16 32
16 16 32
16 16 32
16 16 32
16 16 32
16 16 32
16 16 32
16 16 32
16 16 32
16 16 32
16 16 32
16 16 32
16 16 32
16 16 32
16 16 32
16 16 32
16 16 32
16 16 32
16 16 32
16 16 32
16 16 32
16 16 32
16 16 32
16 16 32
16 16 32
16 16 32
16 16 32
16 16 32
16 16 32
16 16 32
16 16 32
16 16 32
16 16 32
16 16 32
16 16 32
16 16 32
16 16 32
16 16 32
16 16 32
16 16 32
16 16 32
16 16 32
16 16 32
16 16 32
16 16 32
16 16 32
16 16 32
16 16 32
16 16 32
16 16 32
16 16 32
16 16 32
16 16 32
16 16 32
16 16 32
16 16 32
16 16 32
16 16 32
16 16 32
16 16 32
16 16 32
16 16 32
16 16 32
16 16 32
16 16 32
16 16 32
16 16 32
16 16 32
16 16 32
16 16 32
16 16 32
16 16 32
16 16 32
16 16 32
16 16 32
16 16 32
16 16 32
16 16 32
16 16 32
16 16 32
16 16 32
16 16 32
16 16 32
16 16 32
16 16 32
16 16 32
16 16 32
16 16 32
16 16 32
16 16 32
16 16 32
16 16 32
16 16 32
16 16 32
16 16 32
16 16 32
16 16 32
16 16 32
16 16 32
16 16 32
16 16 32
16 16 32
16 16 32
16 16 32
16 16 32
16 16 32
16 16 32
16 16 32
16 16 32
16 16 32
16 16 32
16 16 32
16 16 32
16 16 32
16 16 32
16 16 32
16 16 32
16 16 32
16 16 32
16 16 32
16 16 32
16 16 32
16 16 32
16 16 32
16 16 32
16 16 32
16 16 32
16 16 32
16 16 32
16 16 32
16 16 32
16 16 32
16 16 32
16 16 32
16 16 32
16 16 32
16 16 32
16 16 32
16 16 32
16 16 32
16 16 32
16 16 32
16 16 32
16 16 32
16 16 32
16 16 32
16 16 32
16 16 32
16 16 32
16 16 32
16 16 32
16 16 32
16 16 32
16 16 32
16 16 32
16 16 32
16 16 32
16 16 32
16 16 32
16 16 32
16 16 32
16 16 32
16 16 32
16 16 32
16 16 32
16 16 32
16 16 32
16 16 32
16 16 32
16 16 32
16 16 32
16 16 32
16 16 32
16 16 32
16 16 32
16 16 32
16 16 32
16 16 32
16 16 32
16 16 32
16 16 32
16 16 32
16 16 32
16 16 32
16 16 32
16 16 32
16 16 32
16 16 32
16 16 32
16 16 32
16 16 32
16 16 32
16 16 32
16 16 32
16 16 32
16 16 32
16 16 32
16 16 32
16 16 32
16 16 32
16 16 32
16 16 32
16 16 32
16 16 32
16 16 32
16 16 32
16 16 32
16 16 32
16 16 32
16 16 32
16 16 32
16 16 32
16 16 32
16 16 32
16 16 32
16 16 32
16 16 32
16 16 32
16 16 32
16 16 32
16 16 32
16 16 32
16 16 32
16 16 32
16 16 32
16 16 32
16 16 32
16 16 32
16 16 32
16 16 32
16 16 32
16 16 32
16 16 32
16 16 32
16 16 32
16 16 32
16 16 32
16 16 32
16 16 32
16 16 32
16 16 32
16 16 32
16 16 32
16 16 32
16 16 32
16 16 32
16 16 32
16 16 32
16 16 32
16 16 32
16 16 32
16 16 32
16 16 32
16 16 32
16 16 32
16 16 32
16 16 32
16 16 32
16 16 32
16 16 32
16 16 32
16 16 32
16 16 32
16 16 32
16 16 32
16 16 32
16 16 32
16 16 32
16 16 32
16 16 32
16 16 32
16 16 32
16 16 32
16 16 32
16 16 32
16 16 32
16 16 32
16 16 32
16 16 32
16 16 32
16 16 32
16 16 32
16 16 32
16 16 32
16 16 32
16 16 32
16 16 32
16 16 32
16 16 32
16 16 32
16 16 32
16 16 32
16 16 32
16 16 32
16 16 32
16 16 32
16 16 32
16 16 32
16 16 32
16 16 32
16 16 32
16 16 32
16 16 32
16 16 32
16 16 32
16 16 32
16 16 32
16 16 32
16 16 32
16 16 32
16 16 32
16 16 32
16 16 32
16 16 32
16 16 32
16 16 32
16 16 32
16 16 32
16 16 32
16 16 32
16 16 32
16 16 32
16 16 32
16 16 32
16 16 32
16 16 32
16 16 32
16 16 32
16 16 32
16 16 32
16 16 32
16 16 32
16 16 32
16 16 32
16 16 32
16 16 32
16 16 32
16 16 32
16 16 32
16 16 32
16 16 32
16 16 32
16 16 32
16 16 32
16 16 32
16 16 32
16 16 32
16 16 32
16 16 32
16 16 32
16 16 32
16 16 32
16 16 32
16 16 32
16 16 32
16 16 32
16 16 32
16 16 32
16 16 32
16 16 32
16 16 32
16 16 32
16 16 32
16 16 32
16 16 32
16 16 32
16 16 32
16 16 32
16 16 32
16 16 32
16 16 32
16 16 32
16 16 32
16 16 32
16 16 32
16 16 32
16 16 32
16 16 32
16 16 32
16 16 32
16 16 32
16 16 32
16 16 32
16 16 32
16 16 32
16 16 32
16 16 32
16 16 32
16 16 32
16 16 32
16 16 32
16 16 32
16 16 32
16 16 32
16 16 32
16 16 32
16 16 32
16 16 32
16 16 32
16 16 32
16 16 32
16 16 32
16 16 32
16 16 32
16 16 32
16 16 32
16 16 32
16 16 32
16 16 32
16 16 32
16 16 32
16 16 32
16 16 32
16 16 32
16 16 32
16 16 32
16 16 32
16 16 32
16 16 32
16 16 32
16 16 32
16 16 32
16 16 32
16 16 32
16 16 32
16 16 32
16 16 32
16 16 32
16 16 32
16 16 32
16 16 32
16 16 32
16 16 32
16 16 32
16 16 32
16 16 32
16 16 32
16 16 32
16 16 32
16 16 32
16 16 32
16 16 32
16 16 32
16 16 32
16 16 32
16 16 32
16 16 32
16 16 32
16 16 32
16 16 32
16 16 32
16 16 32
16 16 32
16 16 32
16 16 32
16 16 32
16 16 32
16 16 32
16 16 32
16 16 32
16 16 32
16 16 32
16 16 32
16 16 32
16 16 32
16 16 32
16 16 32
16 16 32
16 16 32
16 16 32
16 16 32
16 16 32
16 16 32
16 16 32
16 16 32
16 16 32
16 16 32
16 16 32
16 16 32
16 16 32
16 16 32
16 16 32
16 16 32
16 16 32
16 16 32
16 16 32
16 16 32
16 16 32
16 16 32
16 16 32
16 16 32
16 16 32
16 16 32
16 16 32
16 16 32
16 16 32
16 16 32
16 16 32
16 16 32
16 16 32
16 16 32
16 16 32
16 16 32
16 16 32
16 16 32
16 16 32
16 16 32
16 16 32
16 16 32
16 16 32
16 16 32
16 16 32
16 16 32
16 16 32
16 16 32
16 16 32
16 16 32
16 16 32
16 16 32
16 16 32
16 16 32
16 16 32
16 16 32
16 16 32
16 16 32
16 16 32
16 16 32
16 16 32
16 16 32
16 16 32
16 16 32
16 16 32
16 16 32
16 16 32
16 16 32
16 16 32
16 16 32
16 16 32
16 16 32
16 16 32
16 16 32
16 16 32
16 16 32
16 16 32
16 16 32
16 16 32
16 16 32
16 16 32
16 16 32
16 16 32
16 16 32
16 16 32
16 16 32
16 16 32
16 16 32
16 16 32
16 16 32
16 16 32
16 16 32
16 16 32
16 16 32
16 16 32
16 16 32
16 16 32
16 16 32
16 16 32
16 16 32
16 16 32
16 16 32
16 16 32
16 16 32
16 16 32
16 16 32
16 16 32
16 16 32
16 16 32
16 16 32
16 16 32
16 16 32
16 16 32
16 16 32
16 16 32
16 16 32
16 16 32
16 16 32
16 16 32
16 16 32
16 16 32
16 16 32
16 16 32
16 16 32
16 16 32
16 16 32
16 16 32
16 16 32
16 16 32
16 16 32
16 16 32
16 16 32
16 16 32
16 16 32
16 16 32
16 16 32
16 16 32
16 16 32
16 16 32
16 16 32
16 16 32
16 16 32
16 16 32
16 16 32
16 16 32
16 16 32
16 16 32
16 16 32
16 16 32
16 16 32
16 16 32
16 16 32
16 16 32
16 16 32
16 16 32
16 16 32
16 16 32
16 16 32
16 16 32
16 16 32
16 16 32
16 16 32
16 16 32
16 16 32
16 16 32
16 16 32
16 16 32
16 16 32
16 16 32
16 16 32
16 16 32
16 16 32
16 16 32
16 16 32
16 16 32
16 16 32
16 16 32
16 16 32
16 16 32
16 16 32
16 16 32
16 16 32
16 16 32
16 16 32
16 16 32
16 16 32
16 16 32
16 16 32
16 16 32
16 16 32
16 16 32
16 16 32
16 16 32
16 16 32
16 16 32
16 16 32
16 16 32
16 16 32
16 16 32
16 16 32
16 16 32
16 16 32
16 16 32
16 16 32
16 16 32
16 16 32
16 16 32
16 16 32
16 16 32
16 16 32
16 16 32
16 16 32
16 16 32
16 16 32
16 16 32
16 16 32
16 16 32
16 16 32
16 16 32
16 16 32
16 16 32
16 16 32
16 16 32
16 16 32
16 16 32
16 16 32
16 16 32
16 16 32
16 16 32
16 16 32
16 16 32
16 16 32
16 16 32
16 16 32
16 16 32
16 16 32
16 16 32
16 16 32
16 16 32
16 16 32
16 16 32
16 16 32
16 16 32
16 16 32
16 16 32
16 16 32
16 16 32
16 16 32
16 16 32
16 16 32
16 16 32
16 16 32
16 16 32
16 16 32
16 16 32
16 16 32
16 16 32
16 16 32
16 16 32
16 16 32
16 16 32
16 16 32
16 16 32
16 16 32
16 16 32
16 16 32
16 16 32
16 16 32
16 16 32
16 16 32
16 16 32
16 16 32
16 16 32
16 16 32
16 16 32
16 16 32
16 16 32
16 16 32
16 16 32
16 16 32
16 16 32
16 16 32
16 16 32
16 16 32
16 16 32
16 16 32
16 16 32
16 16 32
16 16 32
16 16 32
16 16 32
16 16 32
16 16 32
16 16 32
16 16 32
16 16 32
16 16 32
16 16 32
16 16 32
16 16 32
16 16 32
16 16 32
16 16 32
16 16 32
16 16 32
16 16 32
16 16 32
16 16 32
16 16 32
16 16 32
16 16 32
16 16 32
16 16 32
16 16 32
16 16 32
16 16 32
16 16 32
16 16 32
16 16 32
16 16 32
16 16 32
16 16 32
16 16 32
16 16 32
16 16 32
16 16 32
16 16 32
16 16 32
16 16 32
16 16 32
16 16 32
16 16 32
16 16 32
16 16 32
16 16 32
16 16 32
16 16 32
16 16 32
16 16 32
16 16 32
16 16 32
16 16 32
16 16 32
16 16 32
16 16 32
16 16 32
16 16 32
16 16 32
16 16 32
16 16 32
16 16 32
16 16 32
16 16 32
16 16 32
16 16 32
16 16 32
16 16 32
16 16 32
16 16 32
16 16 32
16 16 32
16 16 32
16 16 32
16 16 32
16 16 32
16 16 32
16 16 32
16 16 32
16 16 32
16 16 32
16 16 32
16 16 32
16 16 32
16 16 32
16 16 32
16 16 32
16 16 32
16 16 32
16 16 32
16 16 32
16 16 32
16 16 32
16 16 32
16 16 32
16 16 32
16 16 32
16 16 32
16 16 32
16 16 32
16 16 32
16 16 32
16 16 32
16 16 32
16 16 32
16 16 32
16 16 32
16 16 32
16 16 32
16 16 32
16 16 32
16 16 32
16 16 32
16 16 32
16 16 32
16 16 32
16 16 32
16 16 32
16 16 32
16 16 32
16 16 32
16 16 32
16 16 32
16 16 32
16 16 32
16 16 32
16 16 32
16 16 32
16 16 32
16 16 32
16 16 32
16 16 32
16 16 32
16 16 32
16 16 32
16 16 32
16 16 32
16 16 32
16 16 32
16 16 32
16 16 32
16 16 32
16 16 32
16 16 32
16 16 32
16 16 32
16 16 32
16 16 32
16 16 32
16 16 32
16 16 32
16 16 32
16 16 32
16 16 32
16 16 32
16 16 32
16 16 32
16 16 32
16 16 32
16 16 32
16 16 32
16 16 32
16 16 32
16 16 32
16 16 32
16 16 32
16 16 32
16 16 32
16 16 32
16 16 32
16 16 32
16 16 32
16 16 32
16 16 32
16 16 32
16 16 32
16 16 32
16 16 32
16 16 32
16 16 32
16 16 32
16 16 32
16 16 32
16 16 32
16 16 32
16 16 32
16 16 32
16 16 32
16 16 32
16 16 32
16 16 32
16 16 32
16 16 32
16 16 32
16 16 32
16 16 32
16 16 32
16 16 32
16 16 32
16 16 32
16 16 32
16 16 32
16 16 32
16 16 32
16 16 32
16 16 32
16 16 32
16 16 32
16 16 32
16 16 32
16 16 32
16 16 32
16 16 32
16 16 32
16 16 32
16 16 32
16 16 32
16 16 32
16 16 32
16 16 32
16 16 32
16 16 32
16 16 32
16 16 32
16 16 32
16 16 32
16 16 32
16 16 32
16 16 32
16 16 32
16 16 32
16 16 32
16 16 32
16 16 32
16 16 32
16 16 32
16 16 32
16 16 32
16 16 32
16 16 32
16 16 32
16 16 32
16 16 32
16 16 32
16 16 32
16 16 32
16 16 32
16 16 32
16 16 32
16 16 32
16 16 32
16 16 32
16 16 32
16 16 32
16 16 32
16 16 32
16 16 32
16 16 32
16 16 32
16 16 32
16 16 32
16 16 32
16 16 32
16 16 32
16 16 32
16 16 32
16 16 32
16 16 32
16 16 32
16 16 32
16 16 32
16 16 32
16 16 32
16 16 32
16 16 32
16 16 32
16 16 32
16 16 32
16 16 32
16 16 32
16 16 32
16 16 32
16 16 32
16 16 32
16 16 32
16 16 32
16 16 32
16 16 32
16 16 32
16 16 32
16 16 32
16 16 32
16 16 32
16 16 32
16 16 32
16 16 32
16 16 32
16 16 32
16 16 32
16 16 32
16 16 32
16 16 32
16 16 32
16 16 32
16 16 32
16 16 32
16 16 32
16 16 32
16 16 32
16 16 32
16 16 32
16 16 32
16 16 32
16 16 32
16 16 32
16 16 32
16 16 32
16 16 32
16 16 32
16 16 32
16 16 32
16 16 32
16 16 32
16 16 32
16 16 32
16 16 32
16 16 32
16 16 32
16 16 32
16 16 32
16 16 32
16 16 32
16 16 32
16 16 32
16 16 32
16 16 32
16 16 32
16 16 32
16 16 32
16 16 32
16 16 32
16 16 32
16 16 32
16 16 32
16 16 32
16 16 32
16 16 32
16 16 32
16 16 32
16 16 32
16 16 32
16 16 32
16 16 32
16 16 32
16 16 32
16 16 32
16 16 32
16 16 32
16 16 32
16 16 32
16 16 32
16 16 32
16 16 32
16 16 32
16 16 32
16 16 32
16 16 32
16 16 32
16 16 32
16 16 32
16 16 32
16 16 32
16 16 32
16 16 32
16 16 32
16 16 32
16 16 32
16 16 32
16 16 32
16 16 32
16 16 32
16 16 32
16 16 32
16 16 32
16 16 32
16 16 32
16 16 32
16 16 32
16 16 32
16 16 32
16 16 32
16 16 32
16 16 32
16 16 32
16 16 32
16 16 32
16 16 32
16 16 32
16 16 32
16 16 32
16 16 32
16 16 32
16 16 32
16 16 32
16 16 32
16 16 32
16 16 32
16 16 32
16 16 32
16 16 32
16 16 32
16 16 32
16 16 32
16 16 32
16 16 32
16 16 32
16 16 32
16 16 32
16 16 32
16 16 32
16 16 32
16 16 32
16 16 32
16 16 32
16 16 32
16 16 32
16 16 32
16 16 32
16 16 32
16 16 32
16 16 32
16 16 32
16 16 32
16 16 32
16 16 32
16 16 32
16 16 32
16 16 32
16 16 32
16 16 32
16 16 32
16 16 32
16 16 32
16 16 32
16 16 32
16 16 32
16 16 32
16 16 32
16 16 32
16 16 32
16 16 32
16 16 32
16 16 32
16 16 32
16 16 32
16 16 32
16 16 32
16 16 32
16 16 32
16 16 32
16 16 32
16 16 32
16 16 32
16 16 32
16 16 32
16 16 32
16 16 32
16 16 32
16 16 32
16 16 32
16 16 32
16 16 32
16 16 32
16 16 32
16 16 32
16 16 32
16 16 32
16 16 32
16 16 32
16 16 32
16 16 32
16 16 32
16 16 32
16 16 32
16 16 32
16 16 32
16 16 32
16 16 32
16 16 32
16 16 32
16 16 32
16 16 32
16 16 32
16 16 32
16 16 32
16 16 32
16 16 32
16 16 32
16 16 32
16 16 32
16 16 32
16 16 32
16 16 32
16 16 32
16 16 32
16 16 32
16 16 32
16 16 32
16 16 32
16 16 32
16 16 32
16 16 32
16 16 32
16 16 32
16 16 32
16 16 32
16 16 32
16 16 32
16 16 32
16 16 32
16 16 32
16 16 32
16 16 32
16 16 32
16 16 32
16 16 32
16 16 32
16 16 32
16 16 32
16 16 32
16 16 32
16 16 32
16 16 32
16 16 32
16 16 32
16 16 32
16 16 32
16 16 32
16 16 32
16 16 32
16 16 32
16 16 32
16 16 32
16 16 32
16 16 32
16 16 32
16 16 32
16 16 32
16 16 32
16 16 32
16 16 32
16 16 32
16 16 32
16 16 32
16 16 32
16 16 32
16 16 32
16 16 32
16 16 32
16 16 32
16 16 32
16 16 32
16 16 32
16 16 32
16 16 32
16 16 32
16 16 32
16 16 32
16 16 32
16 16 32
16 16 32
16 16 32
16 16 32
16 16 32
16 16 32
16 16 32
16 16 32
16 16 32
16 16 32
16 16 32
16 16 32
16 16 32
16 16 32
16 16 32
16 16 32
16 16 32
16 16 32
16 16 32
16 16 32
16 16 32
16 16 32
16 16 32
16 16 32
16 16 32
16 16 32
16 16 32
16 16 32
16 16 32
16 16 32
16 16 32
16 16 32
16 16 32
16 16 32
16 16 32
16 16 32
16 16 32
16 16 32
16 16 32
16 16 32
16 16 32
16 16 32
16 16 32
16 16 32
16 16 32
16 16 32
16 16 32
16 16 32
16 16 32
16 16 32
16 16 32
16 16 32
16 16 32
16 16 32
16 16 32
16 16 32
16 16 32
16 16 32
16 16 32
16 16 32
16 16 32
16 16 32
16 16 32
16 16 32
16 16 32
16 16 32
16 16 32
16 16 32
16 16 32
16 16 32
16 16 32
16 16 32
16 16 32
16 16 32
16 16 32
16 16 32
16 16 32
16 16 32
16 16 32
16 16 32
16 16 32
16 16 32
16 16 32
16 16 32
16 16 32
16 16 32
16 16 32
16 16 32
16 16 32
16 16 32
16 16 32
16 16 32
16 16 32
16 16 32
16 16 32
16 16 32
16 16 32
16 16 32
16 16 32
16 16 32
16 16 32
16 16 32
16 16 32
16 16 32
16 16 32
16 16 32
16 16 32
16 16 32
16 16 32
16 16 32
16 16 32
16 16 32
16 16 32
16 16 32
16 16 32
16 16 32
16 16 32
16 16 32
16 16 32
16 16 32
16 16 32
16 16 32
16 16 32
16 16 32
16 16 32
16 16 32
16 16 32
16 16 32
16 16 32
16 16 32
16 16 32
16 16 32
16 16 32
16 16 32
16 16 32
16 16 32
16 16 32
16 16 32
16 16 32
16 16 32
16 16 32
16 16 32
16 16 32
16 16 32
16 16 32
16 16 32
16 16 32
16 16 32
16 16 32
16 16 32
16 16 32
16 16 32
16 16 32
16 16 32
16 16 32
16 16 32
16 16 32
16 16 32
16 16 32
16 16 32
16 16 32
16 16 32
16 16 32
16 16 32
16 16 32
16 16 32
16 16 32
16 16 32
16 16 32
16 16 32
16 16 32
16 16 32
16 16 32
16 16 32
16 16 32
16 16 32
16 16 32
16 16 32
16 16 32
16 16 32
16 16 32
16 16 32
16 16 32
16 16 32
16 16 32
16 16 32
16 16 32
16 16 32
16 16 32
16 16 32
16 16 32
16 16 32
16 16 32
16 16 32
16 16 32
16 16 32
16 16 32
16 16 32
16 16 32
16 16 32
16 16 32
16 16 32
16 16 32
16 16 32
16 16 32
16 16 32
16 16 32
16 16 32
16 16 32
16 16 32
16 16 32
16 16 32
16 16 32
16 16 32
16 16 32
16 16 32
16 16 32
16 16 32
16 16 32
16 16 32
16 16 32
16 16 32
16 16 32
16 16 32
16 16 32
16 16 32
16 16 32
16 16 32
16 16 32
16 16 32
16 16 32
16 16 32
16 16 32
16 16 32
16 16 32
16 16 32
16 16 32
16 16 32
16 16 32
16 16 32
16 16 32
16 16 32
16 16 32
16 16 32
16 16 32
16 16 32
16 16 32
16 16 32
16 16 32
16 16 32
16 16 32
16 16 32
16 16 32
16 16 32
16 16 32
16 16 32
16 16 32
16 16 32
16 16 32
16 16 32
16 16 32
255 255 255
255 255 255
255 255 255
255 255 255
255 255 255
255 255 255
255 255 255
255 255 255
16 16 32
16 16 32
16 16 32
16 16 32
16 16 32
16 16 32
16 16 32
16 16 32
16 16 32
16 16 32
255 255 255
255 255 255
255 255 255
255 255 255
255 255 255
255 255 255
16 16 32
16 16 32
16 16 32
16 16 32
16 16 32
16 16 32
16 16 32
16 16 32
16 16 32
16 16 32
16 16 32
16 16 32
16 16 32
16 16 32
16 16 32
16 16 32
16 16 32
16 16 32
16 16 32
16 16 32
16 16 32
16 16 32
16 16 32
16 16 32
255 255 255
255 255 255
16 16 32
16 16 32
16 16 32
16 16 32
16 16 32
16 16 32
16 16 32
16 16 32
16 16 32
16 16 32
16 16 32
16 16 32
16 16 32
16 16 32
16 16 32
16 16 32
255 255 255
255 255 255
255 255 255
255 255 255
255 255 255
255 255 255
16 16 32
16 16 32
16 16 32
16 16 32
16 16 32
16 16 32
16 16 32
16 16 32
255 255 255
255 255 255
16 16 32
16 16 32
16 16 32
16 16 32
16 16 32
16 16 32
255 255 255
255 255 255
16 16 32
16 16 32
16 16 32
16 16 32
16 16 32
16 16 32
16 16 32
16 16 32
16 16 32
16 16 32
16 16 32
16 16 32
16 16 32
16 16 32
16 16 32
16 16 32
16 16 32
16 16 32
16 16 32
16 16 32
16 16 32
16 16 32
16 16 32
16 16 32
255 255 255
255 255 255
255 255 255
255 255 255
255 255 255
255 255 255
16 16 32
16 16 32
16 16 32
16 16 32
16 16 32
16 16 32
16 16 32
16 16 32
16 16 32
16 16 32
255 255 255
255 255 255
255 255 255
255 255 255
255 255 255
255 255 255
16 16 32
16 16 32
16 16 32
16 16 32
16 16 32
16 16 32
16 16 32
16 16 32
16 16 32
16 16 32
16 16 32
16 16 32
16 16 32
16 16 32
16 16 32
16 16 32
16 16 32
16 16 32
16 16 32
16 16 32
16 16 32
16 16 32
16 16 32
16 16 32
16 16 32
16 16 32
16 16 32
16 16 32
16 16 32
16 16 32
16 16 32
16 16 32
16 16 32
16 16 32
16 16 32
16 16 32
16 16 32
16 16 32
16 16 32
16 16 32
255 255 255
255 255 255
255 255 255
255 255 255
255 255 255
255 255 255
255 255 255
255 255 255
255 255 255
255 255 255
16 16 32
16 16 32
16 16 32
16 16 32
16 16 32
16 16 32
16 16 32
16 16 32
16 16 32
16 16 32
16 16 32
16 16 32
16 16 32
16 16 32
16 16 32
16 16 32
16 16 32
16 16 32
16 16 32
16 16 32
16 16 32
16 16 32
255 255 255
255 255 255
255 255 255
255 255 255
255 255 255
255 255 255
255 255 255
255 255 255
255 255 255
255 255 255
16 16 32
16 16 32
16 16 32
16 16 32
16 16 32
16 16 32
255 255 255
255 255 255
255 255 255
255 255 255
255 255 255
255 255 255
255 255 255
255 255 255
255 255 255
255 255 255
16 16 32
16 16 32
16 16 32
16 16 32
16 16 32
16 16 32
255 255 255
255 255 255
16 16 32
16 16 32
16 16 32
16 16 32
16 16 32
16 16 32
16 16 32
16 16 32
16 16 32
16 16 32
16 16 32
16 16 32
16 16 32
16 16 32
255 255 255
255 255 255
16 16 32
16 16 32
16 16 32
16 16 32
16 16 32
16 16 32
16 16 32
16 16 32
16 16 32
16 16 32
16 16 32
16 16 32
16 16 32
16 16 32
16 16 32
16 16 32
16 16 32
16 16 32
16 16 32
16 16 32
16 16 32
16 16 32
255 255 255
255 255 255
16 16 32
16 16 32
16 16 32
16 16 32
16 16 32
16 16 32
16 16 32
16 16 32
16 16 32
16 16 32
255 255 255
255 255 255
16 16 32
16 16 32
16 16 32
16 16 32
16 16 32
16 16 32
16 16 32
16 16 32
16 16 32
16 16 32
16 16 32
16 16 32
255 255 255
255 255 255
255 255 255
255 255 255
255 255 255
255 255 255
16 16 32
16 16 32
16 16 32
16 16 32
16 16 32
16 16 32
16 16 32
16 16 32
16 16 32
16 16 32
255 255 255
255 255 255
255 255 255
255 255 255
255 255 255
255 255 255
16 16 32
16 16 32
16 16 32
16 16 32
16 16 32
16 16 32
16 16 32
16 16 32
16 16 32
16 16 32
255 255 255
255 255 255
255 255 255
255 255 255
255 255 255
255 255 255
16 16 32
16 16 32
16 16 32
16 16 32
16 16 32
16 16 32
16 16 32
16 16 32
16 16 32
16 16 32
16 16 32
16 16 32
16 16 32
16 16 32
16 16 32
16 16 32
16 16 32
16 16 32
16 16 32
16 16 32
16 16 32
16 16 32
16 16 32
16 16 32
16 16 32
16 16 32
16 16 32
16 16 32
16 16 32
16 16 32
16 16 32
16 16 32
16 16 32
16 16 32
16 16 32
16 16 32
16 16 32
16 16 32
16 16 32
16 16 32
255 255 255
255 255 255
255 255 255
255 255 255
255 255 255
255 255 255
255 255 255
255 255 255
16 16 32
16 16 32
16 16 32
16 16 32
16 16 32
16 16 32
16 16 32
16 16 32
16 16 32
16 16 32
16 16 32
16 16 32
16 16 32
16 16 32
16 16 32
16 16 32
16 16 32
16 16 32
16 16 32
16 16 32
16 16 32
16 16 32
16 16 32
16 16 32
255 255 255
255 255 255
16 16 32
16 16 32
16 16 32
16 16 32
16 16 32
16 16 32
255 255 255
255 255 255
16 16 32
16 16 32
16 16 32
16 16 32
16 16 32
16 16 32
16 16 32
16 16 32
16 16 32
16 16 32
16 16 32
16 16 32
16 16 32
16 16 32
255 255 255
255 255 255
16 16 32
16 16 32
16 16 32
16 16 32
16 16 32
16 16 32
255 255 255
255 255 255
16 16 32
16 16 32
16 16 32
16 16 32
16 16 32
16 16 32
255 255 255
255 255 255
16 16 32
16 16 32
16 16 32
16 16 32
16 16 32
16 16 32
16 16 32
16 16 32
16 16 32
16 16 32
16 16 32
16 16 32
16 16 32
16 16 32
255 255 255
255 255 255
16 16 32
16 16 32
16 16 32
16 16 32
16 16 32
16 16 32
16 16 32
16 16 32
16 16 32
16 16 32
255 255 255
255 255 255
16 16 32
16 16 32
16 16 32
16 16 32
16 16 32
16 16 32
16 16 32
16 16 32
16 16 32
16 16 32
16 16 32
16 16 32
255 255 255
255 255 255
255 255 255
255 255 255
255 255 255
255 255 255
16 16 32
16 16 32
16 16 32
16 16 32
16 16 32
16 16 32
16 16 32
16 16 32
16 16 32
16 16 32
255 255 255
255 255 255
255 255 255
255 255 255
255 255 255
255 255 255
16 16 32
16 16 32
16 16 32
16 16 32
16 16 32
16 16 32
16 16 32
16 16 32
16 16 32
16 16 32
255 255 255
255 255 255
255 255 255
255 255 255
255 255 255
255 255 255
16 16 32
16 16 32
16 16 32
16 16 32
16 16 32
16 16 32
16 16 32
16 16 32
16 16 32
16 16 32
16 16 32
16 16 32
16 16 32
16 16 32
16 16 32
16 16 32
16 16 32
16 16 32
16 16 32
16 16 32
16 16 32
16 16 32
16 16 32
16 16 32
16 16 32
16 16 32
16 16 32
16 16 32
16 16 32
16 16 32
16 16 32
16 16 32
16 16 32
16 16 32
16 16 32
16 16 32
16 16 32
16 16 32
16 16 32
16 16 32
255 255 255
255 255 255
255 255 255
255 255 255
255 255 255
255 255 255
255 255 255
255 255 255
255 255 255
255 255 255
16 16 32
16 16 32
16 16 32
16 16 32
16 16 32
16 16 32
255 255 255
255 255 255
16 16 32
16 16 32
16 16 32
16 16 32
16 16 32
16 16 32
255 255 255
255 255 255
16 16 32
16 16 32
16 16 32
16 16 32
16 16 32
16 16 32
255 255 255
255 255 255
255 255 255
255 255 255
255 255 255
255 255 255
255 255 255
255 255 255
255 255 255
255 255 255
16 16 32
16 16 32
16 16 32
16 16 32
16 16 32
16 16 32
255 255 255
255 255 255
255 255 255
255 255 255
255 255 255
255 255 255
255 255 255
255 255 255
255 255 255
255 255 255
16 16 32
16 16 32
16 16 32
16 16 32
16 16 32
16 16 32
255 255 255
255 255 255
255 255 255
255 255 255
255 255 255
255 255 255
255 255 255
255 255 255
255 255 255
255 255 255
16 16 32
16 16 32
16 16 32
16 16 32
16 16 32
16 16 32
16 16 32
16 16 32
255 255 255
255 255 255
255 255 255
255 255 255
255 255 255
255 255 255
16 16 32
16 16 32
16 16 32
16 16 32
16 16 32
16 16 32
16 16 32
16 16 32
255 255 255
255 255 255
16 16 32
16 16 32
16 16 32
16 16 32
16 16 32
16 16 32
16 16 32
16 16 32
16 16 32
16 16 32
16 16 32
16 16 32
16 16 32
16 16 32
16 16 32
16 16 32
16 16 32
16 16 32
16 16 32
16 16 32
16 16 32
16 16 32
16 16 32
16 16 32
16 16 32
16 16 32
16 16 32
16 16 32
16 16 32
16 16 32
255 255 255
255 255 255
255 255 255
255 255 255
255 255 255
255 255 255
255 255 255
255 255 255
16 16 32
16 16 32
16 16 32
16 16 32
16 16 32
16 16 32
16 16 32
16 16 32
255 255 255
255 255 255
16 16 32
16 16 32
16 16 32
16 16 32
16 16 32
16 16 32
255 255 255
255 255 255
16 16 32
16 16 32
16 16 32
16 16 32
16 16 32
16 16 32
255 255 255
255 255 255
16 16 32
16 16 32
16 16 32
16 16 32
16 16 32
16 16 32
16 16 32
16 16 32
16 16 32
16 16 32
16 16 32
16 16 32
16 16 32
16 16 32
255 255 255
255 255 255
255 255 255
255 255 255
255 255 255
255 255 255
255 255 255
255 255 255
255 255 255
255 255 255
16 16 32
16 16 32
16 16 32
16 16 32
16 16 32
16 16 32
16 16 32
16 16 32
255 255 255
255 255 255
255 255 255
255 255 255
255 255 255
255 255 255
255 255 255
255 255 255
16 16 32
16 16 32
16 16 32
16 16 32
16 16 32
16 16 32
16 16 32
16 16 32
16 16 32
16 16 32
16 16 32
16 16 32
16 16 32
16 16 32
16 16 32
16 16 32
16 16 32
16 16 32
16 16 32
16 16 32
16 16 32
16 16 32
16 16 32
16 16 32
16 16 32
16 16 32
16 16 32
16 16 32
16 16 32
16 16 32
16 16 32
16 16 32
16 16 32
16 16 32
16 16 32
16 16 32
16 16 32
16 16 32
16 16 32
16 16 32
16 16 32
16 16 32
16 16 32
16 16 32
16 16 32
16 16 32
16 16 32
16 16 32
16 16 32
16 16 32
16 16 32
16 16 32
16 16 32
16 16 32
16 16 32
16 16 32
16 16 32
16 16 32
16 16 32
16 16 32
16 16 32
16 16 32
16 16 32
16 16 32
16 16 32
16 16 32
16 16 32
16 16 32
16 16 32
16 16 32
16 16 32
16 16 32
16 16 32
16 16 32
16 16 32
16 16 32
16 16 32
16 16 32
16 16 32
16 16 32
16 16 32
16 16 32
16 16 32
16 16 32
16 16 32
16 16 32
16 16 32
16 16 32
16 16 32
16 16 32
16 16 32
16 16 32
16 16 32
16 16 32
16 16 32
16 16 32
16 16 32
16 16 32
16 16 32
16 16 32
16 16 32
16 16 32
16 16 32
16 16 32
16 16 32
16 16 32
16 16 32
16 16 32
16 16 32
16 16 32
16 16 32
16 16 32
16 16 32
16 16 32
16 16 32
16 16 32
16 16 32
16 16 32
16 16 32
16 16 32
16 16 32
16 16 32
16 16 32
16 16 32
16 16 32
16 16 32
16 16 32
16 16 32
16 16 32
16 16 32
16 16 32
16 16 32
16 16 32
16 16 32
16 16 32
16 16 32
16 16 32
16 16 32
16 16 32
16 16 32
16 16 32
16 16 32
16 16 32
16 16 32
16 16 32
16 16 32
16 16 32
16 16 32
16 16 32
16 16 32
16 16 32
16 16 32
16 16 32
16 16 32
16 16 32
16 16 32
16 16 32
16 16 32
16 16 32
16 16 32
16 16 32
16 16 32
16 16 32
16 16 32
16 16 32
16 16 32
16 16 32
16 16 32
16 16 32
16 16 32
16 16 32
16 16 32
16 16 32
16 16 32
16 16 32
16 16 32
16 16 32
16 16 32
16 16 32
16 16 32
16 16 32
16 16 32
16 16 32
16 16 32
16 16 32
16 16 32
16 16 32
16 16 32
16 16 32
16 16 32
16 16 32
16 16 32
16 16 32
16 16 32
16 16 32
16 16 32
16 16 32
16 16 32
16 16 32
16 16 32
16 16 32
16 16 32
16 16 32
16 16 32
16 16 32
16 16 32
16 16 32
16 16 32
16 16 32
16 16 32
16 16 32
16 16 32
16 16 32
16 16 32
16 16 32
16 16 32
16 16 32
16 16 32
16 16 32
16 16 32
16 16 32
16 16 32
16 16 32
16 16 32
16 16 32
16 16 32
16 16 32
16 16 32
16 16 32
16 16 32
16 16 32
16 16 32
16 16 32
16 16 32
16 16 32
16 16 32
16 16 32
16 16 32
16 16 32
16 16 32
16 16 32
16 16 32
16 16 32
16 16 32
16 16 32
16 16 32
16 16 32
16 16 32
16 16 32
16 16 32
16 16 32
16 16 32
16 16 32
16 16 32
16 16 32
16 16 32
16 16 32
16 16 32
16 16 32
16 16 32
16 16 32
16 16 32
255 255 255
255 255 255
255 255 255
255 255 255
255 255 255
255 255 255
255 255 255
255 255 255
16 16 32
16 16 32
16 16 32
16 16 32
16 16 32
16 16 32
16 16 32
16 16 32
16 16 32
16 16 32
255 255 255
255 255 255
255 255 255
255 255 255
255 255 255
255 255 255
16 16 32
16 16 32
16 16 32
16 16 32
16 16 32
16 16 32
16 16 32
16 16 32
16 16 32
16 16 32
16 16 32
16 16 32
16 16 32
16 16 32
16 16 32
16 16 32
16 16 32
16 16 32
16 16 32
16 16 32
16 16 32
16 16 32
16 16 32
16 16 32
255 255 255
255 255 255
16 16 32
16 16 32
16 16 32
16 16 32
16 16 32
16 16 32
16 16 32
16 16 32
16 16 32
16 16 32
16 16 32
16 16 32
16 16 32
16 16 32
16 16 32
16 16 32
255 255 255
255 255 255
255 255 255
255 255 255
255 255 255
255 255 255
16 16 32
16 16 32
16 16 32
16 16 32
16 16 32
16 16 32
16 16 32
16 16 32
255 255 255
255 255 255
16 16 32
16 16 32
16 16 32
16 16 32
16 16 32
16 16 32
255 255 255
255 255 255
16 16 32
16 16 32
16 16 32
16 16 32
16 16 32
16 16 32
16 16 32
16 16 32
16 16 32
16 16 32
16 16 32
16 16 32
16 16 32
16 16 32
16 16 32
16 16 32
16 16 32
16 16 32
16 16 32
16 16 32
16 16 32
16 16 32
16 16 32
16 16 32
255 255 255
255 255 255
255 255 255
255 255 255
255 255 255
255 255 255
16 16 32
16 16 32
16 16 32
16 16 32
16 16 32
16 16 32
16 16 32
16 16 32
16 16 32
16 16 32
255 255 255
255 255 255
255 255 255
255 255 255
255 255 255
255 255 255
16 16 32
16 16 32
16 16 32
16 16 32
16 16 32
16 16 32
16 16 32
16 16 32
16 16 32
16 16 32
16 16 32
16 16 32
16 16 32
16 16 32
16 16 32
16 16 32
16 16 32
16 16 32
16 16 32
16 16 32
16 16 32
16 16 32
16 16 32
16 16 32
16 16 32
16 16 32
16 16 32
16 16 32
16 16 32
16 16 32
16 16 32
16 16 32
16 16 32
16 16 32
16 16 32
16 16 32
16 16 32
16 16 32
16 16 32
16 16 32
255 255 255
255 255 255
255 255 255
255 255 255
255 255 255
255 255 255
255 255 255
255 255 255
255 255 255
255 255 255
16 16 32
16 16 32
16 16 32
16 16 32
16 16 32
16 16 32
16 16 32
16 16 32
16 16 32
16 16 32
16 16 32
16 16 32
16 16 32
16 16 32
16 16 32
16 16 32
16 16 32
16 16 32
16 16 32
16 16 32
16 16 32
16 16 32
255 255 255
255 255 255
255 255 255
255 255 255
255 255 255
255 255 255
255 255 255
255 255 255
255 255 255
255 255 255
16 16 32
16 16 32
16 16 32
16 16 32
16 16 32
16 16 32
255 255 255
255 255 255
255 255 255
255 255 255
255 255 255
255 255 255
255 255 255
255 255 255
255 255 255
255 255 255
16 16 32
16 16 32
16 16 32
16 16 32
16 16 32
16 16 32
255 255 255
255 255 255
16 16 32
16 16 32
16 16 32
16 16 32
16 16 32
16 16 32
16 16 32
16 16 32
16 16 32
16 16 32
16 16 32
16 16 32
16 16 32
16 16 32
255 255 255
255 255 255
16 16 32
16 16 32
16 16 32
16 16 32
16 16 32
16 16 32
16 16 32
16 16 32
16 16 32
16 16 32
16 16 32
16 16 32
16 16 32
16 16 32
16 16 32
16 16 32
16 16 32
16 16 32
16 16 32
16 16 32
16 16 32
16 16 32
255 255 255
255 255 255
16 16 32
16 16 32
16 16 32
16 16 32
16 16 32
16 16 32
16 16 32
16 16 32
16 16 32
16 16 32
255 255 255
255 255 255
16 16 32
16 16 32
16 16 32
16 16 32
16 16 32
16 16 32
16 16 32
16 16 32
16 16 32
16 16 32
16 16 32
16 16 32
255 255 255
255 255 255
255 255 255
255 255 255
255 255 255
255 255 255
16 16 32
16 16 32
16 16 32
16 16 32
16 16 32
16 16 32
16 16 32
16 16 32
16 16 32
16 16 32
255 255 255
255 255 255
255 255 255
255 255 255
255 255 255
255 255 255
16 16 32
16 16 32
16 16 32
16 16 32
16 16 32
16 16 32
16 16 32
16 16 32
16 16 32
16 16 32
255 255 255
255 255 255
255 255 255
255 255 255
255 255 255
255 255 255
16 16 32
16 16 32
16 16 32
16 16 32
16 16 32
16 16 32
16 16 32
16 16 32
16 16 32
16 16 32
16 16 32
16 16 32
16 16 32
16 16 32
16 16 32
16 16 32
16 16 32
16 16 32
16 16 32
16 16 32
16 16 32
16 16 32
16 16 32
16 16 32
16 16 32
16 16 32
16 16 32
16 16 32
16 16 32
16 16 32
16 16 32
16 16 32
16 16 32
16 16 32
16 16 32
16 16 32
16 16 32
16 16 32
16 16 32
16 16 32
255 255 255
255 255 255
255 255 255
255 255 255
255 255 255
255 255 255
255 255 255
255 255 255
16 16 32
16 16 32
16 16 32
16 16 32
16 16 32
16 16 32
16 16 32
16 16 32
16 16 32
16 16 32
16 16 32
16 16 32
16 16 32
16 16 32
16 16 32
16 16 32
16 16 32
16 16 32
16 16 32
16 16 32
16 16 32
16 16 32
16 16 32
16 16 32
255 255 255
255 255 255
16 16 32
16 16 32
16 16 32
16 16 32
16 16 32
16 16 32
255 255 255
255 255 255
16 16 32
16 16 32
16 16 32
16 16 32
16 16 32
16 16 32
16 16 32
16 16 32
16 16 32
16 16 32
16 16 32
16 16 32
16 16 32
16 16 32
255 255 255
255 255 255
16 16 32
16 16 32
16 16 32
16 16 32
16 16 32
16 16 32
255 255 255
255 255 255
16 16 32
16 16 32
16 16 32
16 16 32
16 16 32
16 16 32
255 255 255
255 255 255
16 16 32
16 16 32
16 16 32
16 16 32
16 16 32
16 16 32
16 16 32
16 16 32
16 16 32
16 16 32
16 16 32
16 16 32
16 16 32
16 16 32
255 255 255
255 255 255
16 16 32
16 16 32
16 16 32
16 16 32
16 16 32
16 16 32
16 16 32
16 16 32
16 16 32
16 16 32
255 255 255
255 255 255
16 16 32
16 16 32
16 16 32
16 16 32
16 16 32
16 16 32
16 16 32
16 16 32
16 16 32
16 16 32
16 16 32
16 16 32
255 255 255
255 255 255
255 255 255
255 255 255
255 255 255
255 255 255
16 16 32
16 16 32
16 16 32
16 16 32
16 16 32
16 16 32
16 16 32
16 16 32
16 16 32
16 16 32
255 255 255
255 255 255
255 255 255
255 255 255
255 255 255
255 255 255
16 16 32
16 16 32
16 16 32
16 16 32
16 16 32
16 16 32
16 16 32
16 16 32
16 16 32
16 16 32
255 255 255
255 255 255
255 255 255
255 255 255
255 255 255
255 255 255
16 16 32
16 16 32
16 16 32
16 16 32
16 16 32
16 16 32
16 16 32
16 16 32
16 16 32
16 16 32
16 16 32
16 16 32
16 16 32
16 16 32
16 16 32
16 16 32
16 16 32
16 16 32
16 16 32
16 16 32
16 16 32
16 16 32
16 16 32
16 16 32
16 16 32
16 16 32
16 16 32
16 16 32
16 16 32
16 16 32
16 16 32
16 16 32
16 16 32
16 16 32
16 16 32
16 16 32
16 16 32
16 16 32
16 16 32
16 16 32
255 255 255
255 255 255
255 255 255
255 255 255
255 255 255
255 255 255
255 255 255
255 255 255
255 255 255
255 255 255
16 16 32
16 16 32
16 16 32
16 16 32
16 16 32
16 16 32
255 255 255
255 255 255
16 16 32
16 16 32
16 16 32
16 16 32
16 16 32
16 16 32
255 255 255
255 255 255
16 16 32
16 16 32
16 16 32
16 16 32
16 16 32
16 16 32
255 255 255
255 255 255
255 255 255
255 255 255
255 255 255
255 255 255
255 255 255
255 255 255
255 255 255
255 255 255
16 16 32
16 16 32
16 16 32
16 16 32
16 16 32
16 16 32
255 255 255
255 255 255
255 255 255
255 255 255
255 255 255
255 255 255
255 255 255
255 255 255
255 255 255
255 255 255
16 16 32
16 16 32
16 16 32
16 16 32
16 16 32
16 16 32
255 255 255
255 255 255
255 255 255
255 255 255
255 255 255
255 255 255
255 255 255
255 255 255
255 255 255
255 255 255
16 16 32
16 16 32
16 16 32
16 16 32
16 16 32
16 16 32
16 16 32
16 16 32
255 255 255
255 255 255
255 255 255
255 255 255
255 255 255
255 255 255
16 16 32
16 16 32
16 16 32
16 16 32
16 16 32
16 16 32
16 16 32
16 16 32
255 255 255
255 255 255
16 16 32
16 16 32
16 16 32
16 16 32
16 16 32
16 16 32
16 16 32
16 16 32
16 16 32
16 16 32
16 16 32
16 16 32
16 16 32
16 16 32
16 16 32
16 16 32
16 16 32
16 16 32
16 16 32
16 16 32
16 16 32
16 16 32
16 16 32
16 16 32
16 16 32
16 16 32
16 16 32
16 16 32
16 16 32
16 16 32
255 255 255
255 255 255
255 255 255
255 255 255
255 255 255
255 255 255
255 255 255
255 255 255
16 16 32
16 16 32
16 16 32
16 16 32
16 16 32
16 16 32
16 16 32
16 16 32
255 255 255
255 255 255
16 16 32
16 16 32
16 16 32
16 16 32
16 16 32
16 16 32
255 255 255
255 255 255
16 16 32
16 16 32
16 16 32
16 16 32
16 16 32
16 16 32
255 255 255
255 255 255
16 16 32
16 16 32
16 16 32
16 16 32
16 16 32
16 16 32
16 16 32
16 16 32
16 16 32
16 16 32
16 16 32
16 16 32
16 16 32
16 16 32
255 255 255
255 255 255
255 255 255
255 255 255
255 255 255
255 255 255
255 255 255
255 255 255
255 255 255
255 255 255
16 16 32
16 16 32
16 16 32
16 16 32
16 16 32
16 16 32
16 16 32
16 16 32
255 255 255
255 255 255
255 255 255
255 255 255
255 255 255
255 255 255
255 255 255
255 255 255
16 16 32
16 16 32
16 16 32
16 16 32
16 16 32
16 16 32
16 16 32
16 16 32
16 16 32
16 16 32
16 16 32
16 16 32
16 16 32
16 16 32
16 16 32
16 16 32
16 16 32
16 16 32
16 16 32
16 16 32
16 16 32
16 16 32
16 16 32
16 16 32
16 16 32
16 16 32
16 16 32
16 16 32
16 16 32
16 16 32
16 16 32
16 16 32
16 16 32
16 16 32
16 16 32
16 16 32
16 16 32
16 16 32
16 16 32
16 16 32
16 16 32
16 16 32
16 16 32
16 16 32
16 16 32
16 16 32
16 16 32
16 16 32
16 16 32
16 16 32
16 16 32
16 16 32
16 16 32
16 16 32
16 16 32
16 16 32
16 16 32
16 16 32
16 16 32
16 16 32
16 16 32
16 16 32
16 16 32
16 16 32
16 16 32
16 16 32
16 16 32
16 16 32
16 16 32
16 16 32
16 16 32
16 16 32
16 16 32
16 16 32
16 16 32
16 16 32
16 16 32
16 16 32
16 16 32
16 16 32
16 16 32
16 16 32
16 16 32
16 16 32
16 16 32
16 16 32
16 16 32
16 16 32
16 16 32
16 16 32
16 16 32
16 16 32
16 16 32
16 16 32
16 16 32
16 16 32
16 16 32
16 16 32
16 16 32
16 16 32
16 16 32
16 16 32
16 16 32
16 16 32
16 16 32
16 16 32
16 16 32
16 16 32
16 16 32
16 16 32
16 16 32
16 16 32
16 16 32
16 16 32
16 16 32
16 16 32
16 16 32
16 16 32
16 16 32
16 16 32
16 16 32
16 16 32
16 16 32
16 16 32
16 16 32
16 16 32
16 16 32
16 16 32
16 16 32
16 16 32
16 16 32
16 16 32
16 16 32
16 16 32
16 16 32
16 16 32
16 16 32
16 16 32
16 16 32
16 16 32
16 16 32
16 16 32
16 16 32
16 16 32
16 16 32
16 16 32
16 16 32
16 16 32
16 16 32
16 16 32
16 16 32
16 16 32
16 16 32
16 16 32
16 16 32
16 16 32
16 16 32
16 16 32
16 16 32
16 16 32
16 16 32
16 16 32
16 16 32
16 16 32
16 16 32
16 16 32
16 16 32
16 16 32
16 16 32
16 16 32
16 16 32
16 16 32
16 16 32
16 16 32
16 16 32
16 16 32
16 16 32
16 16 32
16 16 32
16 16 32
16 16 32
16 16 32
16 16 32
16 16 32
16 16 32
16 16 32
16 16 32
16 16 32
16 16 32
16 16 32
16 16 32
16 16 32
16 16 32
16 16 32
16 16 32
16 16 32
16 16 32
16 16 32
16 16 32
16 16 32
16 16 32
16 16 32
16 16 32
16 16 32
16 16 32
16 16 32
16 16 32
16 16 32
16 16 32
16 16 32
16 16 32
16 16 32
16 16 32
16 16 32
16 16 32
16 16 32
16 16 32
16 16 32
16 16 32
16 16 32
16 16 32
16 16 32
16 16 32
16 16 32
16 16 32
16 16 32
16 16 32
16 16 32
16 16 32
16 16 32
16 16 32
16 16 32
16 16 32
16 16 32
16 16 32
16 16 32
16 16 32
16 16 32
16 16 32
16 16 32
16 16 32
16 16 32
16 16 32
16 16 32
16 16 32
16 16 32
16 16 32
16 16 32
16 16 32
16 16 32
16 16 32
16 16 32
16 16 32
16 16 32
16 16 32
16 16 32
16 16 32
16 16 32
16 16 32
16 16 32
16 16 32
16 16 32
255 255 255
255 255 255
16 16 32
16 16 32
16 16 32
16 16 32
16 16 32
16 16 32
255 255 255
255 255 255
16 16 32
16 16 32
16 16 32
16 16 32
16 16 32
16 16 32
255 255 255
255 255 255
16 16 32
16 16 32
16 16 32
16 16 32
16 16 32
16 16 32
255 255 255
255 255 255
16 16 32
16 16 32
16 16 32
16 16 32
16 16 32
16 16 32
16 16 32
16 16 32
16 16 32
16 16 32
16 16 32
16 16 32
16 16 32
16 16 32
16 16 32
16 16 32
16 16 32
16 16 32
16 16 32
16 16 32
16 16 32
16 16 32
255 255 255
255 255 255
16 16 32
16 16 32
16 16 32
16 16 32
16 16 32
16 16 32
16 16 32
16 16 32
16 16 32
16 16 32
16 16 32
16 16 32
16 16 32
16 16 32
255 255 255
255 255 255
16 16 32
16 16 32
16 16 32
16 16 32
16 16 32
16 16 32
255 255 255
255 255 255
16 16 32
16 16 32
16 16 32
16 16 32
16 16 32
16 16 32
255 255 255
255 255 255
16 16 32
16 16 32
16 16 32
16 16 32
16 16 32
16 16 32
255 255 255
255 255 255
16 16 32
16 16 32
16 16 32
16 16 32
16 16 32
16 16 32
16 16 32
16 16 32
16 16 32
16 16 32
16 16 32
16 16 32
16 16 32
16 16 32
16 16 32
16 16 32
16 16 32
16 16 32
16 16 32
16 16 32
16 16 32
16 16 32
255 255 255
255 255 255
16 16 32
16 16 32
16 16 32
16 16 32
16 16 32
16 16 32
255 255 255
255 255 255
16 16 32
16 16 32
16 16 32
16 16 32
16 16 32
16 16 32
255 255 255
255 255 255
16 16 32
16 16 32
16 16 32
16 16 32
16 16 32
16 16 32
255 255 255
255 255 255
16 16 32
16 16 32
16 16 32
16 16 32
16 16 32
16 16 32
16 16 32
16 16 32
16 16 32
16 16 32
16 16 32
16 16 32
16 16 32
16 16 32
16 16 32
16 16 32
16 16 32
16 16 32
16 16 32
16 16 32
16 16 32
16 16 32
16 16 32
16 16 32
16 16 32
16 16 32
16 16 32
16 16 32
16 16 32
16 16 32
16 16 32
16 16 32
16 16 32
16 16 32
16 16 32
16 16 32
16 16 32
16 16 32
255 255 255
255 255 255
16 16 32
16 16 32
16 16 32
16 16 32
16 16 32
16 16 32
16 16 32
16 16 32
16 16 32
16 16 32
16 16 32
16 16 32
16 16 32
16 16 32
16 16 32
16 16 32
16 16 32
16 16 32
16 16 32
16 16 32
16 16 32
16 16 32
16 16 32
16 16 32
16 16 32
16 16 32
16 16 32
16 16 32
16 16 32
16 16 32
255 255 255
255 255 255
16 16 32
16 16 32
16 16 32
16 16 32
16 16 32
16 16 32
16 16 32
16 16 32
16 16 32
16 16 32
16 16 32
16 16 32
16 16 32
16 16 32
16 16 32
16 16 32
16 16 32
16 16 32
255 255 255
255 255 255
16 16 32
16 16 32
16 16 32
16 16 32
16 16 32
16 16 32
16 16 32
16 16 32
16 16 32
16 16 32
255 255 255
255 255 255
16 16 32
16 16 32
16 16 32
16 16 32
16 16 32
16 16 32
16 16 32
16 16 32
16 16 32
16 16 32
16 16 32
16 16 32
16 16 32
16 16 32
255 255 255
255 255 255
16 16 32
16 16 32
16 16 32
16 16 32
16 16 32
16 16 32
16 16 32
16 16 32
16 16 32
16 16 32
16 16 32
16 16 32
16 16 32
16 16 32
16 16 32
16 16 32
16 16 32
16 16 32
16 16 32
16 16 32
255 255 255
255 255 255
16 16 32
16 16 32
16 16 32
16 16 32
16 16 32
16 16 32
16 16 32
16 16 32
16 16 32
16 16 32
255 255 255
255 255 255
255 255 255
255 255 255
16 16 32
16 16 32
16 16 32
16 16 32
16 16 32
16 16 32
16 16 32
16 16 32
16 16 32
16 16 32
255 255 255
255 255 255
16 16 32
16 16 32
16 16 32
16 16 32
16 16 32
16 16 32
255 255 255
255 255 255
16 16 32
16 16 32
16 16 32
16 16 32
16 16 32
16 16 32
255 255 255
255 255 255
16 16 32
16 16 32
16 16 32
16 16 32
16 16 32
16 16 32
255 255 255
255 255 255
16 16 32
16 16 32
16 16 32
16 16 32
16 16 32
16 16 32
255 255 255
255 255 255
16 16 32
16 16 32
16 16 32
16 16 32
16 16 32
16 16 32
255 255 255
255 255 255
16 16 32
16 16 32
16 16 32
16 16 32
16 16 32
16 16 32
16 16 32
16 16 32
16 16 32
16 16 32
16 16 32
16 16 32
16 16 32
16 16 32
16 16 32
16 16 32
16 16 32
16 16 32
16 16 32
16 16 32
16 16 32
16 16 32
16 16 32
16 16 32
16 16 32
16 16 32
16 16 32
16 16 32
16 16 32
16 16 32
16 16 32
16 16 32
16 16 32
16 16 32
16 16 32
16 16 32
16 16 32
16 16 32
255 255 255
255 255 255
16 16 32
16 16 32
16 16 32
16 16 32
16 16 32
16 16 32
255 255 255
255 255 255
16 16 32
16 16 32
16 16 32
16 16 32
16 16 32
16 16 32
16 16 32
16 16 32
16 16 32
16 16 32
16 16 32
16 16 32
16 16 32
16 16 32
16 16 32
16 16 32
16 16 32
16 16 32
16 16 32
16 16 32
16 16 32
16 16 32
255 255 255
255 255 255
16 16 32
16 16 32
16 16 32
16 16 32
16 16 32
16 16 32
255 255 255
255 255 255
16 16 32
16 16 32
16 16 32
16 16 32
16 16 32
16 16 32
16 16 32
16 16 32
16 16 32
16 16 32
16 16 32
16 16 32
255 255 255
255 255 255
16 16 32
16 16 32
16 16 32
16 16 32
16 16 32
16 16 32
16 16 32
16 16 32
255 255 255
255 255 255
16 16 32
16 16 32
16 16 32
16 16 32
16 16 32
16 16 32
255 255 255
255 255 255
16 16 32
16 16 32
16 16 32
16 16 32
16 16 32
16 16 32
16 16 32
16 16 32
16 16 32
16 16 32
16 16 32
16 16 32
255 255 255
255 255 255
16 16 32
16 16 32
16 16 32
16 16 32
16 16 32
16 16 32
16 16 32
16 16 32
16 16 32
16 16 32
255 255 255
255 255 255
255 255 255
255 255 255
16 16 32
16 16 32
16 16 32
16 16 32
16 16 32
16 16 32
16 16 32
16 16 32
16 16 32
16 16 32
255 255 255
255 255 255
16 16 32
16 16 32
16 16 32
16 16 32
16 16 32
16 16 32
255 255 255
255 255 255
16 16 32
16 16 32
16 16 32
16 16 32
16 16 32
16 16 32
255 255 255
255 255 255
16 16 32
16 16 32
16 16 32
16 16 32
16 16 32
16 16 32
255 255 255
255 255 255
16 16 32
16 16 32
16 16 32
16 16 32
16 16 32
16 16 32
255 255 255
255 255 255
16 16 32
16 16 32
16 16 32
16 16 32
16 16 32
16 16 32
255 255 255
255 255 255
16 16 32
16 16 32
16 16 32
16 16 32
16 16 32
16 16 32
16 16 32
16 16 32
16 16 32
16 16 32
16 16 32
16 16 32
16 16 32
16 16 32
16 16 32
16 16 32
16 16 32
16 16 32
16 16 32
16 16 32
16 16 32
16 16 32
16 16 32
16 16 32
16 16 32
16 16 32
16 16 32
16 16 32
16 16 32
16 16 32
16 16 32
16 16 32
16 16 32
16 16 32
16 16 32
16 16 32
16 16 32
16 16 32
16 16 32
16 16 32
16 16 32
16 16 32
255 255 255
255 255 255
16 16 32
16 16 32
16 16 32
16 16 32
16 16 32
16 16 32
16 16 32
16 16 32
16 16 32
16 16 32
255 255 255
255 255 255
255 255 255
255 255 255
16 16 32
16 16 32
16 16 32
16 16 32
255 255 255
255 255 255
16 16 32
16 16 32
16 16 32
16 16 32
16 16 32
16 16 32
16 16 32
16 16 32
16 16 32
16 16 32
255 255 255
255 255 255
16 16 32
16 16 32
16 16 32
16 16 32
16 16 32
16 16 32
16 16 32
16 16 32
16 16 32
16 16 32
16 16 32
16 16 32
16 16 32
16 16 32
255 255 255
255 255 255
16 16 32
16 16 32
16 16 32
16 16 32
16 16 32
16 16 32
16 16 32
16 16 32
16 16 32
16 16 32
16 16 32
16 16 32
16 16 32
16 16 32
255 255 255
255 255 255
16 16 32
16 16 32
16 16 32
16 16 32
16 16 32
16 16 32
16 16 32
16 16 32
16 16 32
16 16 32
255 255 255
255 255 255
16 16 32
16 16 32
16 16 32
16 16 32
16 16 32
16 16 32
255 255 255
255 255 255
16 16 32
16 16 32
16 16 32
16 16 32
16 16 32
16 16 32
255 255 255
255 255 255
16 16 32
16 16 32
16 16 32
16 16 32
16 16 32
16 16 32
16 16 32
16 16 32
16 16 32
16 16 32
16 16 32
16 16 32
16 16 32
16 16 32
16 16 32
16 16 32
16 16 32
16 16 32
16 16 32
16 16 32
16 16 32
16 16 32
16 16 32
16 16 32
16 16 32
16 16 32
16 16 32
16 16 32
16 16 32
16 16 32
255 255 255
255 255 255
16 16 32
16 16 32
16 16 32
16 16 32
16 16 32
16 16 32
255 255 255
255 255 255
16 16 32
16 16 32
16 16 32
16 16 32
16 16 32
16 16 32
255 255 255
255 255 255
16 16 32
16 16 32
16 16 32
16 16 32
16 16 32
16 16 32
255 255 255
255 255 255
16 16 32
16 16 32
16 16 32
16 16 32
16 16 32
16 16 32
255 255 255
255 255 255
16 16 32
16 16 32
16 16 32
16 16 32
16 16 32
16 16 32
16 16 32
16 16 32
16 16 32
16 16 32
16 16 32
16 16 32
16 16 32
16 16 32
255 255 255
255 255 255
16 16 32
16 16 32
16 16 32
16 16 32
16 16 32
16 16 32
16 16 32
16 16 32
16 16 32
16 16 32
16 16 32
16 16 32
16 16 32
16 16 32
255 255 255
255 255 255
16 16 32
16 16 32
16 16 32
16 16 32
16 16 32
16 16 32
16 16 32
16 16 32
16 16 32
16 16 32
16 16 32
16 16 32
16 16 32
16 16 32
16 16 32
16 16 32
16 16 32
16 16 32
16 16 32
16 16 32
16 16 32
16 16 32
16 16 32
16 16 32
16 16 32
16 16 32
16 16 32
16 16 32
16 16 32
16 16 32
16 16 32
16 16 32
16 16 32
16 16 32
16 16 32
16 16 32
16 16 32
16 16 32
16 16 32
16 16 32
16 16 32
16 16 32
16 16 32
16 16 32
16 16 32
16 16 32
16 16 32
16 16 32
16 16 32
16 16 32
16 16 32
16 16 32
16 16 32
16 16 32
16 16 32
16 16 32
16 16 32
16 16 32
16 16 32
16 16 32
16 16 32
16 16 32
16 16 32
16 16 32
16 16 32
16 16 32
16 16 32
16 16 32
16 16 32
16 16 32
16 16 32
16 16 32
16 16 32
16 16 32
16 16 32
16 16 32
16 16 32
16 16 32
16 16 32
16 16 32
16 16 32
16 16 32
16 16 32
16 16 32
16 16 32
16 16 32
16 16 32
16 16 32
16 16 32
16 16 32
16 16 32
16 16 32
16 16 32
16 16 32
16 16 32
16 16 32
16 16 32
16 16 32
16 16 32
16 16 32
16 16 32
16 16 32
16 16 32
16 16 32
16 16 32
16 16 32
16 16 32
16 16 32
16 16 32
16 16 32
16 16 32
16 16 32
16 16 32
16 16 32
16 16 32
16 16 32
16 16 32
16 16 32
16 16 32
16 16 32
16 16 32
16 16 32
16 16 32
16 16 32
16 16 32
16 16 32
16 16 32
16 16 32
16 16 32
16 16 32
16 16 32
16 16 32
16 16 32
16 16 32
16 16 32
16 16 32
16 16 32
16 16 32
16 16 32
16 16 32
16 16 32
16 16 32
16 16 32
16 16 32
16 16 32
16 16 32
16 16 32
16 16 32
16 16 32
16 16 32
16 16 32
16 16 32
16 16 32
16 16 32
16 16 32
16 16 32
16 16 32
16 16 32
16 16 32
16 16 32
16 16 32
16 16 32
16 16 32
16 16 32
16 16 32
16 16 32
16 16 32
16 16 32
16 16 32
16 16 32
16 16 32
16 16 32
16 16 32
16 16 32
16 16 32
16 16 32
16 16 32
16 16 32
16 16 32
16 16 32
16 16 32
16 16 32
16 16 32
16 16 32
16 16 32
16 16 32
16 16 32
16 16 32
16 16 32
16 16 32
16 16 32
16 16 32
16 16 32
16 16 32
16 16 32
16 16 32
16 16 32
16 16 32
16 16 32
16 16 32
16 16 32
16 16 32
16 16 32
16 16 32
16 16 32
16 16 32
16 16 32
16 16 32
16 16 32
16 16 32
16 16 32
16 16 32
16 16 32
16 16 32
16 16 32
16 16 32
16 16 32
16 16 32
16 16 32
16 16 32
16 16 32
16 16 32
16 16 32
16 16 32
16 16 32
16 16 32
16 16 32
16 16 32
16 16 32
16 16 32
16 16 32
16 16 32
16 16 32
16 16 32
16 16 32
16 16 32
16 16 32
16 16 32
16 16 32
16 16 32
16 16 32
16 16 32
16 16 32
16 16 32
16 16 32
16 16 32
16 16 32
16 16 32
16 16 32
16 16 32
16 16 32
16 16 32
16 16 32
16 16 32
16 16 32
16 16 32
16 16 32
16 16 32
16 16 32
16 16 32
16 16 32
16 16 32
16 16 32
16 16 32
16 16 32
16 16 32
16 16 32
16 16 32
16 16 32
16 16 32
255 255 255
255 255 255
16 16 32
16 16 32
16 16 32
16 16 32
16 16 32
16 16 32
255 255 255
255 255 255
16 16 32
16 16 32
16 16 32
16 16 32
16 16 32
16 16 32
255 255 255
255 255 255
16 16 32
16 16 32
16 16 32
16 16 32
16 16 32
16 16 32
255 255 255
255 255 255
16 16 32
16 16 32
16 16 32
16 16 32
16 16 32
16 16 32
16 16 32
16 16 32
16 16 32
16 16 32
16 16 32
16 16 32
16 16 32
16 16 32
16 16 32
16 16 32
16 16 32
16 16 32
16 16 32
16 16 32
16 16 32
16 16 32
255 255 255
255 255 255
16 16 32
16 16 32
16 16 32
16 16 32
16 16 32
16 16 32
16 16 32
16 16 32
16 16 32
16 16 32
16 16 32
16 16 32
16 16 32
16 16 32
255 255 255
255 255 255
16 16 32
16 16 32
16 16 32
16 16 32
16 16 32
16 16 32
255 255 255
255 255 255
16 16 32
16 16 32
16 16 32
16 16 32
16 16 32
16 16 32
255 255 255
255 255 255
16 16 32
16 16 32
16 16 32
16 16 32
16 16 32
16 16 32
255 255 255
255 255 255
16 16 32
16 16 32
16 16 32
16 16 32
16 16 32
16 16 32
16 16 32
16 16 32
16 16 32
16 16 32
16 16 32
16 16 32
16 16 32
16 16 32
16 16 32
16 16 32
16 16 32
16 16 32
16 16 32
16 16 32
16 16 32
16 16 32
255 255 255
255 255 255
16 16 32
16 16 32
16 16 32
16 16 32
16 16 32
16 16 32
255 255 255
255 255 255
16 16 32
16 16 32
16 16 32
16 16 32
16 16 32
16 16 32
255 255 255
255 255 255
16 16 32
16 16 32
16 16 32
16 16 32
16 16 32
16 16 32
255 255 255
255 255 255
16 16 32
16 16 32
16 16 32
16 16 32
16 16 32
16 16 32
16 16 32
16 16 32
16 16 32
16 16 32
16 16 32
16 16 32
16 16 32
16 16 32
16 16 32
16 16 32
16 16 32
16 16 32
16 16 32
16 16 32
16 16 32
16 16 32
16 16 32
16 16 32
16 16 32
16 16 32
16 16 32
16 16 32
16 16 32
16 16 32
16 16 32
16 16 32
16 16 32
16 16 32
16 16 32
16 16 32
16 16 32
16 16 32
255 255 255
255 255 255
16 16 32
16 16 32
16 16 32
16 16 32
16 16 32
16 16 32
16 16 32
16 16 32
16 16 32
16 16 32
16 16 32
16 16 32
16 16 32
16 16 32
16 16 32
16 16 32
16 16 32
16 16 32
16 16 32
16 16 32
16 16 32
16 16 32
16 16 32
16 16 32
16 16 32
16 16 32
16 16 32
16 16 32
16 16 32
16 16 32
255 255 255
255 255 255
16 16 32
16 16 32
16 16 32
16 16 32
16 16 32
16 16 32
16 16 32
16 16 32
16 16 32
16 16 32
16 16 32
16 16 32
16 16 32
16 16 32
16 16 32
16 16 32
16 16 32
16 16 32
255 255 255
255 255 255
16 16 32
16 16 32
16 16 32
16 16 32
16 16 32
16 16 32
16 16 32
16 16 32
16 16 32
16 16 32
255 255 255
255 255 255
16 16 32
16 16 32
16 16 32
16 16 32
16 16 32
16 16 32
16 16 32
16 16 32
16 16 32
16 16 32
16 16 32
16 16 32
16 16 32
16 16 32
255 255 255
255 255 255
16 16 32
16 16 32
16 16 32
16 16 32
16 16 32
16 16 32
16 16 32
16 16 32
16 16 32
16 16 32
16 16 32
16 16 32
16 16 32
16 16 32
16 16 32
16 16 32
16 16 32
16 16 32
16 16 32
16 16 32
255 255 255
255 255 255
16 16 32
16 16 32
16 16 32
16 16 32
16 16 32
16 16 32
16 16 32
16 16 32
16 16 32
16 16 32
255 255 255
255 255 255
255 255 255
255 255 255
16 16 32
16 16 32
16 16 32
16 16 32
16 16 32
16 16 32
16 16 32
16 16 32
16 16 32
16 16 32
255 255 255
255 255 255
16 16 32
16 16 32
16 16 32
16 16 32
16 16 32
16 16 32
255 255 255
255 255 255
16 16 32
16 16 32
16 16 32
16 16 32
16 16 32
16 16 32
255 255 255
255 255 255
16 16 32
16 16 32
16 16 32
16 16 32
16 16 32
16 16 32
255 255 255
255 255 255
16 16 32
16 16 32
16 16 32
16 16 32
16 16 32
16 16 32
255 255 255
255 255 255
16 16 32
16 16 32
16 16 32
16 16 32
16 16 32
16 16 32
255 255 255
255 255 255
16 16 32
16 16 32
16 16 32
16 16 32
16 16 32
16 16 32
16 16 32
16 16 32
16 16 32
16 16 32
16 16 32
16 16 32
16 16 32
16 16 32
16 16 32
16 16 32
16 16 32
16 16 32
16 16 32
16 16 32
16 16 32
16 16 32
16 16 32
16 16 32
16 16 32
16 16 32
16 16 32
16 16 32
16 16 32
16 16 32
16 16 32
16 16 32
16 16 32
16 16 32
16 16 32
16 16 32
16 16 32
16 16 32
255 255 255
255 255 255
16 16 32
16 16 32
16 16 32
16 16 32
16 16 32
16 16 32
255 255 255
255 255 255
16 16 32
16 16 32
16 16 32
16 16 32
16 16 32
16 16 32
16 16 32
16 16 32
16 16 32
16 16 32
16 16 32
16 16 32
16 16 32
16 16 32
16 16 32
16 16 32
16 16 32
16 16 32
16 16 32
16 16 32
16 16 32
16 16 32
255 255 255
255 255 255
16 16 32
16 16 32
16 16 32
16 16 32
16 16 32
16 16 32
255 255 255
255 255 255
16 16 32
16 16 32
16 16 32
16 16 32
16 16 32
16 16 32
16 16 32
16 16 32
16 16 32
16 16 32
16 16 32
16 16 32
255 255 255
255 255 255
16 16 32
16 16 32
16 16 32
16 16 32
16 16 32
16 16 32
16 16 32
16 16 32
255 255 255
255 255 255
16 16 32
16 16 32
16 16 32
16 16 32
16 16 32
16 16 32
255 255 255
255 255 255
16 16 32
16 16 32
16 16 32
16 16 32
16 16 32
16 16 32
16 16 32
16 16 32
16 16 32
16 16 32
16 16 32
16 16 32
255 255 255
255 255 255
16 16 32
16 16 32
16 16 32
16 16 32
16 16 32
16 16 32
16 16 32
16 16 32
16 16 32
16 16 32
255 255 255
255 255 255
255 255 255
255 255 255
16 16 32
16 16 32
16 16 32
16 16 32
16 16 32
16 16 32
16 16 32
16 16 32
16 16 32
16 16 32
255 255 255
255 255 255
16 16 32
16 16 32
16 16 32
16 16 32
16 16 32
16 16 32
255 255 255
255 255 255
16 16 32
16 16 32
16 16 32
16 16 32
16 16 32
16 16 32
255 255 255
255 255 255
16 16 32
16 16 32
16 16 32
16 16 32
16 16 32
16 16 32
255 255 255
255 255 255
16 16 32
16 16 32
16 16 32
16 16 32
16 16 32
16 16 32
255 255 255
255 255 255
16 16 32
16 16 32
16 16 32
16 16 32
16 16 32
16 16 32
255 255 255
255 255 255
16 16 32
16 16 32
16 16 32
16 16 32
16 16 32
16 16 32
16 16 32
16 16 32
16 16 32
16 16 32
16 16 32
16 16 32
16 16 32
16 16 32
16 16 32
16 16 32
16 16 32
16 16 32
16 16 32
16 16 32
16 16 32
16 16 32
16 16 32
16 16 32
16 16 32
16 16 32
16 16 32
16 16 32
16 16 32
16 16 32
16 16 32
16 16 32
16 16 32
16 16 32
16 16 32
16 16 32
16 16 32
16 16 32
16 16 32
16 16 32
16 16 32
16 16 32
255 255 255
255 255 255
16 16 32
16 16 32
16 16 32
16 16 32
16 16 32
16 16 32
16 16 32
16 16 32
16 16 32
16 16 32
255 255 255
255 255 255
255 255 255
255 255 255
16 16 32
16 16 32
16 16 32
16 16 32
255 255 255
255 255 255
16 16 32
16 16 32
16 16 32
16 16 32
16 16 32
16 16 32
16 16 32
16 16 32
16 16 32
16 16 32
255 255 255
255 255 255
16 16 32
16 16 32
16 16 32
16 16 32
16 16 32
16 16 32
16 16 32
16 16 32
16 16 32
16 16 32
16 16 32
16 16 32
16 16 32
16 16 32
255 255 255
255 255 255
16 16 32
16 16 32
16 16 32
16 16 32
16 16 32
16 16 32
16 16 32
16 16 32
16 16 32
16 16 32
16 16 32
16 16 32
16 16 32
16 16 32
255 255 255
255 255 255
16 16 32
16 16 32
16 16 32
16 16 32
16 16 32
16 16 32
16 16 32
16 16 32
16 16 32
16 16 32
255 255 255
255 255 255
16 16 32
16 16 32
16 16 32
16 16 32
16 16 32
16 16 32
255 255 255
255 255 255
16 16 32
16 16 32
16 16 32
16 16 32
16 16 32
16 16 32
255 255 255
255 255 255
16 16 32
16 16 32
16 16 32
16 16 32
16 16 32
16 16 32
16 16 32
16 16 32
16 16 32
16 16 32
16 16 32
16 16 32
16 16 32
16 16 32
16 16 32
16 16 32
16 16 32
16 16 32
16 16 32
16 16 32
16 16 32
16 16 32
16 16 32
16 16 32
16 16 32
16 16 32
16 16 32
16 16 32
16 16 32
16 16 32
255 255 255
255 255 255
16 16 32
16 16 32
16 16 32
16 16 32
16 16 32
16 16 32
255 255 255
255 255 255
16 16 32
16 16 32
16 16 32
16 16 32
16 16 32
16 16 32
255 255 255
255 255 255
16 16 32
16 16 32
16 16 32
16 16 32
16 16 32
16 16 32
255 255 255
255 255 255
16 16 32
16 16 32
16 16 32
16 16 32
16 16 32
16 16 32
255 255 255
255 255 255
16 16 32
16 16 32
16 16 32
16 16 32
16 16 32
16 16 32
16 16 32
16 16 32
16 16 32
16 16 32
16 16 32
16 16 32
16 16 32
16 16 32
255 255 255
255 255 255
16 16 32
16 16 32
16 16 32
16 16 32
16 16 32
16 16 32
16 16 32
16 16 32
16 16 32
16 16 32
16 16 32
16 16 32
16 16 32
16 16 32
255 255 255
255 255 255
16 16 32
16 16 32
16 16 32
16 16 32
16 16 32
16 16 32
16 16 32
16 16 32
16 16 32
16 16 32
16 16 32
16 16 32
16 16 32
16 16 32
16 16 32
16 16 32
16 16 32
16 16 32
16 16 32
16 16 32
16 16 32
16 16 32
16 16 32
16 16 32
16 16 32
16 16 32
16 16 32
16 16 32
16 16 32
16 16 32
16 16 32
16 16 32
16 16 32
16 16 32
16 16 32
16 16 32
16 16 32
16 16 32
16 16 32
16 16 32
16 16 32
16 16 32
16 16 32
16 16 32
16 16 32
16 16 32
16 16 32
16 16 32
16 16 32
16 16 32
16 16 32
16 16 32
16 16 32
16 16 32
16 16 32
16 16 32
16 16 32
16 16 32
16 16 32
16 16 32
16 16 32
16 16 32
16 16 32
16 16 32
16 16 32
16 16 32
16 16 32
16 16 32
16 16 32
16 16 32
16 16 32
16 16 32
16 16 32
16 16 32
16 16 32
16 16 32
16 16 32
16 16 32
16 16 32
16 16 32
16 16 32
16 16 32
16 16 32
16 16 32
16 16 32
16 16 32
16 16 32
16 16 32
16 16 32
16 16 32
16 16 32
16 16 32
16 16 32
16 16 32
16 16 32
16 16 32
16 16 32
16 16 32
16 16 32
16 16 32
16 16 32
16 16 32
16 16 32
16 16 32
16 16 32
16 16 32
16 16 32
16 16 32
16 16 32
16 16 32
16 16 32
16 16 32
16 16 32
16 16 32
16 16 32
16 16 32
16 16 32
16 16 32
16 16 32
16 16 32
16 16 32
16 16 32
16 16 32
16 16 32
16 16 32
16 16 32
16 16 32
16 16 32
16 16 32
16 16 32
16 16 32
16 16 32
16 16 32
16 16 32
16 16 32
16 16 32
16 16 32
16 16 32
16 16 32
16 16 32
16 16 32
16 16 32
16 16 32
16 16 32
16 16 32
16 16 32
16 16 32
16 16 32
16 16 32
16 16 32
16 16 32
16 16 32
16 16 32
16 16 32
16 16 32
16 16 32
16 16 32
16 16 32
16 16 32
16 16 32
16 16 32
16 16 32
16 16 32
16 16 32
16 16 32
16 16 32
16 16 32
16 16 32
16 16 32
16 16 32
16 16 32
16 16 32
16 16 32
16 16 32
16 16 32
16 16 32
16 16 32
16 16 32
16 16 32
16 16 32
16 16 32
16 16 32
16 16 32
16 16 32
16 16 32
16 16 32
16 16 32
16 16 32
16 16 32
16 16 32
16 16 32
16 16 32
16 16 32
16 16 32
16 16 32
16 16 32
16 16 32
16 16 32
16 16 32
16 16 32
16 16 32
16 16 32
16 16 32
16 16 32
16 16 32
16 16 32
16 16 32
16 16 32
16 16 32
16 16 32
16 16 32
16 16 32
16 16 32
16 16 32
16 16 32
16 16 32
16 16 32
16 16 32
16 16 32
16 16 32
16 16 32
16 16 32
16 16 32
16 16 32
16 16 32
16 16 32
16 16 32
16 16 32
16 16 32
16 16 32
16 16 32
16 16 32
16 16 32
16 16 32
16 16 32
16 16 32
16 16 32
16 16 32
16 16 32
16 16 32
16 16 32
16 16 32
16 16 32
16 16 32
16 16 32
16 16 32
16 16 32
16 16 32
16 16 32
16 16 32
16 16 32
16 16 32
16 16 32
16 16 32
16 16 32
16 16 32
16 16 32
16 16 32
16 16 32
16 16 32
16 16 32
16 16 32
16 16 32
16 16 32
16 16 32
16 16 32
16 16 32
16 16 32
16 16 32
16 16 32
255 255 255
255 255 255
16 16 32
16 16 32
16 16 32
16 16 32
16 16 32
16 16 32
255 255 255
255 255 255
16 16 32
16 16 32
16 16 32
16 16 32
16 16 32
16 16 32
255 255 255
255 255 255
16 16 32
16 16 32
16 16 32
16 16 32
16 16 32
16 16 32
16 16 32
16 16 32
16 16 32
16 16 32
16 16 32
16 16 32
16 16 32
16 16 32
16 16 32
16 16 32
16 16 32
16 16 32
16 16 32
16 16 32
16 16 32
16 16 32
16 16 32
16 16 32
16 16 32
16 16 32
16 16 32
16 16 32
16 16 32
16 16 32
255 255 255
255 255 255
16 16 32
16 16 32
16 16 32
16 16 32
16 16 32
16 16 32
16 16 32
16 16 32
16 16 32
16 16 32
16 16 32
16 16 32
16 16 32
16 16 32
255 255 255
255 255 255
16 16 32
16 16 32
16 16 32
16 16 32
16 16 32
16 16 32
255 255 255
255 255 255
16 16 32
16 16 32
16 16 32
16 16 32
16 16 32
16 16 32
255 255 255
255 255 255
16 16 32
16 16 32
16 16 32
16 16 32
16 16 32
16 16 32
255 255 255
255 255 255
16 16 32
16 16 32
16 16 32
16 16 32
16 16 32
16 16 32
16 16 32
16 16 32
16 16 32
16 16 32
16 16 32
16 16 32
16 16 32
16 16 32
16 16 32
16 16 32
16 16 32
16 16 32
16 16 32
16 16 32
16 16 32
16 16 32
255 255 255
255 255 255
16 16 32
16 16 32
16 16 32
16 16 32
16 16 32
16 16 32
255 255 255
255 255 255
16 16 32
16 16 32
16 16 32
16 16 32
16 16 32
16 16 32
255 255 255
255 255 255
16 16 32
16 16 32
16 16 32
16 16 32
255 255 255
255 255 255
255 255 255
255 255 255
16 16 32
16 16 32
16 16 32
16 16 32
16 16 32
16 16 32
16 16 32
16 16 32
16 16 32
16 16 32
16 16 32
16 16 32
16 16 32
16 16 32
16 16 32
16 16 32
16 16 32
16 16 32
16 16 32
16 16 32
16 16 32
16 16 32
16 16 32
16 16 32
16 16 32
16 16 32
16 16 32
16 16 32
16 16 32
16 16 32
16 16 32
16 16 32
16 16 32
16 16 32
16 16 32
16 16 32
16 16 32
16 16 32
255 255 255
255 255 255
16 16 32
16 16 32
16 16 32
16 16 32
16 16 32
16 16 32
16 16 32
16 16 32
16 16 32
16 16 32
16 16 32
16 16 32
16 16 32
16 16 32
16 16 32
16 16 32
16 16 32
16 16 32
16 16 32
16 16 32
16 16 32
16 16 32
16 16 32
16 16 32
16 16 32
16 16 32
16 16 32
16 16 32
16 16 32
16 16 32
255 255 255
255 255 255
16 16 32
16 16 32
16 16 32
16 16 32
16 16 32
16 16 32
16 16 32
16 16 32
16 16 32
16 16 32
16 16 32
16 16 32
16 16 32
16 16 32
16 16 32
16 16 32
16 16 32
16 16 32
255 255 255
255 255 255
16 16 32
16 16 32
16 16 32
16 16 32
16 16 32
16 16 32
16 16 32
16 16 32
16 16 32
16 16 32
255 255 255
255 255 255
16 16 32
16 16 32
16 16 32
16 16 32
16 16 32
16 16 32
16 16 32
16 16 32
16 16 32
16 16 32
16 16 32
16 16 32
16 16 32
16 16 32
255 255 255
255 255 255
16 16 32
16 16 32
16 16 32
16 16 32
16 16 32
16 16 32
16 16 32
16 16 32
16 16 32
16 16 32
16 16 32
16 16 32
16 16 32
16 16 32
16 16 32
16 16 32
16 16 32
16 16 32
16 16 32
16 16 32
255 255 255
255 255 255
16 16 32
16 16 32
16 16 32
16 16 32
16 16 32
16 16 32
16 16 32
16 16 32
16 16 32
16 16 32
16 16 32
16 16 32
255 255 255
255 255 255
16 16 32
16 16 32
16 16 32
16 16 32
16 16 32
16 16 32
16 16 32
16 16 32
16 16 32
16 16 32
255 255 255
255 255 255
16 16 32
16 16 32
16 16 32
16 16 32
255 255 255
255 255 255
255 255 255
255 255 255
16 16 32
16 16 32
16 16 32
16 16 32
16 16 32
16 16 32
255 255 255
255 255 255
16 16 32
16 16 32
16 16 32
16 16 32
255 255 255
255 255 255
255 255 255
255 255 255
16 16 32
16 16 32
16 16 32
16 16 32
16 16 32
16 16 32
255 255 255
255 255 255
16 16 32
16 16 32
16 16 32
16 16 32
255 255 255
255 255 255
255 255 255
255 255 255
16 16 32
16 16 32
16 16 32
16 16 32
16 16 32
16 16 32
16 16 32
16 16 32
16 16 32
16 16 32
16 16 32
16 16 32
16 16 32
16 16 32
16 16 32
16 16 32
16 16 32
16 16 32
16 16 32
16 16 32
16 16 32
16 16 32
16 16 32
16 16 32
16 16 32
16 16 32
16 16 32
16 16 32
16 16 32
16 16 32
16 16 32
16 16 32
16 16 32
16 16 32
16 16 32
16 16 32
16 16 32
16 16 32
255 255 255
255 255 255
16 16 32
16 16 32
16 16 32
16 16 32
16 16 32
16 16 32
255 255 255
255 255 255
16 16 32
16 16 32
16 16 32
16 16 32
16 16 32
16 16 32
16 16 32
16 16 32
16 16 32
16 16 32
16 16 32
16 16 32
16 16 32
16 16 32
16 16 32
16 16 32
16 16 32
16 16 32
16 16 32
16 16 32
16 16 32
16 16 32
255 255 255
255 255 255
16 16 32
16 16 32
16 16 32
16 16 32
16 16 32
16 16 32
255 255 255
255 255 255
16 16 32
16 16 32
16 16 32
16 16 32
16 16 32
16 16 32
16 16 32
16 16 32
16 16 32
16 16 32
16 16 32
16 16 32
255 255 255
255 255 255
16 16 32
16 16 32
16 16 32
16 16 32
16 16 32
16 16 32
16 16 32
16 16 32
255 255 255
255 255 255
16 16 32
16 16 32
16 16 32
16 16 32
16 16 32
16 16 32
255 255 255
255 255 255
16 16 32
16 16 32
16 16 32
16 16 32
16 16 32
16 16 32
16 16 32
16 16 32
16 16 32
16 16 32
16 16 32
16 16 32
255 255 255
255 255 255
16 16 32
16 16 32
16 16 32
16 16 32
16 16 32
16 16 32
16 16 32
16 16 32
16 16 32
16 16 32
16 16 32
16 16 32
255 255 255
255 255 255
16 16 32
16 16 32
16 16 32
16 16 32
16 16 32
16 16 32
16 16 32
16 16 32
16 16 32
16 16 32
255 255 255
255 255 255
16 16 32
16 16 32
16 16 32
16 16 32
255 255 255
255 255 255
255 255 255
255 255 255
16 16 32
16 16 32
16 16 32
16 16 32
16 16 32
16 16 32
255 255 255
255 255 255
16 16 32
16 16 32
16 16 32
16 16 32
255 255 255
255 255 255
255 255 255
255 255 255
16 16 32
16 16 32
16 16 32
16 16 32
16 16 32
16 16 32
255 255 255
255 255 255
16 16 32
16 16 32
16 16 32
16 16 32
255 255 255
255 255 255
255 255 255
255 255 255
16 16 32
16 16 32
16 16 32
16 16 32
16 16 32
16 16 32
16 16 32
16 16 32
16 16 32
16 16 32
16 16 32
16 16 32
16 16 32
16 16 32
16 16 32
16 16 32
16 16 32
16 16 32
16 16 32
16 16 32
16 16 32
16 16 32
16 16 32
16 16 32
16 16 32
16 16 32
16 16 32
16 16 32
16 16 32
16 16 32
16 16 32
16 16 32
16 16 32
16 16 32
16 16 32
16 16 32
16 16 32
16 16 32
16 16 32
16 16 32
16 16 32
16 16 32
255 255 255
255 255 255
16 16 32
16 16 32
16 16 32
16 16 32
16 16 32
16 16 32
16 16 32
16 16 32
16 16 32
16 16 32
255 255 255
255 255 255
255 255 255
255 255 255
16 16 32
16 16 32
16 16 32
16 16 32
255 255 255
255 255 255
16 16 32
16 16 32
16 16 32
16 16 32
16 16 32
16 16 32
16 16 32
16 16 32
16 16 32
16 16 32
255 255 255
255 255 255
16 16 32
16 16 32
16 16 32
16 16 32
16 16 32
16 16 32
16 16 32
16 16 32
16 16 32
16 16 32
16 16 32
16 16 32
16 16 32
16 16 32
255 255 255
255 255 255
16 16 32
16 16 32
16 16 32
16 16 32
16 16 32
16 16 32
16 16 32
16 16 32
16 16 32
16 16 32
16 16 32
16 16 32
16 16 32
16 16 32
255 255 255
255 255 255
16 16 32
16 16 32
16 16 32
16 16 32
16 16 32
16 16 32
16 16 32
16 16 32
16 16 32
16 16 32
255 255 255
255 255 255
16 16 32
16 16 32
16 16 32
16 16 32
16 16 32
16 16 32
255 255 255
255 255 255
16 16 32
16 16 32
16 16 32
16 16 32
16 16 32
16 16 32
255 255 255
255 255 255
16 16 32
16 16 32
16 16 32
16 16 32
16 16 32
16 16 32
16 16 32
16 16 32
16 16 32
16 16 32
16 16 32
16 16 32
16 16 32
16 16 32
16 16 32
16 16 32
16 16 32
16 16 32
16 16 32
16 16 32
16 16 32
16 16 32
16 16 32
16 16 32
16 16 32
16 16 32
16 16 32
16 16 32
16 16 32
16 16 32
255 255 255
255 255 255
16 16 32
16 16 32
16 16 32
16 16 32
16 16 32
16 16 32
255 255 255
255 255 255
16 16 32
16 16 32
16 16 32
16 16 32
16 16 32
16 16 32
255 255 255
255 255 255
16 16 32
16 16 32
16 16 32
16 16 32
16 16 32
16 16 32
255 255 255
255 255 255
16 16 32
16 16 32
16 16 32
16 16 32
16 16 32
16 16 32
255 255 255
255 255 255
16 16 32
16 16 32
16 16 32
16 16 32
16 16 32
16 16 32
16 16 32
16 16 32
16 16 32
16 16 32
16 16 32
16 16 32
16 16 32
16 16 32
255 255 255
255 255 255
16 16 32
16 16 32
16 16 32
16 16 32
16 16 32
16 16 32
16 16 32
16 16 32
16 16 32
16 16 32
16 16 32
16 16 32
16 16 32
16 16 32
255 255 255
255 255 255
16 16 32
16 16 32
16 16 32
16 16 32
16 16 32
16 16 32
16 16 32
16 16 32
16 16 32
16 16 32
16 16 32
16 16 32
16 16 32
16 16 32
16 16 32
16 16 32
16 16 32
16 16 32
16 16 32
16 16 32
16 16 32
16 16 32
16 16 32
16 16 32
16 16 32
16 16 32
16 16 32
16 16 32
16 16 32
16 16 32
16 16 32
16 16 32
16 16 32
16 16 32
16 16 32
16 16 32
16 16 32
16 16 32
16 16 32
16 16 32
16 16 32
16 16 32
16 16 32
16 16 32
16 16 32
16 16 32
16 16 32
16 16 32
16 16 32
16 16 32
16 16 32
16 16 32
16 16 32
16 16 32
16 16 32
16 16 32
16 16 32
16 16 32
16 16 32
16 16 32
16 16 32
16 16 32
16 16 32
16 16 32
16 16 32
16 16 32
16 16 32
16 16 32
16 16 32
16 16 32
16 16 32
16 16 32
16 16 32
16 16 32
16 16 32
16 16 32
16 16 32
16 16 32
16 16 32
16 16 32
16 16 32
16 16 32
16 16 32
16 16 32
16 16 32
16 16 32
16 16 32
16 16 32
16 16 32
16 16 32
16 16 32
16 16 32
16 16 32
16 16 32
16 16 32
16 16 32
16 16 32
16 16 32
16 16 32
16 16 32
16 16 32
16 16 32
16 16 32
16 16 32
16 16 32
16 16 32
16 16 32
16 16 32
16 16 32
16 16 32
16 16 32
16 16 32
16 16 32
16 16 32
16 16 32
16 16 32
16 16 32
16 16 32
16 16 32
16 16 32
16 16 32
16 16 32
16 16 32
16 16 32
16 16 32
16 16 32
16 16 32
16 16 32
16 16 32
16 16 32
16 16 32
16 16 32
16 16 32
16 16 32
16 16 32
16 16 32
16 16 32
16 16 32
16 16 32
16 16 32
16 16 32
16 16 32
16 16 32
16 16 32
16 16 32
16 16 32
16 16 32
16 16 32
16 16 32
16 16 32
16 16 32
16 16 32
16 16 32
16 16 32
16 16 32
16 16 32
16 16 32
16 16 32
16 16 32
16 16 32
16 16 32
16 16 32
16 16 32
16 16 32
16 16 32
16 16 32
16 16 32
16 16 32
16 16 32
16 16 32
16 16 32
16 16 32
16 16 32
16 16 32
16 16 32
16 16 32
16 16 32
16 16 32
16 16 32
16 16 32
16 16 32
16 16 32
16 16 32
16 16 32
16 16 32
16 16 32
16 16 32
16 16 32
16 16 32
16 16 32
16 16 32
16 16 32
16 16 32
16 16 32
16 16 32
16 16 32
16 16 32
16 16 32
16 16 32
16 16 32
16 16 32
16 16 32
16 16 32
16 16 32
16 16 32
16 16 32
16 16 32
16 16 32
16 16 32
16 16 32
16 16 32
16 16 32
16 16 32
16 16 32
16 16 32
16 16 32
16 16 32
16 16 32
16 16 32
16 16 32
16 16 32
16 16 32
16 16 32
16 16 32
16 16 32
16 16 32
16 16 32
16 16 32
16 16 32
16 16 32
16 16 32
16 16 32
16 16 32
16 16 32
16 16 32
16 16 32
16 16 32
16 16 32
16 16 32
16 16 32
16 16 32
16 16 32
16 16 32
16 16 32
16 16 32
16 16 32
16 16 32
16 16 32
16 16 32
16 16 32
16 16 32
16 16 32
16 16 32
16 16 32
16 16 32
16 16 32
16 16 32
16 16 32
16 16 32
16 16 32
16 16 32
16 16 32
16 16 32
16 16 32
16 16 32
16 16 32
16 16 32
16 16 32
16 16 32
16 16 32
255 255 255
255 255 255
16 16 32
16 16 32
16 16 32
16 16 32
16 16 32
16 16 32
255 255 255
255 255 255
16 16 32
16 16 32
16 16 32
16 16 32
16 16 32
16 16 32
255 255 255
255 255 255
16 16 32
16 16 32
16 16 32
16 16 32
16 16 32
16 16 32
16 16 32
16 16 32
16 16 32
16 16 32
16 16 32
16 16 32
16 16 32
16 16 32
16 16 32
16 16 32
16 16 32
16 16 32
16 16 32
16 16 32
16 16 32
16 16 32
16 16 32
16 16 32
16 16 32
16 16 32
16 16 32
16 16 32
16 16 32
16 16 32
255 255 255
255 255 255
16 16 32
16 16 32
16 16 32
16 16 32
16 16 32
16 16 32
16 16 32
16 16 32
16 16 32
16 16 32
16 16 32
16 16 32
16 16 32
16 16 32
255 255 255
255 255 255
16 16 32
16 16 32
16 16 32
16 16 32
16 16 32
16 16 32
255 255 255
255 255 255
16 16 32
16 16 32
16 16 32
16 16 32
16 16 32
16 16 32
255 255 255
255 255 255
16 16 32
16 16 32
16 16 32
16 16 32
16 16 32
16 16 32
255 255 255
255 255 255
16 16 32
16 16 32
16 16 32
16 16 32
16 16 32
16 16 32
16 16 32
16 16 32
16 16 32
16 16 32
16 16 32
16 16 32
16 16 32
16 16 32
16 16 32
16 16 32
16 16 32
16 16 32
16 16 32
16 16 32
16 16 32
16 16 32
255 255 255
255 255 255
16 16 32
16 16 32
16 16 32
16 16 32
16 16 32
16 16 32
255 255 255
255 255 255
16 16 32
16 16 32
16 16 32
16 16 32
16 16 32
16 16 32
255 255 255
255 255 255
16 16 32
16 16 32
16 16 32
16 16 32
255 255 255
255 255 255
255 255 255
255 255 255
16 16 32
16 16 32
16 16 32
16 16 32
16 16 32
16 16 32
16 16 32
16 16 32
16 16 32
16 16 32
16 16 32
16 16 32
16 16 32
16 16 32
16 16 32
16 16 32
16 16 32
16 16 32
16 16 32
16 16 32
16 16 32
16 16 32
16 16 32
16 16 32
16 16 32
16 16 32
16 16 32
16 16 32
16 16 32
16 16 32
16 16 32
16 16 32
16 16 32
16 16 32
16 16 32
16 16 32
16 16 32
16 16 32
255 255 255
255 255 255
16 16 32
16 16 32
16 16 32
16 16 32
16 16 32
16 16 32
16 16 32
16 16 32
16 16 32
16 16 32
16 16 32
16 16 32
16 16 32
16 16 32
16 16 32
16 16 32
16 16 32
16 16 32
16 16 32
16 16 32
16 16 32
16 16 32
16 16 32
16 16 32
16 16 32
16 16 32
16 16 32
16 16 32
16 16 32
16 16 32
255 255 255
255 255 255
16 16 32
16 16 32
16 16 32
16 16 32
16 16 32
16 16 32
16 16 32
16 16 32
16 16 32
16 16 32
16 16 32
16 16 32
16 16 32
16 16 32
16 16 32
16 16 32
16 16 32
16 16 32
255 255 255
255 255 255
16 16 32
16 16 32
16 16 32
16 16 32
16 16 32
16 16 32
16 16 32
16 16 32
16 16 32
16 16 32
255 255 255
255 255 255
16 16 32
16 16 32
16 16 32
16 16 32
16 16 32
16 16 32
16 16 32
16 16 32
16 16 32
16 16 32
16 16 32
16 16 32
16 16 32
16 16 32
255 255 255
255 255 255
16 16 32
16 16 32
16 16 32
16 16 32
16 16 32
16 16 32
16 16 32
16 16 32
16 16 32
16 16 32
16 16 32
16 16 32
16 16 32
16 16 32
16 16 32
16 16 32
16 16 32
16 16 32
16 16 32
16 16 32
255 255 255
255 255 255
16 16 32
16 16 32
16 16 32
16 16 32
16 16 32
16 16 32
16 16 32
16 16 32
16 16 32
16 16 32
16 16 32
16 16 32
255 255 255
255 255 255
16 16 32
16 16 32
16 16 32
16 16 32
16 16 32
16 16 32
16 16 32
16 16 32
16 16 32
16 16 32
255 255 255
255 255 255
16 16 32
16 16 32
16 16 32
16 16 32
255 255 255
255 255 255
255 255 255
255 255 255
16 16 32
16 16 32
16 16 32
16 16 32
16 16 32
16 16 32
255 255 255
255 255 255
16 16 32
16 16 32
16 16 32
16 16 32
255 255 255
255 255 255
255 255 255
255 255 255
16 16 32
16 16 32
16 16 32
16 16 32
16 16 32
16 16 32
255 255 255
255 255 255
16 16 32
16 16 32
16 16 32
16 16 32
255 255 255
255 255 255
255 255 255
255 255 255
16 16 32
16 16 32
16 16 32
16 16 32
16 16 32
16 16 32
16 16 32
16 16 32
16 16 32
16 16 32
16 16 32
16 16 32
16 16 32
16 16 32
16 16 32
16 16 32
16 16 32
16 16 32
16 16 32
16 16 32
16 16 32
16 16 32
16 16 32
16 16 32
16 16 32
16 16 32
16 16 32
16 16 32
16 16 32
16 16 32
16 16 32
16 16 32
16 16 32
16 16 32
16 16 32
16 16 32
16 16 32
16 16 32
255 255 255
255 255 255
16 16 32
16 16 32
16 16 32
16 16 32
16 16 32
16 16 32
255 255 255
255 255 255
16 16 32
16 16 32
16 16 32
16 16 32
16 16 32
16 16 32
16 16 32
16 16 32
16 16 32
16 16 32
16 16 32
16 16 32
16 16 32
16 16 32
16 16 32
16 16 32
16 16 32
16 16 32
16 16 32
16 16 32
16 16 32
16 16 32
255 255 255
255 255 255
16 16 32
16 16 32
16 16 32
16 16 32
16 16 32
16 16 32
255 255 255
255 255 255
16 16 32
16 16 32
16 16 32
16 16 32
16 16 32
16 16 32
16 16 32
16 16 32
16 16 32
16 16 32
16 16 32
16 16 32
255 255 255
255 255 255
16 16 32
16 16 32
16 16 32
16 16 32
16 16 32
16 16 32
16 16 32
16 16 32
255 255 255
255 255 255
16 16 32
16 16 32
16 16 32
16 16 32
16 16 32
16 16 32
255 255 255
255 255 255
16 16 32
16 16 32
16 16 32
16 16 32
16 16 32
16 16 32
16 16 32
16 16 32
16 16 32
16 16 32
16 16 32
16 16 32
255 255 255
255 255 255
16 16 32
16 16 32
16 16 32
16 16 32
16 16 32
16 16 32
16 16 32
16 16 32
16 16 32
16 16 32
16 16 32
16 16 32
255 255 255
255 255 255
16 16 32
16 16 32
16 16 32
16 16 32
16 16 32
16 16 32
16 16 32
16 16 32
16 16 32
16 16 32
255 255 255
255 255 255
16 16 32
16 16 32
16 16 32
16 16 32
255 255 255
255 255 255
255 255 255
255 255 255
16 16 32
16 16 32
16 16 32
16 16 32
16 16 32
16 16 32
255 255 255
255 255 255
16 16 32
16 16 32
16 16 32
16 16 32
255 255 255
255 255 255
255 255 255
255 255 255
16 16 32
16 16 32
16 16 32
16 16 32
16 16 32
16 16 32
255 255 255
255 255 255
16 16 32
16 16 32
16 16 32
16 16 32
255 255 255
255 255 255
255 255 255
255 255 255
16 16 32
16 16 32
16 16 32
16 16 32
16 16 32
16 16 32
16 16 32
16 16 32
16 16 32
16 16 32
16 16 32
16 16 32
16 16 32
16 16 32
16 16 32
16 16 32
16 16 32
16 16 32
16 16 32
16 16 32
16 16 32
16 16 32
16 16 32
16 16 32
16 16 32
16 16 32
16 16 32
16 16 32
16 16 32
16 16 32
16 16 32
16 16 32
16 16 32
16 16 32
16 16 32
16 16 32
16 16 32
16 16 32
16 16 32
16 16 32
16 16 32
16 16 32
255 255 255
255 255 255
16 16 32
16 16 32
16 16 32
16 16 32
16 16 32
16 16 32
16 16 32
16 16 32
16 16 32
16 16 32
255 255 255
255 255 255
255 255 255
255 255 255
16 16 32
16 16 32
16 16 32
16 16 32
255 255 255
255 255 255
16 16 32
16 16 32
16 16 32
16 16 32
16 16 32
16 16 32
16 16 32
16 16 32
16 16 32
16 16 32
255 255 255
255 255 255
16 16 32
16 16 32
16 16 32
16 16 32
16 16 32
16 16 32
16 16 32
16 16 32
16 16 32
16 16 32
16 16 32
16 16 32
16 16 32
16 16 32
255 255 255
255 255 255
16 16 32
16 16 32
16 16 32
16 16 32
16 16 32
16 16 32
16 16 32
16 16 32
16 16 32
16 16 32
16 16 32
16 16 32
16 16 32
16 16 32
255 255 255
255 255 255
16 16 32
16 16 32
16 16 32
16 16 32
16 16 32
16 16 32
16 16 32
16 16 32
16 16 32
16 16 32
255 255 255
255 255 255
16 16 32
16 16 32
16 16 32
16 16 32
16 16 32
16 16 32
255 255 255
255 255 255
16 16 32
16 16 32
16 16 32
16 16 32
16 16 32
16 16 32
255 255 255
255 255 255
16 16 32
16 16 32
16 16 32
16 16 32
16 16 32
16 16 32
16 16 32
16 16 32
16 16 32
16 16 32
16 16 32
16 16 32
16 16 32
16 16 32
16 16 32
16 16 32
16 16 32
16 16 32
16 16 32
16 16 32
16 16 32
16 16 32
16 16 32
16 16 32
16 16 32
16 16 32
16 16 32
16 16 32
16 16 32
16 16 32
255 255 255
255 255 255
16 16 32
16 16 32
16 16 32
16 16 32
16 16 32
16 16 32
255 255 255
255 255 255
16 16 32
16 16 32
16 16 32
16 16 32
16 16 32
16 16 32
255 255 255
255 255 255
16 16 32
16 16 32
16 16 32
16 16 32
16 16 32
16 16 32
255 255 255
255 255 255
16 16 32
16 16 32
16 16 32
16 16 32
16 16 32
16 16 32
255 255 255
255 255 255
16 16 32
16 16 32
16 16 32
16 16 32
16 16 32
16 16 32
16 16 32
16 16 32
16 16 32
16 16 32
16 16 32
16 16 32
16 16 32
16 16 32
255 255 255
255 255 255
16 16 32
16 16 32
16 16 32
16 16 32
16 16 32
16 16 32
16 16 32
16 16 32
16 16 32
16 16 32
16 16 32
16 16 32
16 16 32
16 16 32
255 255 255
255 255 255
16 16 32
16 16 32
16 16 32
16 16 32
16 16 32
16 16 32
16 16 32
16 16 32
16 16 32
16 16 32
16 16 32
16 16 32
16 16 32
16 16 32
16 16 32
16 16 32
16 16 32
16 16 32
16 16 32
16 16 32
16 16 32
16 16 32
16 16 32
16 16 32
16 16 32
16 16 32
16 16 32
16 16 32
16 16 32
16 16 32
16 16 32
16 16 32
16 16 32
16 16 32
16 16 32
16 16 32
16 16 32
16 16 32
16 16 32
16 16 32
16 16 32
16 16 32
16 16 32
16 16 32
16 16 32
16 16 32
16 16 32
16 16 32
16 16 32
16 16 32
16 16 32
16 16 32
16 16 32
16 16 32
16 16 32
16 16 32
16 16 32
16 16 32
16 16 32
16 16 32
16 16 32
16 16 32
16 16 32
16 16 32
16 16 32
16 16 32
16 16 32
16 16 32
16 16 32
16 16 32
16 16 32
16 16 32
16 16 32
16 16 32
16 16 32
16 16 32
16 16 32
16 16 32
16 16 32
16 16 32
16 16 32
16 16 32
16 16 32
16 16 32
16 16 32
16 16 32
16 16 32
16 16 32
16 16 32
16 16 32
16 16 32
16 16 32
16 16 32
16 16 32
16 16 32
16 16 32
16 16 32
16 16 32
16 16 32
16 16 32
16 16 32
16 16 32
16 16 32
16 16 32
16 16 32
16 16 32
16 16 32
16 16 32
16 16 32
16 16 32
16 16 32
16 16 32
16 16 32
16 16 32
16 16 32
16 16 32
16 16 32
16 16 32
16 16 32
16 16 32
16 16 32
16 16 32
16 16 32
16 16 32
16 16 32
16 16 32
16 16 32
16 16 32
16 16 32
16 16 32
16 16 32
16 16 32
16 16 32
16 16 32
16 16 32
16 16 32
16 16 32
16 16 32
16 16 32
16 16 32
16 16 32
16 16 32
16 16 32
16 16 32
16 16 32
16 16 32
16 16 32
16 16 32
16 16 32
16 16 32
16 16 32
16 16 32
16 16 32
16 16 32
16 16 32
16 16 32
16 16 32
16 16 32
16 16 32
16 16 32
16 16 32
16 16 32
16 16 32
16 16 32
16 16 32
16 16 32
16 16 32
16 16 32
16 16 32
16 16 32
16 16 32
16 16 32
16 16 32
16 16 32
16 16 32
16 16 32
16 16 32
16 16 32
16 16 32
16 16 32
16 16 32
16 16 32
16 16 32
16 16 32
16 16 32
16 16 32
16 16 32
16 16 32
16 16 32
16 16 32
16 16 32
16 16 32
16 16 32
16 16 32
16 16 32
16 16 32
16 16 32
16 16 32
16 16 32
16 16 32
16 16 32
16 16 32
16 16 32
16 16 32
16 16 32
16 16 32
16 16 32
16 16 32
16 16 32
16 16 32
16 16 32
16 16 32
16 16 32
16 16 32
16 16 32
16 16 32
16 16 32
16 16 32
16 16 32
16 16 32
16 16 32
16 16 32
16 16 32
16 16 32
16 16 32
16 16 32
16 16 32
16 16 32
16 16 32
16 16 32
16 16 32
16 16 32
16 16 32
16 16 32
16 16 32
16 16 32
16 16 32
16 16 32
16 16 32
16 16 32
16 16 32
16 16 32
16 16 32
16 16 32
16 16 32
16 16 32
16 16 32
16 16 32
16 16 32
16 16 32
16 16 32
16 16 32
16 16 32
16 16 32
16 16 32
16 16 32
16 16 32
16 16 32
16 16 32
16 16 32
16 16 32
16 16 32
16 16 32
16 16 32
16 16 32
16 16 32
16 16 32
16 16 32
16 16 32
16 16 32
255 255 255
255 255 255
255 255 255
255 255 255
255 255 255
255 255 255
255 255 255
255 255 255
16 16 32
16 16 32
16 16 32
16 16 32
16 16 32
16 16 32
16 16 32
16 16 32
255 255 255
255 255 255
16 16 32
16 16 32
255 255 255
255 255 255
255 255 255
255 255 255
255 255 255
255 255 255
16 16 32
16 16 32
16 16 32
16 16 32
16 16 32
16 16 32
16 16 32
16 16 32
16 16 32
16 16 32
16 16 32
16 16 32
16 16 32
16 16 32
16 16 32
16 16 32
16 16 32
16 16 32
16 16 32
16 16 32
16 16 32
16 16 32
255 255 255
255 255 255
16 16 32
16 16 32
16 16 32
16 16 32
16 16 32
16 16 32
16 16 32
16 16 32
16 16 32
16 16 32
16 16 32
16 16 32
16 16 32
16 16 32
255 255 255
255 255 255
16 16 32
16 16 32
16 16 32
16 16 32
16 16 32
16 16 32
255 255 255
255 255 255
16 16 32
16 16 32
16 16 32
16 16 32
16 16 32
16 16 32
255 255 255
255 255 255
16 16 32
16 16 32
255 255 255
255 255 255
16 16 32
16 16 32
255 255 255
255 255 255
16 16 32
16 16 32
16 16 32
16 16 32
16 16 32
16 16 32
255 255 255
255 255 255
255 255 255
255 255 255
255 255 255
255 255 255
255 255 255
255 255 255
255 255 255
255 255 255
16 16 32
16 16 32
16 16 32
16 16 32
16 16 32
16 16 32
16 16 32
16 16 32
255 255 255
255 255 255
255 255 255
255 255 255
255 255 255
255 255 255
255 255 255
255 255 255
16 16 32
16 16 32
16 16 32
16 16 32
16 16 32
16 16 32
255 255 255
255 255 255
16 16 32
16 16 32
255 255 255
255 255 255
16 16 32
16 16 32
255 255 255
255 255 255
16 16 32
16 16 32
16 16 32
16 16 32
16 16 32
16 16 32
16 16 32
16 16 32
16 16 32
16 16 32
16 16 32
16 16 32
16 16 32
16 16 32
16 16 32
16 16 32
16 16 32
16 16 32
16 16 32
16 16 32
16 16 32
16 16 32
16 16 32
16 16 32
16 16 32
16 16 32
16 16 32
16 16 32
16 16 32
16 16 32
16 16 32
16 16 32
16 16 32
16 16 32
16 16 32
16 16 32
16 16 32
16 16 32
255 255 255
255 255 255
255 255 255
255 255 255
255 255 255
255 255 255
255 255 255
255 255 255
16 16 32
16 16 32
16 16 32
16 16 32
16 16 32
16 16 32
16 16 32
16 16 32
16 16 32
16 16 32
16 16 32
16 16 32
16 16 32
16 16 32
16 16 32
16 16 32
16 16 32
16 16 32
16 16 32
16 16 32
16 16 32
16 16 32
16 16 32
16 16 32
255 255 255
255 255 255
255 255 255
255 255 255
255 255 255
255 255 255
255 255 255
255 255 255
16 16 32
16 16 32
16 16 32
16 16 32
16 16 32
16 16 32
16 16 32
16 16 32
16 16 32
16 16 32
16 16 32
16 16 32
255 255 255
255 255 255
16 16 32
16 16 32
16 16 32
16 16 32
16 16 32
16 16 32
16 16 32
16 16 32
16 16 32
16 16 32
255 255 255
255 255 255
16 16 32
16 16 32
16 16 32
16 16 32
16 16 32
16 16 32
16 16 32
16 16 32
16 16 32
16 16 32
16 16 32
16 16 32
16 16 32
16 16 32
255 255 255
255 255 255
16 16 32
16 16 32
16 16 32
16 16 32
16 16 32
16 16 32
16 16 32
16 16 32
16 16 32
16 16 32
16 16 32
16 16 32
16 16 32
16 16 32
16 16 32
16 16 32
16 16 32
16 16 32
255 255 255
255 255 255
16 16 32
16 16 32
16 16 32
16 16 32
16 16 32
16 16 32
16 16 32
16 16 32
16 16 32
16 16 32
16 16 32
16 16 32
16 16 32
16 16 32
255 255 255
255 255 255
16 16 32
16 16 32
16 16 32
16 16 32
16 16 32
16 16 32
16 16 32
16 16 32
16 16 32
16 16 32
255 255 255
255 255 255
16 16 32
16 16 32
255 255 255
255 255 255
16 16 32
16 16 32
255 255 255
255 255 255
16 16 32
16 16 32
16 16 32
16 16 32
16 16 32
16 16 32
255 255 255
255 255 255
16 16 32
16 16 32
255 255 255
255 255 255
16 16 32
16 16 32
255 255 255
255 255 255
16 16 32
16 16 32
16 16 32
16 16 32
16 16 32
16 16 32
255 255 255
255 255 255
16 16 32
16 16 32
255 255 255
255 255 255
16 16 32
16 16 32
255 255 255
255 255 255
16 16 32
16 16 32
16 16 32
16 16 32
16 16 32
16 16 32
16 16 32
16 16 32
16 16 32
16 16 32
16 16 32
16 16 32
16 16 32
16 16 32
16 16 32
16 16 32
16 16 32
16 16 32
16 16 32
16 16 32
16 16 32
16 16 32
16 16 32
16 16 32
16 16 32
16 16 32
16 16 32
16 16 32
16 16 32
16 16 32
16 16 32
16 16 32
16 16 32
16 16 32
16 16 32
16 16 32
16 16 32
16 16 32
255 255 255
255 255 255
255 255 255
255 255 255
255 255 255
255 255 255
255 255 255
255 255 255
16 16 32
16 16 32
16 16 32
16 16 32
16 16 32
16 16 32
16 16 32
16 16 32
16 16 32
16 16 32
16 16 32
16 16 32
16 16 32
16 16 32
16 16 32
16 16 32
16 16 32
16 16 32
16 16 32
16 16 32
16 16 32
16 16 32
16 16 32
16 16 32
255 255 255
255 255 255
255 255 255
255 255 255
255 255 255
255 255 255
255 255 255
255 255 255
255 255 255
255 255 255
16 16 32
16 16 32
16 16 32
16 16 32
16 16 32
16 16 32
16 16 32
16 16 32
16 16 32
16 16 32
255 255 255
255 255 255
16 16 32
16 16 32
16 16 32
16 16 32
16 16 32
16 16 32
16 16 32
16 16 32
16 16 32
16 16 32
255 255 255
255 255 255
16 16 32
16 16 32
255 255 255
255 255 255
16 16 32
16 16 32
255 255 255
255 255 255
16 16 32
16 16 32
16 16 32
16 16 32
16 16 32
16 16 32
16 16 32
16 16 32
16 16 32
16 16 32
255 255 255
255 255 255
16 16 32
16 16 32
16 16 32
16 16 32
16 16 32
16 16 32
16 16 32
16 16 32
16 16 32
16 16 32
16 16 32
16 16 32
16 16 32
16 16 32
255 255 255
255 255 255
16 16 32
16 16 32
16 16 32
16 16 32
16 16 32
16 16 32
16 16 32
16 16 32
16 16 32
16 16 32
255 255 255
255 255 255
16 16 32
16 16 32
255 255 255
255 255 255
16 16 32
16 16 32
255 255 255
255 255 255
16 16 32
16 16 32
16 16 32
16 16 32
16 16 32
16 16 32
255 255 255
255 255 255
16 16 32
16 16 32
255 255 255
255 255 255
16 16 32
16 16 32
255 255 255
255 255 255
16 16 32
16 16 32
16 16 32
16 16 32
16 16 32
16 16 32
255 255 255
255 255 255
16 16 32
16 16 32
255 255 255
255 255 255
16 16 32
16 16 32
255 255 255
255 255 255
16 16 32
16 16 32
16 16 32
16 16 32
16 16 32
16 16 32
16 16 32
16 16 32
16 16 32
16 16 32
16 16 32
16 16 32
16 16 32
16 16 32
16 16 32
16 16 32
16 16 32
16 16 32
16 16 32
16 16 32
16 16 32
16 16 32
16 16 32
16 16 32
16 16 32
16 16 32
16 16 32
16 16 32
16 16 32
16 16 32
16 16 32
16 16 32
16 16 32
16 16 32
16 16 32
16 16 32
16 16 32
16 16 32
16 16 32
16 16 32
16 16 32
16 16 32
255 255 255
255 255 255
16 16 32
16 16 32
16 16 32
16 16 32
16 16 32
16 16 32
16 16 32
16 16 32
16 16 32
16 16 32
255 255 255
255 255 255
16 16 32
16 16 32
255 255 255
255 255 255
16 16 32
16 16 32
255 255 255
255 255 255
16 16 32
16 16 32
16 16 32
16 16 32
16 16 32
16 16 32
16 16 32
16 16 32
16 16 32
16 16 32
255 255 255
255 255 255
16 16 32
16 16 32
16 16 32
16 16 32
16 16 32
16 16 32
16 16 32
16 16 32
16 16 32
16 16 32
16 16 32
16 16 32
16 16 32
16 16 32
255 255 255
255 255 255
16 16 32
16 16 32
16 16 32
16 16 32
16 16 32
16 16 32
16 16 32
16 16 32
16 16 32
16 16 32
16 16 32
16 16 32
16 16 32
16 16 32
255 255 255
255 255 255
16 16 32
16 16 32
16 16 32
16 16 32
16 16 32
16 16 32
16 16 32
16 16 32
16 16 32
16 16 32
255 255 255
255 255 255
255 255 255
255 255 255
255 255 255
255 255 255
255 255 255
255 255 255
255 255 255
255 255 255
16 16 32
16 16 32
16 16 32
16 16 32
16 16 32
16 16 32
255 255 255
255 255 255
16 16 32
16 16 32
16 16 32
16 16 32
16 16 32
16 16 32
16 16 32
16 16 32
16 16 32
16 16 32
16 16 32
16 16 32
16 16 32
16 16 32
16 16 32
16 16 32
16 16 32
16 16 32
16 16 32
16 16 32
16 16 32
16 16 32
16 16 32
16 16 32
16 16 32
16 16 32
16 16 32
16 16 32
16 16 32
16 16 32
255 255 255
255 255 255
255 255 255
255 255 255
255 255 255
255 255 255
255 255 255
255 255 255
16 16 32
16 16 32
16 16 32
16 16 32
16 16 32
16 16 32
16 16 32
16 16 32
255 255 255
255 255 255
16 16 32
16 16 32
16 16 32
16 16 32
16 16 32
16 16 32
255 255 255
255 255 255
16 16 32
16 16 32
16 16 32
16 16 32
16 16 32
16 16 32
255 255 255
255 255 255
16 16 32
16 16 32
16 16 32
16 16 32
16 16 32
16 16 32
16 16 32
16 16 32
16 16 32
16 16 32
16 16 32
16 16 32
16 16 32
16 16 32
255 255 255
255 255 255
255 255 255
255 255 255
255 255 255
255 255 255
255 255 255
255 255 255
16 16 32
16 16 32
16 16 32
16 16 32
16 16 32
16 16 32
16 16 32
16 16 32
16 16 32
16 16 32
255 255 255
255 255 255
255 255 255
255 255 255
255 255 255
255 255 255
16 16 32
16 16 32
16 16 32
16 16 32
16 16 32
16 16 32
16 16 32
16 16 32
16 16 32
16 16 32
16 16 32
16 16 32
16 16 32
16 16 32
16 16 32
16 16 32
16 16 32
16 16 32
16 16 32
16 16 32
16 16 32
16 16 32
16 16 32
16 16 32
16 16 32
16 16 32
16 16 32
16 16 32
16 16 32
16 16 32
16 16 32
16 16 32
16 16 32
16 16 32
16 16 32
16 16 32
16 16 32
16 16 32
16 16 32
16 16 32
16 16 32
16 16 32
16 16 32
16 16 32
16 16 32
16 16 32
16 16 32
16 16 32
16 16 32
16 16 32
16 16 32
16 16 32
16 16 32
16 16 32
16 16 32
16 16 32
16 16 32
16 16 32
16 16 32
16 16 32
16 16 32
16 16 32
16 16 32
16 16 32
16 16 32
16 16 32
16 16 32
16 16 32
16 16 32
16 16 32
16 16 32
16 16 32
16 16 32
16 16 32
16 16 32
16 16 32
16 16 32
16 16 32
16 16 32
16 16 32
16 16 32
16 16 32
16 16 32
16 16 32
16 16 32
16 16 32
16 16 32
16 16 32
16 16 32
16 16 32
16 16 32
16 16 32
16 16 32
16 16 32
16 16 32
16 16 32
16 16 32
16 16 32
16 16 32
16 16 32
16 16 32
16 16 32
16 16 32
16 16 32
16 16 32
16 16 32
16 16 32
16 16 32
16 16 32
16 16 32
16 16 32
16 16 32
16 16 32
16 16 32
16 16 32
16 16 32
16 16 32
16 16 32
16 16 32
16 16 32
16 16 32
16 16 32
16 16 32
16 16 32
16 16 32
16 16 32
16 16 32
16 16 32
16 16 32
16 16 32
16 16 32
16 16 32
16 16 32
16 16 32
16 16 32
16 16 32
16 16 32
16 16 32
16 16 32
16 16 32
16 16 32
16 16 32
16 16 32
16 16 32
16 16 32
16 16 32
16 16 32
16 16 32
16 16 32
16 16 32
16 16 32
16 16 32
16 16 32
16 16 32
16 16 32
16 16 32
16 16 32
16 16 32
16 16 32
16 16 32
16 16 32
16 16 32
16 16 32
16 16 32
16 16 32
16 16 32
16 16 32
16 16 32
16 16 32
16 16 32
16 16 32
16 16 32
16 16 32
16 16 32
16 16 32
16 16 32
16 16 32
16 16 32
16 16 32
16 16 32
16 16 32
16 16 32
16 16 32
16 16 32
16 16 32
16 16 32
16 16 32
16 16 32
16 16 32
16 16 32
16 16 32
16 16 32
16 16 32
16 16 32
16 16 32
16 16 32
16 16 32
16 16 32
16 16 32
16 16 32
16 16 32
16 16 32
16 16 32
16 16 32
16 16 32
16 16 32
16 16 32
16 16 32
16 16 32
16 16 32
16 16 32
16 16 32
16 16 32
16 16 32
16 16 32
16 16 32
16 16 32
16 16 32
16 16 32
16 16 32
16 16 32
16 16 32
16 16 32
16 16 32
16 16 32
16 16 32
16 16 32
16 16 32
16 16 32
16 16 32
16 16 32
16 16 32
16 16 32
16 16 32
16 16 32
16 16 32
16 16 32
16 16 32
16 16 32
16 16 32
16 16 32
16 16 32
16 16 32
16 16 32
16 16 32
16 16 32
16 16 32
16 16 32
16 16 32
16 16 32
16 16 32
16 16 32
16 16 32
16 16 32
16 16 32
16 16 32
16 16 32
16 16 32
16 16 32
16 16 32
16 16 32
16 16 32
16 16 32
16 16 32
255 255 255
255 255 255
255 255 255
255 255 255
255 255 255
255 255 255
255 255 255
255 255 255
16 16 32
16 16 32
16 16 32
16 16 32
16 16 32
16 16 32
16 16 32
16 16 32
255 255 255
255 255 255
16 16 32
16 16 32
255 255 255
255 255 255
255 255 255
255 255 255
255 255 255
255 255 255
16 16 32
16 16 32
16 16 32
16 16 32
16 16 32
16 16 32
16 16 32
16 16 32
16 16 32
16 16 32
16 16 32
16 16 32
16 16 32
16 16 32
16 16 32
16 16 32
16 16 32
16 16 32
16 16 32
16 16 32
16 16 32
16 16 32
255 255 255
255 255 255
16 16 32
16 16 32
16 16 32
16 16 32
16 16 32
16 16 32
16 16 32
16 16 32
16 16 32
16 16 32
16 16 32
16 16 32
16 16 32
16 16 32
255 255 255
255 255 255
16 16 32
16 16 32
16 16 32
16 16 32
16 16 32
16 16 32
255 255 255
255 255 255
16 16 32
16 16 32
16 16 32
16 16 32
16 16 32
16 16 32
255 255 255
255 255 255
16 16 32
16 16 32
255 255 255
255 255 255
16 16 32
16 16 32
255 255 255
255 255 255
16 16 32
16 16 32
16 16 32
16 16 32
16 16 32
16 16 32
255 255 255
255 255 255
255 255 255
255 255 255
255 255 255
255 255 255
255 255 255
255 255 255
255 255 255
255 255 255
16 16 32
16 16 32
16 16 32
16 16 32
16 16 32
16 16 32
16 16 32
16 16 32
255 255 255
255 255 255
255 255 255
255 255 255
255 255 255
255 255 255
255 255 255
255 255 255
16 16 32
16 16 32
16 16 32
16 16 32
16 16 32
16 16 32
255 255 255
255 255 255
16 16 32
16 16 32
255 255 255
255 255 255
16 16 32
16 16 32
255 255 255
255 255 255
16 16 32
16 16 32
16 16 32
16 16 32
16 16 32
16 16 32
16 16 32
16 16 32
16 16 32
16 16 32
16 16 32
16 16 32
16 16 32
16 16 32
16 16 32
16 16 32
16 16 32
16 16 32
16 16 32
16 16 32
16 16 32
16 16 32
16 16 32
16 16 32
16 16 32
16 16 32
16 16 32
16 16 32
16 16 32
16 16 32
16 16 32
16 16 32
16 16 32
16 16 32
16 16 32
16 16 32
16 16 32
16 16 32
255 255 255
255 255 255
255 255 255
255 255 255
255 255 255
255 255 255
255 255 255
255 255 255
16 16 32
16 16 32
16 16 32
16 16 32
16 16 32
16 16 32
16 16 32
16 16 32
16 16 32
16 16 32
16 16 32
16 16 32
16 16 32
16 16 32
16 16 32
16 16 32
16 16 32
16 16 32
16 16 32
16 16 32
16 16 32
16 16 32
16 16 32
16 16 32
255 255 255
255 255 255
255 255 255
255 255 255
255 255 255
255 255 255
255 255 255
255 255 255
16 16 32
16 16 32
16 16 32
16 16 32
16 16 32
16 16 32
16 16 32
16 16 32
16 16 32
16 16 32
16 16 32
16 16 32
255 255 255
255 255 255
16 16 32
16 16 32
16 16 32
16 16 32
16 16 32
16 16 32
16 16 32
16 16 32
16 16 32
16 16 32
255 255 255
255 255 255
16 16 32
16 16 32
16 16 32
16 16 32
16 16 32
16 16 32
16 16 32
16 16 32
16 16 32
16 16 32
16 16 32
16 16 32
16 16 32
16 16 32
255 255 255
255 255 255
16 16 32
16 16 32
16 16 32
16 16 32
16 16 32
16 16 32
16 16 32
16 16 32
16 16 32
16 16 32
16 16 32
16 16 32
16 16 32
16 16 32
16 16 32
16 16 32
16 16 32
16 16 32
255 255 255
255 255 255
16 16 32
16 16 32
16 16 32
16 16 32
16 16 32
16 16 32
16 16 32
16 16 32
16 16 32
16 16 32
16 16 32
16 16 32
16 16 32
16 16 32
255 255 255
255 255 255
16 16 32
16 16 32
16 16 32
16 16 32
16 16 32
16 16 32
16 16 32
16 16 32
16 16 32
16 16 32
255 255 255
255 255 255
16 16 32
16 16 32
255 255 255
255 255 255
16 16 32
16 16 32
255 255 255
255 255 255
16 16 32
16 16 32
16 16 32
16 16 32
16 16 32
16 16 32
255 255 255
255 255 255
16 16 32
16 16 32
255 255 255
255 255 255
16 16 32
16 16 32
255 255 255
255 255 255
16 16 32
16 16 32
16 16 32
16 16 32
16 16 32
16 16 32
255 255 255
255 255 255
16 16 32
16 16 32
255 255 255
255 255 255
16 16 32
16 16 32
255 255 255
255 255 255
16 16 32
16 16 32
16 16 32
16 16 32
16 16 32
16 16 32
16 16 32
16 16 32
16 16 32
16 16 32
16 16 32
16 16 32
16 16 32
16 16 32
16 16 32
16 16 32
16 16 32
16 16 32
16 16 32
16 16 32
16 16 32
16 16 32
16 16 32
16 16 32
16 16 32
16 16 32
16 16 32
16 16 32
16 16 32
16 16 32
16 16 32
16 16 32
16 16 32
16 16 32
16 16 32
16 16 32
16 16 32
16 16 32
255 255 255
255 255 255
255 255 255
255 255 255
255 255 255
255 255 255
255 255 255
255 255 255
16 16 32
16 16 32
16 16 32
16 16 32
16 16 32
16 16 32
16 16 32
16 16 32
16 16 32
16 16 32
16 16 32
16 16 32
16 16 32
16 16 32
16 16 32
16 16 32
16 16 32
16 16 32
16 16 32
16 16 32
16 16 32
16 16 32
16 16 32
16 16 32
255 255 255
255 255 255
255 255 255
255 255 255
255 255 255
255 255 255
255 255 255
255 255 255
255 255 255
255 255 255
16 16 32
16 16 32
16 16 32
16 16 32
16 16 32
16 16 32
16 16 32
16 16 32
16 16 32
16 16 32
255 255 255
255 255 255
16 16 32
16 16 32
16 16 32
16 16 32
16 16 32
16 16 32
16 16 32
16 16 32
16 16 32
16 16 32
255 255 255
255 255 255
16 16 32
16 16 32
255 255 255
255 255 255
16 16 32
16 16 32
255 255 255
255 255 255
16 16 32
16 16 32
16 16 32
16 16 32
16 16 32
16 16 32
16 16 32
16 16 32
16 16 32
16 16 32
255 255 255
255 255 255
16 16 32
16 16 32
16 16 32
16 16 32
16 16 32
16 16 32
16 16 32
16 16 32
16 16 32
16 16 32
16 16 32
16 16 32
16 16 32
16 16 32
255 255 255
255 255 255
16 16 32
16 16 32
16 16 32
16 16 32
16 16 32
16 16 32
16 16 32
16 16 32
16 16 32
16 16 32
255 255 255
255 255 255
16 16 32
16 16 32
255 255 255
255 255 255
16 16 32
16 16 32
255 255 255
255 255 255
16 16 32
16 16 32
16 16 32
16 16 32
16 16 32
16 16 32
255 255 255
255 255 255
16 16 32
16 16 32
255 255 255
255 255 255
16 16 32
16 16 32
255 255 255
255 255 255
16 16 32
16 16 32
16 16 32
16 16 32
16 16 32
16 16 32
255 255 255
255 255 255
16 16 32
16 16 32
255 255 255
255 255 255
16 16 32
16 16 32
255 255 255
255 255 255
16 16 32
16 16 32
16 16 32
16 16 32
16 16 32
16 16 32
16 16 32
16 16 32
16 16 32
16 16 32
16 16 32
16 16 32
16 16 32
16 16 32
16 16 32
16 16 32
16 16 32
16 16 32
16 16 32
16 16 32
16 16 32
16 16 32
16 16 32
16 16 32
16 16 32
16 16 32
16 16 32
16 16 32
16 16 32
16 16 32
16 16 32
16 16 32
16 16 32
16 16 32
16 16 32
16 16 32
16 16 32
16 16 32
16 16 32
16 16 32
16 16 32
16 16 32
255 255 255
255 255 255
16 16 32
16 16 32
16 16 32
16 16 32
16 16 32
16 16 32
16 16 32
16 16 32
16 16 32
16 16 32
255 255 255
255 255 255
16 16 32
16 16 32
255 255 255
255 255 255
16 16 32
16 16 32
255 255 255
255 255 255
16 16 32
16 16 32
16 16 32
16 16 32
16 16 32
16 16 32
16 16 32
16 16 32
16 16 32
16 16 32
255 255 255
255 255 255
16 16 32
16 16 32
16 16 32
16 16 32
16 16 32
16 16 32
16 16 32
16 16 32
16 16 32
16 16 32
16 16 32
16 16 32
16 16 32
16 16 32
255 255 255
255 255 255
16 16 32
16 16 32
16 16 32
16 16 32
16 16 32
16 16 32
16 16 32
16 16 32
16 16 32
16 16 32
16 16 32
16 16 32
16 16 32
16 16 32
255 255 255
255 255 255
16 16 32
16 16 32
16 16 32
16 16 32
16 16 32
16 16 32
16 16 32
16 16 32
16 16 32
16 16 32
255 255 255
255 255 255
255 255 255
255 255 255
255 255 255
255 255 255
255 255 255
255 255 255
255 255 255
255 255 255
16 16 32
16 16 32
16 16 32
16 16 32
16 16 32
16 16 32
255 255 255
255 255 255
16 16 32
16 16 32
16 16 32
16 16 32
16 16 32
16 16 32
16 16 32
16 16 32
16 16 32
16 16 32
16 16 32
16 16 32
16 16 32
16 16 32
16 16 32
16 16 32
16 16 32
16 16 32
16 16 32
16 16 32
16 16 32
16 16 32
16 16 32
16 16 32
16 16 32
16 16 32
16 16 32
16 16 32
16 16 32
16 16 32
255 255 255
255 255 255
255 255 255
255 255 255
255 255 255
255 255 255
255 255 255
255 255 255
16 16 32
16 16 32
16 16 32
16 16 32
16 16 32
16 16 32
16 16 32
16 16 32
255 255 255
255 255 255
16 16 32
16 16 32
16 16 32
16 16 32
16 16 32
16 16 32
255 255 255
255 255 255
16 16 32
16 16 32
16 16 32
16 16 32
16 16 32
16 16 32
255 255 255
255 255 255
16 16 32
16 16 32
16 16 32
16 16 32
16 16 32
16 16 32
16 16 32
16 16 32
16 16 32
16 16 32
16 16 32
16 16 32
16 16 32
16 16 32
255 255 255
255 255 255
255 255 255
255 255 255
255 255 255
255 255 255
255 255 255
255 255 255
16 16 32
16 16 32
16 16 32
16 16 32
16 16 32
16 16 32
16 16 32
16 16 32
16 16 32
16 16 32
255 255 255
255 255 255
255 255 255
255 255 255
255 255 255
255 255 255
16 16 32
16 16 32
16 16 32
16 16 32
16 16 32
16 16 32
16 16 32
16 16 32
16 16 32
16 16 32
16 16 32
16 16 32
16 16 32
16 16 32
16 16 32
16 16 32
16 16 32
16 16 32
16 16 32
16 16 32
16 16 32
16 16 32
16 16 32
16 16 32
16 16 32
16 16 32
16 16 32
16 16 32
16 16 32
16 16 32
16 16 32
16 16 32
16 16 32
16 16 32
16 16 32
16 16 32
16 16 32
16 16 32
16 16 32
16 16 32
16 16 32
16 16 32
16 16 32
16 16 32
16 16 32
16 16 32
16 16 32
16 16 32
16 16 32
16 16 32
16 16 32
16 16 32
16 16 32
16 16 32
16 16 32
16 16 32
16 16 32
16 16 32
16 16 32
16 16 32
16 16 32
16 16 32
16 16 32
16 16 32
16 16 32
16 16 32
16 16 32
16 16 32
16 16 32
16 16 32
16 16 32
16 16 32
16 16 32
16 16 32
16 16 32
16 16 32
16 16 32
16 16 32
16 16 32
16 16 32
16 16 32
16 16 32
16 16 32
16 16 32
16 16 32
16 16 32
16 16 32
16 16 32
16 16 32
16 16 32
16 16 32
16 16 32
16 16 32
16 16 32
16 16 32
16 16 32
16 16 32
16 16 32
16 16 32
16 16 32
16 16 32
16 16 32
16 16 32
16 16 32
16 16 32
16 16 32
16 16 32
16 16 32
16 16 32
16 16 32
16 16 32
16 16 32
16 16 32
16 16 32
16 16 32
16 16 32
16 16 32
16 16 32
16 16 32
16 16 32
16 16 32
16 16 32
16 16 32
16 16 32
16 16 32
16 16 32
16 16 32
16 16 32
16 16 32
16 16 32
16 16 32
16 16 32
16 16 32
16 16 32
16 16 32
16 16 32
16 16 32
16 16 32
16 16 32
16 16 32
16 16 32
16 16 32
16 16 32
16 16 32
16 16 32
16 16 32
16 16 32
16 16 32
16 16 32
16 16 32
16 16 32
16 16 32
16 16 32
16 16 32
16 16 32
16 16 32
16 16 32
16 16 32
16 16 32
16 16 32
16 16 32
16 16 32
16 16 32
16 16 32
16 16 32
16 16 32
16 16 32
16 16 32
16 16 32
16 16 32
16 16 32
16 16 32
16 16 32
16 16 32
16 16 32
16 16 32
16 16 32
16 16 32
16 16 32
16 16 32
16 16 32
16 16 32
16 16 32
16 16 32
16 16 32
16 16 32
16 16 32
16 16 32
16 16 32
16 16 32
16 16 32
16 16 32
16 16 32
16 16 32
16 16 32
16 16 32
16 16 32
16 16 32
16 16 32
16 16 32
16 16 32
16 16 32
16 16 32
16 16 32
16 16 32
16 16 32
16 16 32
16 16 32
16 16 32
16 16 32
16 16 32
16 16 32
16 16 32
16 16 32
16 16 32
16 16 32
16 16 32
16 16 32
16 16 32
16 16 32
16 16 32
16 16 32
16 16 32
16 16 32
16 16 32
16 16 32
16 16 32
16 16 32
16 16 32
16 16 32
16 16 32
16 16 32
16 16 32
16 16 32
16 16 32
16 16 32
16 16 32
16 16 32
16 16 32
16 16 32
16 16 32
16 16 32
16 16 32
16 16 32
16 16 32
16 16 32
16 16 32
16 16 32
16 16 32
16 16 32
16 16 32
16 16 32
16 16 32
16 16 32
16 16 32
16 16 32
16 16 32
16 16 32
16 16 32
16 16 32
16 16 32
16 16 32
16 16 32
16 16 32
255 255 255
255 255 255
16 16 32
16 16 32
255 255 255
255 255 255
16 16 32
16 16 32
16 16 32
16 16 32
16 16 32
16 16 32
16 16 32
16 16 32
16 16 32
16 16 32
255 255 255
255 255 255
16 16 32
16 16 32
16 16 32
16 16 32
16 16 32
16 16 32
255 255 255
255 255 255
16 16 32
16 16 32
16 16 32
16 16 32
16 16 32
16 16 32
16 16 32
16 16 32
16 16 32
16 16 32
16 16 32
16 16 32
16 16 32
16 16 32
16 16 32
16 16 32
16 16 32
16 16 32
16 16 32
16 16 32
16 16 32
16 16 32
255 255 255
255 255 255
16 16 32
16 16 32
16 16 32
16 16 32
16 16 32
16 16 32
16 16 32
16 16 32
16 16 32
16 16 32
16 16 32
16 16 32
16 16 32
16 16 32
255 255 255
255 255 255
16 16 32
16 16 32
16 16 32
16 16 32
16 16 32
16 16 32
255 255 255
255 255 255
16 16 32
16 16 32
16 16 32
16 16 32
16 16 32
16 16 32
255 255 255
255 255 255
16 16 32
16 16 32
255 255 255
255 255 255
16 16 32
16 16 32
255 255 255
255 255 255
16 16 32
16 16 32
16 16 32
16 16 32
16 16 32
16 16 32
16 16 32
16 16 32
16 16 32
16 16 32
16 16 32
16 16 32
16 16 32
16 16 32
16 16 32
16 16 32
16 16 32
16 16 32
16 16 32
16 16 32
16 16 32
16 16 32
16 16 32
16 16 32
16 16 32
16 16 32
16 16 32
16 16 32
16 16 32
16 16 32
255 255 255
255 255 255
16 16 32
16 16 32
16 16 32
16 16 32
16 16 32
16 16 32
255 255 255
255 255 255
255 255 255
255 255 255
16 16 32
16 16 32
16 16 32
16 16 32
255 255 255
255 255 255
16 16 32
16 16 32
16 16 32
16 16 32
16 16 32
16 16 32
16 16 32
16 16 32
16 16 32
16 16 32
16 16 32
16 16 32
16 16 32
16 16 32
16 16 32
16 16 32
16 16 32
16 16 32
16 16 32
16 16 32
16 16 32
16 16 32
16 16 32
16 16 32
16 16 32
16 16 32
16 16 32
16 16 32
16 16 32
16 16 32
16 16 32
16 16 32
16 16 32
16 16 32
16 16 32
16 16 32
16 16 32
16 16 32
255 255 255
255 255 255
16 16 32
16 16 32
16 16 32
16 16 32
16 16 32
16 16 32
16 16 32
16 16 32
16 16 32
16 16 32
16 16 32
16 16 32
16 16 32
16 16 32
16 16 32
16 16 32
16 16 32
16 16 32
16 16 32
16 16 32
16 16 32
16 16 32
16 16 32
16 16 32
16 16 32
16 16 32
16 16 32
16 16 32
16 16 32
16 16 32
255 255 255
255 255 255
16 16 32
16 16 32
16 16 32
16 16 32
16 16 32
16 16 32
16 16 32
16 16 32
16 16 32
16 16 32
16 16 32
16 16 32
16 16 32
16 16 32
16 16 32
16 16 32
16 16 32
16 16 32
255 255 255
255 255 255
16 16 32
16 16 32
16 16 32
16 16 32
16 16 32
16 16 32
16 16 32
16 16 32
16 16 32
16 16 32
255 255 255
255 255 255
16 16 32
16 16 32
16 16 32
16 16 32
16 16 32
16 16 32
16 16 32
16 16 32
16 16 32
16 16 32
16 16 32
16 16 32
16 16 32
16 16 32
255 255 255
255 255 255
16 16 32
16 16 32
16 16 32
16 16 32
16 16 32
16 16 32
16 16 32
16 16 32
16 16 32
16 16 32
16 16 32
16 16 32
16 16 32
16 16 32
16 16 32
16 16 32
255 255 255
255 255 255
16 16 32
16 16 32
16 16 32
16 16 32
16 16 32
16 16 32
16 16 32
16 16 32
16 16 32
16 16 32
16 16 32
16 16 32
16 16 32
16 16 32
16 16 32
16 16 32
255 255 255
255 255 255
16 16 32
16 16 32
16 16 32
16 16 32
16 16 32
16 16 32
16 16 32
16 16 32
16 16 32
16 16 32
255 255 255
255 255 255
255 255 255
255 255 255
16 16 32
16 16 32
16 16 32
16 16 32
255 255 255
255 255 255
16 16 32
16 16 32
16 16 32
16 16 32
16 16 32
16 16 32
255 255 255
255 255 255
255 255 255
255 255 255
16 16 32
16 16 32
16 16 32
16 16 32
255 255 255
255 255 255
16 16 32
16 16 32
16 16 32
16 16 32
16 16 32
16 16 32
255 255 255
255 255 255
255 255 255
255 255 255
16 16 32
16 16 32
16 16 32
16 16 32
255 255 255
255 255 255
16 16 32
16 16 32
16 16 32
16 16 32
16 16 32
16 16 32
16 16 32
16 16 32
16 16 32
16 16 32
16 16 32
16 16 32
16 16 32
16 16 32
16 16 32
16 16 32
16 16 32
16 16 32
16 16 32
16 16 32
16 16 32
16 16 32
16 16 32
16 16 32
16 16 32
16 16 32
16 16 32
16 16 32
16 16 32
16 16 32
16 16 32
16 16 32
16 16 32
16 16 32
16 16 32
16 16 32
16 16 32
16 16 32
255 255 255
255 255 255
16 16 32
16 16 32
255 255 255
255 255 255
16 16 32
16 16 32
16 16 32
16 16 32
16 16 32
16 16 32
16 16 32
16 16 32
16 16 32
16 16 32
16 16 32
16 16 32
16 16 32
16 16 32
16 16 32
16 16 32
16 16 32
16 16 32
16 16 32
16 16 32
16 16 32
16 16 32
16 16 32
16 16 32
16 16 32
16 16 32
255 255 255
255 255 255
16 16 32
16 16 32
16 16 32
16 16 32
16 16 32
16 16 32
255 255 255
255 255 255
16 16 32
16 16 32
16 16 32
16 16 32
16 16 32
16 16 32
16 16 32
16 16 32
255 255 255
255 255 255
16 16 32
16 16 32
16 16 32
16 16 32
16 16 32
16 16 32
16 16 32
16 16 32
16 16 32
16 16 32
16 16 32
16 16 32
255 255 255
255 255 255
16 16 32
16 16 32
255 255 255
255 255 255
16 16 32
16 16 32
255 255 255
255 255 255
16 16 32
16 16 32
16 16 32
16 16 32
16 16 32
16 16 32
16 16 32
16 16 32
255 255 255
255 255 255
16 16 32
16 16 32
16 16 32
16 16 32
16 16 32
16 16 32
16 16 32
16 16 32
16 16 32
16 16 32
16 16 32
16 16 32
16 16 32
16 16 32
16 16 32
16 16 32
255 255 255
255 255 255
16 16 32
16 16 32
16 16 32
16 16 32
16 16 32
16 16 32
16 16 32
16 16 32
16 16 32
16 16 32
255 255 255
255 255 255
255 255 255
255 255 255
16 16 32
16 16 32
16 16 32
16 16 32
255 255 255
255 255 255
16 16 32
16 16 32
16 16 32
16 16 32
16 16 32
16 16 32
255 255 255
255 255 255
255 255 255
255 255 255
16 16 32
16 16 32
16 16 32
16 16 32
255 255 255
255 255 255
16 16 32
16 16 32
16 16 32
16 16 32
16 16 32
16 16 32
255 255 255
255 255 255
255 255 255
255 255 255
16 16 32
16 16 32
16 16 32
16 16 32
255 255 255
255 255 255
16 16 32
16 16 32
16 16 32
16 16 32
16 16 32
16 16 32
16 16 32
16 16 32
16 16 32
16 16 32
16 16 32
16 16 32
16 16 32
16 16 32
16 16 32
16 16 32
16 16 32
16 16 32
16 16 32
16 16 32
16 16 32
16 16 32
16 16 32
16 16 32
16 16 32
16 16 32
16 16 32
16 16 32
16 16 32
16 16 32
16 16 32
16 16 32
16 16 32
16 16 32
16 16 32
16 16 32
16 16 32
16 16 32
16 16 32
16 16 32
16 16 32
16 16 32
255 255 255
255 255 255
16 16 32
16 16 32
16 16 32
16 16 32
16 16 32
16 16 32
16 16 32
16 16 32
16 16 32
16 16 32
255 255 255
255 255 255
16 16 32
16 16 32
16 16 32
16 16 32
255 255 255
255 255 255
255 255 255
255 255 255
16 16 32
16 16 32
16 16 32
16 16 32
16 16 32
16 16 32
16 16 32
16 16 32
16 16 32
16 16 32
255 255 255
255 255 255
16 16 32
16 16 32
16 16 32
16 16 32
16 16 32
16 16 32
16 16 32
16 16 32
16 16 32
16 16 32
16 16 32
16 16 32
16 16 32
16 16 32
255 255 255
255 255 255
16 16 32
16 16 32
16 16 32
16 16 32
16 16 32
16 16 32
16 16 32
16 16 32
16 16 32
16 16 32
16 16 32
16 16 32
16 16 32
16 16 32
255 255 255
255 255 255
16 16 32
16 16 32
16 16 32
16 16 32
16 16 32
16 16 32
16 16 32
16 16 32
16 16 32
16 16 32
255 255 255
255 255 255
16 16 32
16 16 32
16 16 32
16 16 32
16 16 32
16 16 32
255 255 255
255 255 255
16 16 32
16 16 32
16 16 32
16 16 32
16 16 32
16 16 32
255 255 255
255 255 255
16 16 32
16 16 32
16 16 32
16 16 32
16 16 32
16 16 32
16 16 32
16 16 32
16 16 32
16 16 32
16 16 32
16 16 32
16 16 32
16 16 32
16 16 32
16 16 32
16 16 32
16 16 32
16 16 32
16 16 32
16 16 32
16 16 32
16 16 32
16 16 32
16 16 32
16 16 32
16 16 32
16 16 32
16 16 32
16 16 32
255 255 255
255 255 255
16 16 32
16 16 32
255 255 255
255 255 255
16 16 32
16 16 32
16 16 32
16 16 32
16 16 32
16 16 32
16 16 32
16 16 32
16 16 32
16 16 32
255 255 255
255 255 255
16 16 32
16 16 32
16 16 32
16 16 32
16 16 32
16 16 32
255 255 255
255 255 255
16 16 32
16 16 32
16 16 32
16 16 32
16 16 32
16 16 32
255 255 255
255 255 255
16 16 32
16 16 32
16 16 32
16 16 32
16 16 32
16 16 32
16 16 32
16 16 32
16 16 32
16 16 32
16 16 32
16 16 32
16 16 32
16 16 32
255 255 255
255 255 255
16 16 32
16 16 32
16 16 32
16 16 32
16 16 32
16 16 32
16 16 32
16 16 32
16 16 32
16 16 32
16 16 32
16 16 32
16 16 32
16 16 32
16 16 32
16 16 32
16 16 32
16 16 32
16 16 32
16 16 32
16 16 32
16 16 32
255 255 255
255 255 255
16 16 32
16 16 32
16 16 32
16 16 32
16 16 32
16 16 32
16 16 32
16 16 32
16 16 32
16 16 32
16 16 32
16 16 32
16 16 32
16 16 32
16 16 32
16 16 32
16 16 32
16 16 32
16 16 32
16 16 32
16 16 32
16 16 32
16 16 32
16 16 32
16 16 32
16 16 32
16 16 32
16 16 32
16 16 32
16 16 32
16 16 32
16 16 32
16 16 32
16 16 32
16 16 32
16 16 32
16 16 32
16 16 32
16 16 32
16 16 32
16 16 32
16 16 32
16 16 32
16 16 32
16 16 32
16 16 32
16 16 32
16 16 32
16 16 32
16 16 32
16 16 32
16 16 32
16 16 32
16 16 32
16 16 32
16 16 32
16 16 32
16 16 32
16 16 32
16 16 32
16 16 32
16 16 32
16 16 32
16 16 32
16 16 32
16 16 32
16 16 32
16 16 32
16 16 32
16 16 32
16 16 32
16 16 32
16 16 32
16 16 32
16 16 32
16 16 32
16 16 32
16 16 32
16 16 32
16 16 32
16 16 32
16 16 32
16 16 32
16 16 32
16 16 32
16 16 32
16 16 32
16 16 32
16 16 32
16 16 32
16 16 32
16 16 32
16 16 32
16 16 32
16 16 32
16 16 32
16 16 32
16 16 32
16 16 32
16 16 32
16 16 32
16 16 32
16 16 32
16 16 32
16 16 32
16 16 32
16 16 32
16 16 32
16 16 32
16 16 32
16 16 32
16 16 32
16 16 32
16 16 32
16 16 32
16 16 32
16 16 32
16 16 32
16 16 32
16 16 32
16 16 32
16 16 32
16 16 32
16 16 32
16 16 32
16 16 32
16 16 32
16 16 32
16 16 32
16 16 32
16 16 32
16 16 32
16 16 32
16 16 32
16 16 32
16 16 32
16 16 32
16 16 32
16 16 32
16 16 32
16 16 32
16 16 32
16 16 32
16 16 32
16 16 32
16 16 32
16 16 32
16 16 32
16 16 32
16 16 32
16 16 32
16 16 32
16 16 32
16 16 32
16 16 32
16 16 32
16 16 32
16 16 32
16 16 32
16 16 32
16 16 32
16 16 32
16 16 32
16 16 32
16 16 32
16 16 32
16 16 32
16 16 32
16 16 32
16 16 32
16 16 32
16 16 32
16 16 32
16 16 32
16 16 32
16 16 32
16 16 32
16 16 32
16 16 32
16 16 32
16 16 32
16 16 32
16 16 32
16 16 32
16 16 32
16 16 32
16 16 32
16 16 32
16 16 32
16 16 32
16 16 32
16 16 32
16 16 32
16 16 32
16 16 32
16 16 32
16 16 32
16 16 32
16 16 32
16 16 32
16 16 32
16 16 32
16 16 32
16 16 32
16 16 32
16 16 32
16 16 32
16 16 32
16 16 32
16 16 32
16 16 32
16 16 32
16 16 32
16 16 32
16 16 32
16 16 32
16 16 32
16 16 32
16 16 32
16 16 32
16 16 32
16 16 32
16 16 32
16 16 32
16 16 32
16 16 32
16 16 32
16 16 32
16 16 32
16 16 32
16 16 32
16 16 32
16 16 32
16 16 32
16 16 32
16 16 32
16 16 32
16 16 32
16 16 32
16 16 32
16 16 32
16 16 32
16 16 32
16 16 32
16 16 32
16 16 32
16 16 32
16 16 32
16 16 32
16 16 32
16 16 32
16 16 32
16 16 32
16 16 32
16 16 32
16 16 32
16 16 32
16 16 32
16 16 32
16 16 32
16 16 32
16 16 32
255 255 255
255 255 255
16 16 32
16 16 32
255 255 255
255 255 255
16 16 32
16 16 32
16 16 32
16 16 32
16 16 32
16 16 32
16 16 32
16 16 32
16 16 32
16 16 32
255 255 255
255 255 255
16 16 32
16 16 32
16 16 32
16 16 32
16 16 32
16 16 32
255 255 255
255 255 255
16 16 32
16 16 32
16 16 32
16 16 32
16 16 32
16 16 32
16 16 32
16 16 32
16 16 32
16 16 32
16 16 32
16 16 32
16 16 32
16 16 32
16 16 32
16 16 32
16 16 32
16 16 32
16 16 32
16 16 32
16 16 32
16 16 32
255 255 255
255 255 255
16 16 32
16 16 32
16 16 32
16 16 32
16 16 32
16 16 32
16 16 32
16 16 32
16 16 32
16 16 32
16 16 32
16 16 32
16 16 32
16 16 32
255 255 255
255 255 255
16 16 32
16 16 32
16 16 32
16 16 32
16 16 32
16 16 32
255 255 255
255 255 255
16 16 32
16 16 32
16 16 32
16 16 32
16 16 32
16 16 32
255 255 255
255 255 255
16 16 32
16 16 32
255 255 255
255 255 255
16 16 32
16 16 32
255 255 255
255 255 255
16 16 32
16 16 32
16 16 32
16 16 32
16 16 32
16 16 32
16 16 32
16 16 32
16 16 32
16 16 32
16 16 32
16 16 32
16 16 32
16 16 32
16 16 32
16 16 32
16 16 32
16 16 32
16 16 32
16 16 32
16 16 32
16 16 32
16 16 32
16 16 32
16 16 32
16 16 32
16 16 32
16 16 32
16 16 32
16 16 32
255 255 255
255 255 255
16 16 32
16 16 32
16 16 32
16 16 32
16 16 32
16 16 32
255 255 255
255 255 255
255 255 255
255 255 255
16 16 32
16 16 32
16 16 32
16 16 32
255 255 255
255 255 255
16 16 32
16 16 32
16 16 32
16 16 32
16 16 32
16 16 32
16 16 32
16 16 32
16 16 32
16 16 32
16 16 32
16 16 32
16 16 32
16 16 32
16 16 32
16 16 32
16 16 32
16 16 32
16 16 32
16 16 32
16 16 32
16 16 32
16 16 32
16 16 32
16 16 32
16 16 32
16 16 32
16 16 32
16 16 32
16 16 32
16 16 32
16 16 32
16 16 32
16 16 32
16 16 32
16 16 32
16 16 32
16 16 32
255 255 255
255 255 255
16 16 32
16 16 32
16 16 32
16 16 32
16 16 32
16 16 32
16 16 32
16 16 32
16 16 32
16 16 32
16 16 32
16 16 32
16 16 32
16 16 32
16 16 32
16 16 32
16 16 32
16 16 32
16 16 32
16 16 32
16 16 32
16 16 32
16 16 32
16 16 32
16 16 32
16 16 32
16 16 32
16 16 32
16 16 32
16 16 32
255 255 255
255 255 255
16 16 32
16 16 32
16 16 32
16 16 32
16 16 32
16 16 32
16 16 32
16 16 32
16 16 32
16 16 32
16 16 32
16 16 32
16 16 32
16 16 32
16 16 32
16 16 32
16 16 32
16 16 32
255 255 255
255 255 255
16 16 32
16 16 32
16 16 32
16 16 32
16 16 32
16 16 32
16 16 32
16 16 32
16 16 32
16 16 32
255 255 255
255 255 255
16 16 32
16 16 32
16 16 32
16 16 32
16 16 32
16 16 32
16 16 32
16 16 32
16 16 32
16 16 32
16 16 32
16 16 32
16 16 32
16 16 32
255 255 255
255 255 255
16 16 32
16 16 32
16 16 32
16 16 32
16 16 32
16 16 32
16 16 32
16 16 32
16 16 32
16 16 32
16 16 32
16 16 32
16 16 32
16 16 32
16 16 32
16 16 32
255 255 255
255 255 255
16 16 32
16 16 32
16 16 32
16 16 32
16 16 32
16 16 32
16 16 32
16 16 32
16 16 32
16 16 32
16 16 32
16 16 32
16 16 32
16 16 32
16 16 32
16 16 32
255 255 255
255 255 255
16 16 32
16 16 32
16 16 32
16 16 32
16 16 32
16 16 32
16 16 32
16 16 32
16 16 32
16 16 32
255 255 255
255 255 255
255 255 255
255 255 255
16 16 32
16 16 32
16 16 32
16 16 32
255 255 255
255 255 255
16 16 32
16 16 32
16 16 32
16 16 32
16 16 32
16 16 32
255 255 255
255 255 255
255 255 255
255 255 255
16 16 32
16 16 32
16 16 32
16 16 32
255 255 255
255 255 255
16 16 32
16 16 32
16 16 32
16 16 32
16 16 32
16 16 32
255 255 255
255 255 255
255 255 255
255 255 255
16 16 32
16 16 32
16 16 32
16 16 32
255 255 255
255 255 255
16 16 32
16 16 32
16 16 32
16 16 32
16 16 32
16 16 32
16 16 32
16 16 32
16 16 32
16 16 32
16 16 32
16 16 32
16 16 32
16 16 32
16 16 32
16 16 32
16 16 32
16 16 32
16 16 32
16 16 32
16 16 32
16 16 32
16 16 32
16 16 32
16 16 32
16 16 32
16 16 32
16 16 32
16 16 32
16 16 32
16 16 32
16 16 32
16 16 32
16 16 32
16 16 32
16 16 32
16 16 32
16 16 32
255 255 255
255 255 255
16 16 32
16 16 32
255 255 255
255 255 255
16 16 32
16 16 32
16 16 32
16 16 32
16 16 32
16 16 32
16 16 32
16 16 32
16 16 32
16 16 32
16 16 32
16 16 32
16 16 32
16 16 32
16 16 32
16 16 32
16 16 32
16 16 32
16 16 32
16 16 32
16 16 32
16 16 32
16 16 32
16 16 32
16 16 32
16 16 32
255 255 255
255 255 255
16 16 32
16 16 32
16 16 32
16 16 32
16 16 32
16 16 32
255 255 255
255 255 255
16 16 32
16 16 32
16 16 32
16 16 32
16 16 32
16 16 32
16 16 32
16 16 32
255 255 255
255 255 255
16 16 32
16 16 32
16 16 32
16 16 32
16 16 32
16 16 32
16 16 32
16 16 32
16 16 32
16 16 32
16 16 32
16 16 32
255 255 255
255 255 255
16 16 32
16 16 32
255 255 255
255 255 255
16 16 32
16 16 32
255 255 255
255 255 255
16 16 32
16 16 32
16 16 32
16 16 32
16 16 32
16 16 32
16 16 32
16 16 32
255 255 255
255 255 255
16 16 32
16 16 32
16 16 32
16 16 32
16 16 32
16 16 32
16 16 32
16 16 32
16 16 32
16 16 32
16 16 32
16 16 32
16 16 32
16 16 32
16 16 32
16 16 32
255 255 255
255 255 255
16 16 32
16 16 32
16 16 32
16 16 32
16 16 32
16 16 32
16 16 32
16 16 32
16 16 32
16 16 32
255 255 255
255 255 255
255 255 255
255 255 255
16 16 32
16 16 32
16 16 32
16 16 32
255 255 255
255 255 255
16 16 32
16 16 32
16 16 32
16 16 32
16 16 32
16 16 32
255 255 255
255 255 255
255 255 255
255 255 255
16 16 32
16 16 32
16 16 32
16 16 32
255 255 255
255 255 255
16 16 32
16 16 32
16 16 32
16 16 32
16 16 32
16 16 32
255 255 255
255 255 255
255 255 255
255 255 255
16 16 32
16 16 32
16 16 32
16 16 32
255 255 255
255 255 255
16 16 32
16 16 32
16 16 32
16 16 32
16 16 32
16 16 32
16 16 32
16 16 32
16 16 32
16 16 32
16 16 32
16 16 32
16 16 32
16 16 32
16 16 32
16 16 32
16 16 32
16 16 32
16 16 32
16 16 32
16 16 32
16 16 32
16 16 32
16 16 32
16 16 32
16 16 32
16 16 32
16 16 32
16 16 32
16 16 32
16 16 32
16 16 32
16 16 32
16 16 32
16 16 32
16 16 32
16 16 32
16 16 32
16 16 32
16 16 32
16 16 32
16 16 32
255 255 255
255 255 255
16 16 32
16 16 32
16 16 32
16 16 32
16 16 32
16 16 32
16 16 32
16 16 32
16 16 32
16 16 32
255 255 255
255 255 255
16 16 32
16 16 32
16 16 32
16 16 32
255 255 255
255 255 255
255 255 255
255 255 255
16 16 32
16 16 32
16 16 32
16 16 32
16 16 32
16 16 32
16 16 32
16 16 32
16 16 32
16 16 32
255 255 255
255 255 255
16 16 32
16 16 32
16 16 32
16 16 32
16 16 32
16 16 32
16 16 32
16 16 32
16 16 32
16 16 32
16 16 32
16 16 32
16 16 32
16 16 32
255 255 255
255 255 255
16 16 32
16 16 32
16 16 32
16 16 32
16 16 32
16 16 32
16 16 32
16 16 32
16 16 32
16 16 32
16 16 32
16 16 32
16 16 32
16 16 32
255 255 255
255 255 255
16 16 32
16 16 32
16 16 32
16 16 32
16 16 32
16 16 32
16 16 32
16 16 32
16 16 32
16 16 32
255 255 255
255 255 255
16 16 32
16 16 32
16 16 32
16 16 32
16 16 32
16 16 32
255 255 255
255 255 255
16 16 32
16 16 32
16 16 32
16 16 32
16 16 32
16 16 32
255 255 255
255 255 255
16 16 32
16 16 32
16 16 32
16 16 32
16 16 32
16 16 32
16 16 32
16 16 32
16 16 32
16 16 32
16 16 32
16 16 32
16 16 32
16 16 32
16 16 32
16 16 32
16 16 32
16 16 32
16 16 32
16 16 32
16 16 32
16 16 32
16 16 32
16 16 32
16 16 32
16 16 32
16 16 32
16 16 32
16 16 32
16 16 32
255 255 255
255 255 255
16 16 32
16 16 32
255 255 255
255 255 255
16 16 32
16 16 32
16 16 32
16 16 32
16 16 32
16 16 32
16 16 32
16 16 32
16 16 32
16 16 32
255 255 255
255 255 255
16 16 32
16 16 32
16 16 32
16 16 32
16 16 32
16 16 32
255 255 255
255 255 255
16 16 32
16 16 32
16 16 32
16 16 32
16 16 32
16 16 32
255 255 255
255 255 255
16 16 32
16 16 32
16 16 32
16 16 32
16 16 32
16 16 32
16 16 32
16 16 32
16 16 32
16 16 32
16 16 32
16 16 32
16 16 32
16 16 32
255 255 255
255 255 255
16 16 32
16 16 32
16 16 32
16 16 32
16 16 32
16 16 32
16 16 32
16 16 32
16 16 32
16 16 32
16 16 32
16 16 32
16 16 32
16 16 32
16 16 32
16 16 32
16 16 32
16 16 32
16 16 32
16 16 32
16 16 32
16 16 32
255 255 255
255 255 255
16 16 32
16 16 32
16 16 32
16 16 32
16 16 32
16 16 32
16 16 32
16 16 32
16 16 32
16 16 32
16 16 32
16 16 32
16 16 32
16 16 32
16 16 32
16 16 32
16 16 32
16 16 32
16 16 32
16 16 32
16 16 32
16 16 32
16 16 32
16 16 32
16 16 32
16 16 32
16 16 32
16 16 32
16 16 32
16 16 32
16 16 32
16 16 32
16 16 32
16 16 32
16 16 32
16 16 32
16 16 32
16 16 32
16 16 32
16 16 32
16 16 32
16 16 32
16 16 32
16 16 32
16 16 32
16 16 32
16 16 32
16 16 32
16 16 32
16 16 32
16 16 32
16 16 32
16 16 32
16 16 32
16 16 32
16 16 32
16 16 32
16 16 32
16 16 32
16 16 32
16 16 32
16 16 32
16 16 32
16 16 32
16 16 32
16 16 32
16 16 32
16 16 32
16 16 32
16 16 32
16 16 32
16 16 32
16 16 32
16 16 32
16 16 32
16 16 32
16 16 32
16 16 32
16 16 32
16 16 32
16 16 32
16 16 32
16 16 32
16 16 32
16 16 32
16 16 32
16 16 32
16 16 32
16 16 32
16 16 32
16 16 32
16 16 32
16 16 32
16 16 32
16 16 32
16 16 32
16 16 32
16 16 32
16 16 32
16 16 32
16 16 32
16 16 32
16 16 32
16 16 32
16 16 32
16 16 32
16 16 32
16 16 32
16 16 32
16 16 32
16 16 32
16 16 32
16 16 32
16 16 32
16 16 32
16 16 32
16 16 32
16 16 32
16 16 32
16 16 32
16 16 32
16 16 32
16 16 32
16 16 32
16 16 32
16 16 32
16 16 32
16 16 32
16 16 32
16 16 32
16 16 32
16 16 32
16 16 32
16 16 32
16 16 32
16 16 32
16 16 32
16 16 32
16 16 32
16 16 32
16 16 32
16 16 32
16 16 32
16 16 32
16 16 32
16 16 32
16 16 32
16 16 32
16 16 32
16 16 32
16 16 32
16 16 32
16 16 32
16 16 32
16 16 32
16 16 32
16 16 32
16 16 32
16 16 32
16 16 32
16 16 32
16 16 32
16 16 32
16 16 32
16 16 32
16 16 32
16 16 32
16 16 32
16 16 32
16 16 32
16 16 32
16 16 32
16 16 32
16 16 32
16 16 32
16 16 32
16 16 32
16 16 32
16 16 32
16 16 32
16 16 32
16 16 32
16 16 32
16 16 32
16 16 32
16 16 32
16 16 32
16 16 32
16 16 32
16 16 32
16 16 32
16 16 32
16 16 32
16 16 32
16 16 32
16 16 32
16 16 32
16 16 32
16 16 32
16 16 32
16 16 32
16 16 32
16 16 32
16 16 32
16 16 32
16 16 32
16 16 32
16 16 32
16 16 32
16 16 32
16 16 32
16 16 32
16 16 32
16 16 32
16 16 32
16 16 32
16 16 32
16 16 32
16 16 32
16 16 32
16 16 32
16 16 32
16 16 32
16 16 32
16 16 32
16 16 32
16 16 32
16 16 32
16 16 32
16 16 32
16 16 32
16 16 32
16 16 32
16 16 32
16 16 32
16 16 32
16 16 32
16 16 32
16 16 32
16 16 32
16 16 32
16 16 32
16 16 32
16 16 32
16 16 32
16 16 32
16 16 32
16 16 32
16 16 32
16 16 32
16 16 32
16 16 32
16 16 32
16 16 32
16 16 32
16 16 32
16 16 32
16 16 32
16 16 32
16 16 32
16 16 32
16 16 32
255 255 255
255 255 255
16 16 32
16 16 32
16 16 32
16 16 32
255 255 255
255 255 255
16 16 32
16 16 32
16 16 32
16 16 32
16 16 32
16 16 32
16 16 32
16 16 32
255 255 255
255 255 255
16 16 32
16 16 32
16 16 32
16 16 32
16 16 32
16 16 32
255 255 255
255 255 255
16 16 32
16 16 32
16 16 32
16 16 32
16 16 32
16 16 32
16 16 32
16 16 32
16 16 32
16 16 32
16 16 32
16 16 32
16 16 32
16 16 32
16 16 32
16 16 32
16 16 32
16 16 32
16 16 32
16 16 32
16 16 32
16 16 32
255 255 255
255 255 255
16 16 32
16 16 32
16 16 32
16 16 32
16 16 32
16 16 32
16 16 32
16 16 32
16 16 32
16 16 32
16 16 32
16 16 32
16 16 32
16 16 32
255 255 255
255 255 255
16 16 32
16 16 32
16 16 32
16 16 32
16 16 32
16 16 32
255 255 255
255 255 255
16 16 32
16 16 32
16 16 32
16 16 32
16 16 32
16 16 32
255 255 255
255 255 255
16 16 32
16 16 32
255 255 255
255 255 255
16 16 32
16 16 32
255 255 255
255 255 255
16 16 32
16 16 32
16 16 32
16 16 32
16 16 32
16 16 32
16 16 32
16 16 32
16 16 32
16 16 32
16 16 32
16 16 32
16 16 32
16 16 32
16 16 32
16 16 32
16 16 32
16 16 32
16 16 32
16 16 32
16 16 32
16 16 32
16 16 32
16 16 32
16 16 32
16 16 32
16 16 32
16 16 32
16 16 32
16 16 32
255 255 255
255 255 255
16 16 32
16 16 32
16 16 32
16 16 32
16 16 32
16 16 32
255 255 255
255 255 255
16 16 32
16 16 32
16 16 32
16 16 32
16 16 32
16 16 32
255 255 255
255 255 255
16 16 32
16 16 32
16 16 32
16 16 32
16 16 32
16 16 32
16 16 32
16 16 32
16 16 32
16 16 32
16 16 32
16 16 32
16 16 32
16 16 32
16 16 32
16 16 32
16 16 32
16 16 32
16 16 32
16 16 32
16 16 32
16 16 32
16 16 32
16 16 32
16 16 32
16 16 32
16 16 32
16 16 32
16 16 32
16 16 32
16 16 32
16 16 32
16 16 32
16 16 32
16 16 32
16 16 32
16 16 32
16 16 32
255 255 255
255 255 255
16 16 32
16 16 32
16 16 32
16 16 32
16 16 32
16 16 32
16 16 32
16 16 32
16 16 32
16 16 32
16 16 32
16 16 32
16 16 32
16 16 32
16 16 32
16 16 32
16 16 32
16 16 32
16 16 32
16 16 32
16 16 32
16 16 32
16 16 32
16 16 32
16 16 32
16 16 32
16 16 32
16 16 32
16 16 32
16 16 32
255 255 255
255 255 255
16 16 32
16 16 32
16 16 32
16 16 32
16 16 32
16 16 32
16 16 32
16 16 32
16 16 32
16 16 32
16 16 32
16 16 32
16 16 32
16 16 32
16 16 32
16 16 32
16 16 32
16 16 32
255 255 255
255 255 255
16 16 32
16 16 32
16 16 32
16 16 32
16 16 32
16 16 32
16 16 32
16 16 32
16 16 32
16 16 32
255 255 255
255 255 255
16 16 32
16 16 32
16 16 32
16 16 32
16 16 32
16 16 32
16 16 32
16 16 32
16 16 32
16 16 32
16 16 32
16 16 32
16 16 32
16 16 32
255 255 255
255 255 255
16 16 32
16 16 32
16 16 32
16 16 32
16 16 32
16 16 32
16 16 32
16 16 32
16 16 32
16 16 32
16 16 32
16 16 32
16 16 32
16 16 32
16 16 32
16 16 32
255 255 255
255 255 255
16 16 32
16 16 32
16 16 32
16 16 32
16 16 32
16 16 32
16 16 32
16 16 32
16 16 32
16 16 32
16 16 32
16 16 32
16 16 32
16 16 32
16 16 32
16 16 32
255 255 255
255 255 255
16 16 32
16 16 32
16 16 32
16 16 32
16 16 32
16 16 32
16 16 32
16 16 32
16 16 32
16 16 32
255 255 255
255 255 255
16 16 32
16 16 32
16 16 32
16 16 32
16 16 32
16 16 32
255 255 255
255 255 255
16 16 32
16 16 32
16 16 32
16 16 32
16 16 32
16 16 32
255 255 255
255 255 255
16 16 32
16 16 32
16 16 32
16 16 32
16 16 32
16 16 32
255 255 255
255 255 255
16 16 32
16 16 32
16 16 32
16 16 32
16 16 32
16 16 32
255 255 255
255 255 255
16 16 32
16 16 32
16 16 32
16 16 32
16 16 32
16 16 32
255 255 255
255 255 255
16 16 32
16 16 32
16 16 32
16 16 32
16 16 32
16 16 32
16 16 32
16 16 32
16 16 32
16 16 32
16 16 32
16 16 32
16 16 32
16 16 32
16 16 32
16 16 32
16 16 32
16 16 32
16 16 32
16 16 32
16 16 32
16 16 32
16 16 32
16 16 32
16 16 32
16 16 32
16 16 32
16 16 32
16 16 32
16 16 32
16 16 32
16 16 32
16 16 32
16 16 32
16 16 32
16 16 32
16 16 32
16 16 32
255 255 255
255 255 255
16 16 32
16 16 32
16 16 32
16 16 32
255 255 255
255 255 255
16 16 32
16 16 32
16 16 32
16 16 32
16 16 32
16 16 32
16 16 32
16 16 32
16 16 32
16 16 32
16 16 32
16 16 32
16 16 32
16 16 32
16 16 32
16 16 32
16 16 32
16 16 32
16 16 32
16 16 32
16 16 32
16 16 32
16 16 32
16 16 32
255 255 255
255 255 255
16 16 32
16 16 32
16 16 32
16 16 32
16 16 32
16 16 32
255 255 255
255 255 255
16 16 32
16 16 32
16 16 32
16 16 32
16 16 32
16 16 32
16 16 32
16 16 32
255 255 255
255 255 255
16 16 32
16 16 32
16 16 32
16 16 32
16 16 32
16 16 32
16 16 32
16 16 32
16 16 32
16 16 32
16 16 32
16 16 32
255 255 255
255 255 255
16 16 32
16 16 32
255 255 255
255 255 255
16 16 32
16 16 32
255 255 255
255 255 255
16 16 32
16 16 32
16 16 32
16 16 32
16 16 32
16 16 32
16 16 32
16 16 32
255 255 255
255 255 255
16 16 32
16 16 32
16 16 32
16 16 32
16 16 32
16 16 32
16 16 32
16 16 32
16 16 32
16 16 32
16 16 32
16 16 32
16 16 32
16 16 32
16 16 32
16 16 32
255 255 255
255 255 255
16 16 32
16 16 32
16 16 32
16 16 32
16 16 32
16 16 32
16 16 32
16 16 32
16 16 32
16 16 32
255 255 255
255 255 255
16 16 32
16 16 32
16 16 32
16 16 32
16 16 32
16 16 32
255 255 255
255 255 255
16 16 32
16 16 32
16 16 32
16 16 32
16 16 32
16 16 32
255 255 255
255 255 255
16 16 32
16 16 32
16 16 32
16 16 32
16 16 32
16 16 32
255 255 255
255 255 255
16 16 32
16 16 32
16 16 32
16 16 32
16 16 32
16 16 32
255 255 255
255 255 255
16 16 32
16 16 32
16 16 32
16 16 32
16 16 32
16 16 32
255 255 255
255 255 255
16 16 32
16 16 32
16 16 32
16 16 32
16 16 32
16 16 32
16 16 32
16 16 32
16 16 32
16 16 32
16 16 32
16 16 32
16 16 32
16 16 32
16 16 32
16 16 32
16 16 32
16 16 32
16 16 32
16 16 32
16 16 32
16 16 32
16 16 32
16 16 32
16 16 32
16 16 32
16 16 32
16 16 32
16 16 32
16 16 32
16 16 32
16 16 32
16 16 32
16 16 32
16 16 32
16 16 32
16 16 32
16 16 32
16 16 32
16 16 32
16 16 32
16 16 32
255 255 255
255 255 255
16 16 32
16 16 32
16 16 32
16 16 32
16 16 32
16 16 32
16 16 32
16 16 32
16 16 32
16 16 32
255 255 255
255 255 255
16 16 32
16 16 32
16 16 32
16 16 32
255 255 255
255 255 255
255 255 255
255 255 255
16 16 32
16 16 32
16 16 32
16 16 32
16 16 32
16 16 32
16 16 32
16 16 32
16 16 32
16 16 32
255 255 255
255 255 255
16 16 32
16 16 32
16 16 32
16 16 32
16 16 32
16 16 32
16 16 32
16 16 32
16 16 32
16 16 32
16 16 32
16 16 32
16 16 32
16 16 32
255 255 255
255 255 255
16 16 32
16 16 32
16 16 32
16 16 32
16 16 32
16 16 32
16 16 32
16 16 32
16 16 32
16 16 32
16 16 32
16 16 32
16 16 32
16 16 32
255 255 255
255 255 255
16 16 32
16 16 32
16 16 32
16 16 32
16 16 32
16 16 32
16 16 32
16 16 32
16 16 32
16 16 32
255 255 255
255 255 255
16 16 32
16 16 32
16 16 32
16 16 32
16 16 32
16 16 32
255 255 255
255 255 255
16 16 32
16 16 32
16 16 32
16 16 32
16 16 32
16 16 32
255 255 255
255 255 255
16 16 32
16 16 32
16 16 32
16 16 32
16 16 32
16 16 32
16 16 32
16 16 32
16 16 32
16 16 32
16 16 32
16 16 32
16 16 32
16 16 32
16 16 32
16 16 32
16 16 32
16 16 32
16 16 32
16 16 32
16 16 32
16 16 32
16 16 32
16 16 32
16 16 32
16 16 32
16 16 32
16 16 32
16 16 32
16 16 32
255 255 255
255 255 255
16 16 32
16 16 32
16 16 32
16 16 32
255 255 255
255 255 255
16 16 32
16 16 32
16 16 32
16 16 32
16 16 32
16 16 32
16 16 32
16 16 32
255 255 255
255 255 255
16 16 32
16 16 32
16 16 32
16 16 32
16 16 32
16 16 32
255 255 255
255 255 255
16 16 32
16 16 32
16 16 32
16 16 32
16 16 32
16 16 32
255 255 255
255 255 255
16 16 32
16 16 32
16 16 32
16 16 32
16 16 32
16 16 32
16 16 32
16 16 32
16 16 32
16 16 32
16 16 32
16 16 32
16 16 32
16 16 32
255 255 255
255 255 255
16 16 32
16 16 32
16 16 32
16 16 32
16 16 32
16 16 32
16 16 32
16 16 32
16 16 32
16 16 32
16 16 32
16 16 32
16 16 32
16 16 32
16 16 32
16 16 32
16 16 32
16 16 32
16 16 32
16 16 32
16 16 32
16 16 32
255 255 255
255 255 255
16 16 32
16 16 32
16 16 32
16 16 32
16 16 32
16 16 32
16 16 32
16 16 32
16 16 32
16 16 32
16 16 32
16 16 32
16 16 32
16 16 32
16 16 32
16 16 32
16 16 32
16 16 32
16 16 32
16 16 32
16 16 32
16 16 32
16 16 32
16 16 32
16 16 32
16 16 32
16 16 32
16 16 32
16 16 32
16 16 32
16 16 32
16 16 32
16 16 32
16 16 32
16 16 32
16 16 32
16 16 32
16 16 32
16 16 32
16 16 32
16 16 32
16 16 32
16 16 32
16 16 32
16 16 32
16 16 32
16 16 32
16 16 32
16 16 32
16 16 32
16 16 32
16 16 32
16 16 32
16 16 32
16 16 32
16 16 32
16 16 32
16 16 32
16 16 32
16 16 32
16 16 32
16 16 32
16 16 32
16 16 32
16 16 32
16 16 32
16 16 32
16 16 32
16 16 32
16 16 32
16 16 32
16 16 32
16 16 32
16 16 32
16 16 32
16 16 32
16 16 32
16 16 32
16 16 32
16 16 32
16 16 32
16 16 32
16 16 32
16 16 32
16 16 32
16 16 32
16 16 32
16 16 32
16 16 32
16 16 32
16 16 32
16 16 32
16 16 32
16 16 32
16 16 32
16 16 32
16 16 32
16 16 32
16 16 32
16 16 32
16 16 32
16 16 32
16 16 32
16 16 32
16 16 32
16 16 32
16 16 32
16 16 32
16 16 32
16 16 32
16 16 32
16 16 32
16 16 32
16 16 32
16 16 32
16 16 32
16 16 32
16 16 32
16 16 32
16 16 32
16 16 32
16 16 32
16 16 32
16 16 32
16 16 32
16 16 32
16 16 32
16 16 32
16 16 32
16 16 32
16 16 32
16 16 32
16 16 32
16 16 32
16 16 32
16 16 32
16 16 32
16 16 32
16 16 32
16 16 32
16 16 32
16 16 32
16 16 32
16 16 32
16 16 32
16 16 32
16 16 32
16 16 32
16 16 32
16 16 32
16 16 32
16 16 32
16 16 32
16 16 32
16 16 32
16 16 32
16 16 32
16 16 32
16 16 32
16 16 32
16 16 32
16 16 32
16 16 32
16 16 32
16 16 32
16 16 32
16 16 32
16 16 32
16 16 32
16 16 32
16 16 32
16 16 32
16 16 32
16 16 32
16 16 32
16 16 32
16 16 32
16 16 32
16 16 32
16 16 32
16 16 32
16 16 32
16 16 32
16 16 32
16 16 32
16 16 32
16 16 32
16 16 32
16 16 32
16 16 32
16 16 32
16 16 32
16 16 32
16 16 32
16 16 32
16 16 32
16 16 32
16 16 32
16 16 32
16 16 32
16 16 32
16 16 32
16 16 32
16 16 32
16 16 32
16 16 32
16 16 32
16 16 32
16 16 32
16 16 32
16 16 32
16 16 32
16 16 32
16 16 32
16 16 32
16 16 32
16 16 32
16 16 32
16 16 32
16 16 32
16 16 32
16 16 32
16 16 32
16 16 32
16 16 32
16 16 32
16 16 32
16 16 32
16 16 32
16 16 32
16 16 32
16 16 32
16 16 32
16 16 32
16 16 32
16 16 32
16 16 32
16 16 32
16 16 32
16 16 32
16 16 32
16 16 32
16 16 32
16 16 32
16 16 32
16 16 32
16 16 32
16 16 32
16 16 32
16 16 32
16 16 32
16 16 32
16 16 32
16 16 32
16 16 32
16 16 32
16 16 32
16 16 32
16 16 32
16 16 32
16 16 32
16 16 32
255 255 255
255 255 255
16 16 32
16 16 32
16 16 32
16 16 32
255 255 255
255 255 255
16 16 32
16 16 32
16 16 32
16 16 32
16 16 32
16 16 32
16 16 32
16 16 32
255 255 255
255 255 255
16 16 32
16 16 32
16 16 32
16 16 32
16 16 32
16 16 32
255 255 255
255 255 255
16 16 32
16 16 32
16 16 32
16 16 32
16 16 32
16 16 32
16 16 32
16 16 32
16 16 32
16 16 32
16 16 32
16 16 32
16 16 32
16 16 32
16 16 32
16 16 32
16 16 32
16 16 32
16 16 32
16 16 32
16 16 32
16 16 32
255 255 255
255 255 255
16 16 32
16 16 32
16 16 32
16 16 32
16 16 32
16 16 32
16 16 32
16 16 32
16 16 32
16 16 32
16 16 32
16 16 32
16 16 32
16 16 32
255 255 255
255 255 255
16 16 32
16 16 32
16 16 32
16 16 32
16 16 32
16 16 32
255 255 255
255 255 255
16 16 32
16 16 32
16 16 32
16 16 32
16 16 32
16 16 32
255 255 255
255 255 255
16 16 32
16 16 32
255 255 255
255 255 255
16 16 32
16 16 32
255 255 255
255 255 255
16 16 32
16 16 32
16 16 32
16 16 32
16 16 32
16 16 32
16 16 32
16 16 32
16 16 32
16 16 32
16 16 32
16 16 32
16 16 32
16 16 32
16 16 32
16 16 32
16 16 32
16 16 32
16 16 32
16 16 32
16 16 32
16 16 32
16 16 32
16 16 32
16 16 32
16 16 32
16 16 32
16 16 32
16 16 32
16 16 32
255 255 255
255 255 255
16 16 32
16 16 32
16 16 32
16 16 32
16 16 32
16 16 32
255 255 255
255 255 255
16 16 32
16 16 32
16 16 32
16 16 32
16 16 32
16 16 32
255 255 255
255 255 255
16 16 32
16 16 32
16 16 32
16 16 32
16 16 32
16 16 32
16 16 32
16 16 32
16 16 32
16 16 32
16 16 32
16 16 32
16 16 32
16 16 32
16 16 32
16 16 32
16 16 32
16 16 32
16 16 32
16 16 32
16 16 32
16 16 32
16 16 32
16 16 32
16 16 32
16 16 32
16 16 32
16 16 32
16 16 32
16 16 32
16 16 32
16 16 32
16 16 32
16 16 32
16 16 32
16 16 32
16 16 32
16 16 32
255 255 255
255 255 255
16 16 32
16 16 32
16 16 32
16 16 32
16 16 32
16 16 32
16 16 32
16 16 32
16 16 32
16 16 32
16 16 32
16 16 32
16 16 32
16 16 32
16 16 32
16 16 32
16 16 32
16 16 32
16 16 32
16 16 32
16 16 32
16 16 32
16 16 32
16 16 32
16 16 32
16 16 32
16 16 32
16 16 32
16 16 32
16 16 32
255 255 255
255 255 255
16 16 32
16 16 32
16 16 32
16 16 32
16 16 32
16 16 32
16 16 32
16 16 32
16 16 32
16 16 32
16 16 32
16 16 32
16 16 32
16 16 32
16 16 32
16 16 32
16 16 32
16 16 32
255 255 255
255 255 255
16 16 32
16 16 32
16 16 32
16 16 32
16 16 32
16 16 32
16 16 32
16 16 32
16 16 32
16 16 32
255 255 255
255 255 255
16 16 32
16 16 32
16 16 32
16 16 32
16 16 32
16 16 32
16 16 32
16 16 32
16 16 32
16 16 32
16 16 32
16 16 32
16 16 32
16 16 32
255 255 255
255 255 255
16 16 32
16 16 32
16 16 32
16 16 32
16 16 32
16 16 32
16 16 32
16 16 32
16 16 32
16 16 32
16 16 32
16 16 32
16 16 32
16 16 32
16 16 32
16 16 32
255 255 255
255 255 255
16 16 32
16 16 32
16 16 32
16 16 32
16 16 32
16 16 32
16 16 32
16 16 32
16 16 32
16 16 32
16 16 32
16 16 32
16 16 32
16 16 32
16 16 32
16 16 32
255 255 255
255 255 255
16 16 32
16 16 32
16 16 32
16 16 32
16 16 32
16 16 32
16 16 32
16 16 32
16 16 32
16 16 32
255 255 255
255 255 255
16 16 32
16 16 32
16 16 32
16 16 32
16 16 32
16 16 32
255 255 255
255 255 255
16 16 32
16 16 32
16 16 32
16 16 32
16 16 32
16 16 32
255 255 255
255 255 255
16 16 32
16 16 32
16 16 32
16 16 32
16 16 32
16 16 32
255 255 255
255 255 255
16 16 32
16 16 32
16 16 32
16 16 32
16 16 32
16 16 32
255 255 255
255 255 255
16 16 32
16 16 32
16 16 32
16 16 32
16 16 32
16 16 32
255 255 255
255 255 255
16 16 32
16 16 32
16 16 32
16 16 32
16 16 32
16 16 32
16 16 32
16 16 32
16 16 32
16 16 32
16 16 32
16 16 32
16 16 32
16 16 32
16 16 32
16 16 32
16 16 32
16 16 32
16 16 32
16 16 32
16 16 32
16 16 32
16 16 32
16 16 32
16 16 32
16 16 32
16 16 32
16 16 32
16 16 32
16 16 32
16 16 32
16 16 32
16 16 32
16 16 32
16 16 32
16 16 32
16 16 32
16 16 32
255 255 255
255 255 255
16 16 32
16 16 32
16 16 32
16 16 32
255 255 255
255 255 255
16 16 32
16 16 32
16 16 32
16 16 32
16 16 32
16 16 32
16 16 32
16 16 32
16 16 32
16 16 32
16 16 32
16 16 32
16 16 32
16 16 32
16 16 32
16 16 32
16 16 32
16 16 32
16 16 32
16 16 32
16 16 32
16 16 32
16 16 32
16 16 32
255 255 255
255 255 255
16 16 32
16 16 32
16 16 32
16 16 32
16 16 32
16 16 32
255 255 255
255 255 255
16 16 32
16 16 32
16 16 32
16 16 32
16 16 32
16 16 32
16 16 32
16 16 32
255 255 255
255 255 255
16 16 32
16 16 32
16 16 32
16 16 32
16 16 32
16 16 32
16 16 32
16 16 32
16 16 32
16 16 32
16 16 32
16 16 32
255 255 255
255 255 255
16 16 32
16 16 32
255 255 255
255 255 255
16 16 32
16 16 32
255 255 255
255 255 255
16 16 32
16 16 32
16 16 32
16 16 32
16 16 32
16 16 32
16 16 32
16 16 32
255 255 255
255 255 255
16 16 32
16 16 32
16 16 32
16 16 32
16 16 32
16 16 32
16 16 32
16 16 32
16 16 32
16 16 32
16 16 32
16 16 32
16 16 32
16 16 32
16 16 32
16 16 32
255 255 255
255 255 255
16 16 32
16 16 32
16 16 32
16 16 32
16 16 32
16 16 32
16 16 32
16 16 32
16 16 32
16 16 32
255 255 255
255 255 255
16 16 32
16 16 32
16 16 32
16 16 32
16 16 32
16 16 32
255 255 255
255 255 255
16 16 32
16 16 32
16 16 32
16 16 32
16 16 32
16 16 32
255 255 255
255 255 255
16 16 32
16 16 32
16 16 32
16 16 32
16 16 32
16 16 32
255 255 255
255 255 255
16 16 32
16 16 32
16 16 32
16 16 32
16 16 32
16 16 32
255 255 255
255 255 255
16 16 32
16 16 32
16 16 32
16 16 32
16 16 32
16 16 32
255 255 255
255 255 255
16 16 32
16 16 32
16 16 32
16 16 32
16 16 32
16 16 32
16 16 32
16 16 32
16 16 32
16 16 32
16 16 32
16 16 32
16 16 32
16 16 32
16 16 32
16 16 32
16 16 32
16 16 32
16 16 32
16 16 32
16 16 32
16 16 32
16 16 32
16 16 32
16 16 32
16 16 32
16 16 32
16 16 32
16 16 32
16 16 32
16 16 32
16 16 32
16 16 32
16 16 32
16 16 32
16 16 32
16 16 32
16 16 32
16 16 32
16 16 32
16 16 32
16 16 32
255 255 255
255 255 255
16 16 32
16 16 32
16 16 32
16 16 32
16 16 32
16 16 32
16 16 32
16 16 32
16 16 32
16 16 32
255 255 255
255 255 255
16 16 32
16 16 32
16 16 32
16 16 32
255 255 255
255 255 255
255 255 255
255 255 255
16 16 32
16 16 32
16 16 32
16 16 32
16 16 32
16 16 32
16 16 32
16 16 32
16 16 32
16 16 32
255 255 255
255 255 255
16 16 32
16 16 32
16 16 32
16 16 32
16 16 32
16 16 32
16 16 32
16 16 32
16 16 32
16 16 32
16 16 32
16 16 32
16 16 32
16 16 32
255 255 255
255 255 255
16 16 32
16 16 32
16 16 32
16 16 32
16 16 32
16 16 32
16 16 32
16 16 32
16 16 32
16 16 32
16 16 32
16 16 32
16 16 32
16 16 32
255 255 255
255 255 255
16 16 32
16 16 32
16 16 32
16 16 32
16 16 32
16 16 32
16 16 32
16 16 32
16 16 32
16 16 32
255 255 255
255 255 255
16 16 32
16 16 32
16 16 32
16 16 32
16 16 32
16 16 32
255 255 255
255 255 255
16 16 32
16 16 32
16 16 32
16 16 32
16 16 32
16 16 32
255 255 255
255 255 255
16 16 32
16 16 32
16 16 32
16 16 32
16 16 32
16 16 32
16 16 32
16 16 32
16 16 32
16 16 32
16 16 32
16 16 32
16 16 32
16 16 32
16 16 32
16 16 32
16 16 32
16 16 32
16 16 32
16 16 32
16 16 32
16 16 32
16 16 32
16 16 32
16 16 32
16 16 32
16 16 32
16 16 32
16 16 32
16 16 32
255 255 255
255 255 255
16 16 32
16 16 32
16 16 32
16 16 32
255 255 255
255 255 255
16 16 32
16 16 32
16 16 32
16 16 32
16 16 32
16 16 32
16 16 32
16 16 32
255 255 255
255 255 255
16 16 32
16 16 32
16 16 32
16 16 32
16 16 32
16 16 32
255 255 255
255 255 255
16 16 32
16 16 32
16 16 32
16 16 32
16 16 32
16 16 32
255 255 255
255 255 255
16 16 32
16 16 32
16 16 32
16 16 32
16 16 32
16 16 32
16 16 32
16 16 32
16 16 32
16 16 32
16 16 32
16 16 32
16 16 32
16 16 32
255 255 255
255 255 255
16 16 32
16 16 32
16 16 32
16 16 32
16 16 32
16 16 32
16 16 32
16 16 32
16 16 32
16 16 32
16 16 32
16 16 32
16 16 32
16 16 32
16 16 32
16 16 32
16 16 32
16 16 32
16 16 32
16 16 32
16 16 32
16 16 32
255 255 255
255 255 255
16 16 32
16 16 32
16 16 32
16 16 32
16 16 32
16 16 32
16 16 32
16 16 32
16 16 32
16 16 32
16 16 32
16 16 32
16 16 32
16 16 32
16 16 32
16 16 32
16 16 32
16 16 32
16 16 32
16 16 32
16 16 32
16 16 32
16 16 32
16 16 32
16 16 32
16 16 32
16 16 32
16 16 32
16 16 32
16 16 32
16 16 32
16 16 32
16 16 32
16 16 32
16 16 32
16 16 32
16 16 32
16 16 32
16 16 32
16 16 32
16 16 32
16 16 32
16 16 32
16 16 32
16 16 32
16 16 32
16 16 32
16 16 32
16 16 32
16 16 32
16 16 32
16 16 32
16 16 32
16 16 32
16 16 32
16 16 32
16 16 32
16 16 32
16 16 32
16 16 32
16 16 32
16 16 32
16 16 32
16 16 32
16 16 32
16 16 32
16 16 32
16 16 32
16 16 32
16 16 32
16 16 32
16 16 32
16 16 32
16 16 32
16 16 32
16 16 32
16 16 32
16 16 32
16 16 32
16 16 32
16 16 32
16 16 32
16 16 32
16 16 32
16 16 32
16 16 32
16 16 32
16 16 32
16 16 32
16 16 32
16 16 32
16 16 32
16 16 32
16 16 32
16 16 32
16 16 32
16 16 32
16 16 32
16 16 32
16 16 32
16 16 32
16 16 32
16 16 32
16 16 32
16 16 32
16 16 32
16 16 32
16 16 32
16 16 32
16 16 32
16 16 32
16 16 32
16 16 32
16 16 32
16 16 32
16 16 32
16 16 32
16 16 32
16 16 32
16 16 32
16 16 32
16 16 32
16 16 32
16 16 32
16 16 32
16 16 32
16 16 32
16 16 32
16 16 32
16 16 32
16 16 32
16 16 32
16 16 32
16 16 32
16 16 32
16 16 32
16 16 32
16 16 32
16 16 32
16 16 32
16 16 32
16 16 32
16 16 32
16 16 32
16 16 32
16 16 32
16 16 32
16 16 32
16 16 32
16 16 32
16 16 32
16 16 32
16 16 32
16 16 32
16 16 32
16 16 32
16 16 32
16 16 32
16 16 32
16 16 32
16 16 32
16 16 32
16 16 32
16 16 32
16 16 32
16 16 32
16 16 32
16 16 32
16 16 32
16 16 32
16 16 32
16 16 32
16 16 32
16 16 32
16 16 32
16 16 32
16 16 32
16 16 32
16 16 32
16 16 32
16 16 32
16 16 32
16 16 32
16 16 32
16 16 32
16 16 32
16 16 32
16 16 32
16 16 32
16 16 32
16 16 32
16 16 32
16 16 32
16 16 32
16 16 32
16 16 32
16 16 32
16 16 32
16 16 32
16 16 32
16 16 32
16 16 32
16 16 32
16 16 32
16 16 32
16 16 32
16 16 32
16 16 32
16 16 32
16 16 32
16 16 32
16 16 32
16 16 32
16 16 32
16 16 32
16 16 32
16 16 32
16 16 32
16 16 32
16 16 32
16 16 32
16 16 32
16 16 32
16 16 32
16 16 32
16 16 32
16 16 32
16 16 32
16 16 32
16 16 32
16 16 32
16 16 32
16 16 32
16 16 32
16 16 32
16 16 32
16 16 32
16 16 32
16 16 32
16 16 32
16 16 32
16 16 32
16 16 32
16 16 32
16 16 32
16 16 32
16 16 32
16 16 32
16 16 32
16 16 32
16 16 32
16 16 32
16 16 32
16 16 32
16 16 32
16 16 32
16 16 32
16 16 32
16 16 32
16 16 32
16 16 32
16 16 32
255 255 255
255 255 255
16 16 32
16 16 32
16 16 32
16 16 32
16 16 32
16 16 32
255 255 255
255 255 255
16 16 32
16 16 32
16 16 32
16 16 32
16 16 32
16 16 32
16 16 32
16 16 32
255 255 255
255 255 255
255 255 255
255 255 255
255 255 255
255 255 255
16 16 32
16 16 32
16 16 32
16 16 32
16 16 32
16 16 32
16 16 32
16 16 32
16 16 32
16 16 32
16 16 32
16 16 32
16 16 32
16 16 32
16 16 32
16 16 32
16 16 32
16 16 32
16 16 32
16 16 32
16 16 32
16 16 32
16 16 32
16 16 32
255 255 255
255 255 255
255 255 255
255 255 255
255 255 255
255 255 255
255 255 255
255 255 255
255 255 255
255 255 255
16 16 32
16 16 32
16 16 32
16 16 32
16 16 32
16 16 32
16 16 32
16 16 32
255 255 255
255 255 255
255 255 255
255 255 255
255 255 255
255 255 255
16 16 32
16 16 32
16 16 32
16 16 32
16 16 32
16 16 32
16 16 32
16 16 32
16 16 32
16 16 32
255 255 255
255 255 255
16 16 32
16 16 32
255 255 255
255 255 255
16 16 32
16 16 32
16 16 32
16 16 32
16 16 32
16 16 32
16 16 32
16 16 32
16 16 32
16 16 32
16 16 32
16 16 32
16 16 32
16 16 32
16 16 32
16 16 32
16 16 32
16 16 32
16 16 32
16 16 32
16 16 32
16 16 32
16 16 32
16 16 32
16 16 32
16 16 32
255 255 255
255 255 255
255 255 255
255 255 255
255 255 255
255 255 255
16 16 32
16 16 32
16 16 32
16 16 32
16 16 32
16 16 32
16 16 32
16 16 32
16 16 32
16 16 32
255 255 255
255 255 255
255 255 255
255 255 255
255 255 255
255 255 255
16 16 32
16 16 32
16 16 32
16 16 32
16 16 32
16 16 32
16 16 32
16 16 32
16 16 32
16 16 32
16 16 32
16 16 32
16 16 32
16 16 32
16 16 32
16 16 32
16 16 32
16 16 32
16 16 32
16 16 32
16 16 32
16 16 32
16 16 32
16 16 32
16 16 32
16 16 32
16 16 32
16 16 32
16 16 32
16 16 32
16 16 32
16 16 32
16 16 32
16 16 32
16 16 32
16 16 32
16 16 32
16 16 32
16 16 32
16 16 32
255 255 255
255 255 255
16 16 32
16 16 32
16 16 32
16 16 32
16 16 32
16 16 32
16 16 32
16 16 32
16 16 32
16 16 32
16 16 32
16 16 32
16 16 32
16 16 32
16 16 32
16 16 32
16 16 32
16 16 32
16 16 32
16 16 32
16 16 32
16 16 32
16 16 32
16 16 32
16 16 32
16 16 32
16 16 32
16 16 32
16 16 32
16 16 32
255 255 255
255 255 255
16 16 32
16 16 32
16 16 32
16 16 32
16 16 32
16 16 32
16 16 32
16 16 32
16 16 32
16 16 32
16 16 32
16 16 32
16 16 32
16 16 32
255 255 255
255 255 255
255 255 255
255 255 255
255 255 255
255 255 255
255 255 255
255 255 255
255 255 255
255 255 255
16 16 32
16 16 32
16 16 32
16 16 32
16 16 32
16 16 32
255 255 255
255 255 255
255 255 255
255 255 255
255 255 255
255 255 255
255 255 255
255 255 255
255 255 255
255 255 255
16 16 32
16 16 32
16 16 32
16 16 32
16 16 32
16 16 32
255 255 255
255 255 255
255 255 255
255 255 255
255 255 255
255 255 255
255 255 255
255 255 255
255 255 255
255 255 255
16 16 32
16 16 32
16 16 32
16 16 32
16 16 32
16 16 32
255 255 255
255 255 255
16 16 32
16 16 32
16 16 32
16 16 32
16 16 32
16 16 32
16 16 32
16 16 32
16 16 32
16 16 32
16 16 32
16 16 32
16 16 32
16 16 32
16 16 32
16 16 32
255 255 255
255 255 255
255 255 255
255 255 255
255 255 255
255 255 255
16 16 32
16 16 32
16 16 32
16 16 32
16 16 32
16 16 32
16 16 32
16 16 32
16 16 32
16 16 32
255 255 255
255 255 255
255 255 255
255 255 255
255 255 255
255 255 255
16 16 32
16 16 32
16 16 32
16 16 32
16 16 32
16 16 32
16 16 32
16 16 32
16 16 32
16 16 32
255 255 255
255 255 255
255 255 255
255 255 255
255 255 255
255 255 255
16 16 32
16 16 32
16 16 32
16 16 32
16 16 32
16 16 32
16 16 32
16 16 32
16 16 32
16 16 32
255 255 255
255 255 255
255 255 255
255 255 255
255 255 255
255 255 255
16 16 32
16 16 32
16 16 32
16 16 32
16 16 32
16 16 32
16 16 32
16 16 32
16 16 32
16 16 32
16 16 32
16 16 32
16 16 32
16 16 32
16 16 32
16 16 32
16 16 32
16 16 32
16 16 32
16 16 32
16 16 32
16 16 32
16 16 32
16 16 32
16 16 32
16 16 32
16 16 32
16 16 32
16 16 32
16 16 32
16 16 32
16 16 32
16 16 32
16 16 32
16 16 32
16 16 32
16 16 32
16 16 32
16 16 32
16 16 32
255 255 255
255 255 255
16 16 32
16 16 32
16 16 32
16 16 32
16 16 32
16 16 32
255 255 255
255 255 255
16 16 32
16 16 32
16 16 32
16 16 32
16 16 32
16 16 32
16 16 32
16 16 32
16 16 32
16 16 32
16 16 32
16 16 32
16 16 32
16 16 32
16 16 32
16 16 32
16 16 32
16 16 32
16 16 32
16 16 32
16 16 32
16 16 32
255 255 255
255 255 255
16 16 32
16 16 32
16 16 32
16 16 32
16 16 32
16 16 32
255 255 255
255 255 255
16 16 32
16 16 32
16 16 32
16 16 32
16 16 32
16 16 32
255 255 255
255 255 255
16 16 32
16 16 32
16 16 32
16 16 32
16 16 32
16 16 32
16 16 32
16 16 32
16 16 32
16 16 32
16 16 32
16 16 32
16 16 32
16 16 32
16 16 32
16 16 32
255 255 255
255 255 255
16 16 32
16 16 32
255 255 255
255 255 255
16 16 32
16 16 32
16 16 32
16 16 32
16 16 32
16 16 32
16 16 32
16 16 32
255 255 255
255 255 255
16 16 32
16 16 32
16 16 32
16 16 32
16 16 32
16 16 32
16 16 32
16 16 32
16 16 32
16 16 32
16 16 32
16 16 32
16 16 32
16 16 32
16 16 32
16 16 32
255 255 255
255 255 255
255 255 255
255 255 255
255 255 255
255 255 255
16 16 32
16 16 32
16 16 32
16 16 32
16 16 32
16 16 32
16 16 32
16 16 32
16 16 32
16 16 32
255 255 255
255 255 255
255 255 255
255 255 255
255 255 255
255 255 255
16 16 32
16 16 32
16 16 32
16 16 32
16 16 32
16 16 32
16 16 32
16 16 32
16 16 32
16 16 32
255 255 255
255 255 255
255 255 255
255 255 255
255 255 255
255 255 255
16 16 32
16 16 32
16 16 32
16 16 32
16 16 32
16 16 32
16 16 32
16 16 32
16 16 32
16 16 32
255 255 255
255 255 255
255 255 255
255 255 255
255 255 255
255 255 255
16 16 32
16 16 32
16 16 32
16 16 32
16 16 32
16 16 32
16 16 32
16 16 32
16 16 32
16 16 32
16 16 32
16 16 32
16 16 32
16 16 32
16 16 32
16 16 32
16 16 32
16 16 32
16 16 32
16 16 32
16 16 32
16 16 32
16 16 32
16 16 32
16 16 32
16 16 32
16 16 32
16 16 32
16 16 32
16 16 32
16 16 32
16 16 32
16 16 32
16 16 32
16 16 32
16 16 32
16 16 32
16 16 32
16 16 32
16 16 32
255 255 255
255 255 255
255 255 255
255 255 255
255 255 255
255 255 255
255 255 255
255 255 255
255 255 255
255 255 255
16 16 32
16 16 32
16 16 32
16 16 32
16 16 32
16 16 32
255 255 255
255 255 255
16 16 32
16 16 32
16 16 32
16 16 32
16 16 32
16 16 32
255 255 255
255 255 255
16 16 32
16 16 32
16 16 32
16 16 32
16 16 32
16 16 32
255 255 255
255 255 255
255 255 255
255 255 255
255 255 255
255 255 255
255 255 255
255 255 255
255 255 255
255 255 255
16 16 32
16 16 32
16 16 32
16 16 32
16 16 32
16 16 32
16 16 32
16 16 32
16 16 32
16 16 32
255 255 255
255 255 255
16 16 32
16 16 32
16 16 32
16 16 32
16 16 32
16 16 32
16 16 32
16 16 32
16 16 32
16 16 32
255 255 255
255 255 255
255 255 255
255 255 255
255 255 255
255 255 255
255 255 255
255 255 255
255 255 255
255 255 255
16 16 32
16 16 32
16 16 32
16 16 32
16 16 32
16 16 32
255 255 255
255 255 255
16 16 32
16 16 32
16 16 32
16 16 32
16 16 32
16 16 32
255 255 255
255 255 255
16 16 32
16 16 32
16 16 32
16 16 32
16 16 32
16 16 32
255 255 255
255 255 255
255 255 255
255 255 255
255 255 255
255 255 255
255 255 255
255 255 255
255 255 255
255 255 255
16 16 32
16 16 32
16 16 32
16 16 32
16 16 32
16 16 32
16 16 32
16 16 32
16 16 32
16 16 32
16 16 32
16 16 32
16 16 32
16 16 32
16 16 32
16 16 32
16 16 32
16 16 32
16 16 32
16 16 32
16 16 32
16 16 32
255 255 255
255 255 255
16 16 32
16 16 32
16 16 32
16 16 32
16 16 32
16 16 32
255 255 255
255 255 255
16 16 32
16 16 32
16 16 32
16 16 32
16 16 32
16 16 32
16 16 32
16 16 32
255 255 255
255 255 255
255 255 255
255 255 255
255 255 255
255 255 255
16 16 32
16 16 32
16 16 32
16 16 32
16 16 32
16 16 32
16 16 32
16 16 32
255 255 255
255 255 255
255 255 255
255 255 255
255 255 255
255 255 255
255 255 255
255 255 255
255 255 255
255 255 255
16 16 32
16 16 32
16 16 32
16 16 32
16 16 32
16 16 32
255 255 255
255 255 255
255 255 255
255 255 255
255 255 255
255 255 255
255 255 255
255 255 255
255 255 255
255 255 255
16 16 32
16 16 32
16 16 32
16 16 32
16 16 32
16 16 32
255 255 255
255 255 255
255 255 255
255 255 255
255 255 255
255 255 255
255 255 255
255 255 255
16 16 32
16 16 32
16 16 32
16 16 32
16 16 32
16 16 32
16 16 32
16 16 32
16 16 32
16 16 32
16 16 32
16 16 32
16 16 32
16 16 32
16 16 32
16 16 32
16 16 32
16 16 32
16 16 32
16 16 32
16 16 32
16 16 32
16 16 32
16 16 32
16 16 32
16 16 32
16 16 32
16 16 32
16 16 32
16 16 32
16 16 32
16 16 32
16 16 32
16 16 32
16 16 32
16 16 32
16 16 32
16 16 32
16 16 32
16 16 32
16 16 32
16 16 32
16 16 32
16 16 32
16 16 32
16 16 32
16 16 32
16 16 32
16 16 32
16 16 32
16 16 32
16 16 32
16 16 32
16 16 32
16 16 32
16 16 32
16 16 32
16 16 32
16 16 32
16 16 32
16 16 32
16 16 32
16 16 32
16 16 32
16 16 32
16 16 32
16 16 32
16 16 32
16 16 32
16 16 32
16 16 32
16 16 32
16 16 32
16 16 32
16 16 32
16 16 32
16 16 32
16 16 32
16 16 32
16 16 32
16 16 32
16 16 32
16 16 32
16 16 32
16 16 32
16 16 32
16 16 32
16 16 32
16 16 32
16 16 32
16 16 32
16 16 32
16 16 32
16 16 32
16 16 32
16 16 32
16 16 32
16 16 32
16 16 32
16 16 32
16 16 32
16 16 32
16 16 32
16 16 32
16 16 32
16 16 32
16 16 32
16 16 32
16 16 32
16 16 32
16 16 32
16 16 32
16 16 32
16 16 32
16 16 32
16 16 32
16 16 32
16 16 32
16 16 32
16 16 32
16 16 32
16 16 32
16 16 32
16 16 32
16 16 32
16 16 32
16 16 32
16 16 32
16 16 32
16 16 32
16 16 32
16 16 32
16 16 32
16 16 32
16 16 32
16 16 32
16 16 32
16 16 32
16 16 32
16 16 32
16 16 32
16 16 32
16 16 32
16 16 32
16 16 32
16 16 32
16 16 32
16 16 32
16 16 32
16 16 32
16 16 32
16 16 32
16 16 32
16 16 32
16 16 32
16 16 32
16 16 32
16 16 32
16 16 32
16 16 32
16 16 32
16 16 32
16 16 32
16 16 32
16 16 32
16 16 32
16 16 32
16 16 32
16 16 32
16 16 32
16 16 32
16 16 32
16 16 32
16 16 32
16 16 32
16 16 32
16 16 32
16 16 32
16 16 32
16 16 32
16 16 32
16 16 32
16 16 32
16 16 32
16 16 32
16 16 32
16 16 32
16 16 32
16 16 32
16 16 32
16 16 32
16 16 32
16 16 32
16 16 32
16 16 32
16 16 32
16 16 32
16 16 32
16 16 32
16 16 32
16 16 32
16 16 32
16 16 32
16 16 32
16 16 32
16 16 32
16 16 32
16 16 32
16 16 32
16 16 32
16 16 32
16 16 32
16 16 32
16 16 32
16 16 32
16 16 32
16 16 32
16 16 32
16 16 32
16 16 32
16 16 32
16 16 32
16 16 32
16 16 32
16 16 32
16 16 32
16 16 32
16 16 32
16 16 32
16 16 32
16 16 32
16 16 32
16 16 32
16 16 32
16 16 32
16 16 32
16 16 32
16 16 32
16 16 32
16 16 32
16 16 32
16 16 32
16 16 32
16 16 32
16 16 32
16 16 32
16 16 32
16 16 32
16 16 32
16 16 32
16 16 32
16 16 32
16 16 32
16 16 32
16 16 32
16 16 32
16 16 32
16 16 32
16 16 32
16 16 32
16 16 32
16 16 32
16 16 32
16 16 32
255 255 255
255 255 255
16 16 32
16 16 32
16 16 32
16 16 32
16 16 32
16 16 32
255 255 255
255 255 255
16 16 32
16 16 32
16 16 32
16 16 32
16 16 32
16 16 32
16 16 32
16 16 32
255 255 255
255 255 255
255 255 255
255 255 255
255 255 255
255 255 255
16 16 32
16 16 32
16 16 32
16 16 32
16 16 32
16 16 32
16 16 32
16 16 32
16 16 32
16 16 32
16 16 32
16 16 32
16 16 32
16 16 32
16 16 32
16 16 32
16 16 32
16 16 32
16 16 32
16 16 32
16 16 32
16 16 32
16 16 32
16 16 32
255 255 255
255 255 255
255 255 255
255 255 255
255 255 255
255 255 255
255 255 255
255 255 255
255 255 255
255 255 255
16 16 32
16 16 32
16 16 32
16 16 32
16 16 32
16 16 32
16 16 32
16 16 32
255 255 255
255 255 255
255 255 255
255 255 255
255 255 255
255 255 255
16 16 32
16 16 32
16 16 32
16 16 32
16 16 32
16 16 32
16 16 32
16 16 32
16 16 32
16 16 32
255 255 255
255 255 255
16 16 32
16 16 32
255 255 255
255 255 255
16 16 32
16 16 32
16 16 32
16 16 32
16 16 32
16 16 32
16 16 32
16 16 32
16 16 32
16 16 32
16 16 32
16 16 32
16 16 32
16 16 32
16 16 32
16 16 32
16 16 32
16 16 32
16 16 32
16 16 32
16 16 32
16 16 32
16 16 32
16 16 32
16 16 32
16 16 32
255 255 255
255 255 255
255 255 255
255 255 255
255 255 255
255 255 255
16 16 32
16 16 32
16 16 32
16 16 32
16 16 32
16 16 32
16 16 32
16 16 32
16 16 32
16 16 32
255 255 255
255 255 255
255 255 255
255 255 255
255 255 255
255 255 255
16 16 32
16 16 32
16 16 32
16 16 32
16 16 32
16 16 32
16 16 32
16 16 32
16 16 32
16 16 32
16 16 32
16 16 32
16 16 32
16 16 32
16 16 32
16 16 32
16 16 32
16 16 32
16 16 32
16 16 32
16 16 32
16 16 32
16 16 32
16 16 32
16 16 32
16 16 32
16 16 32
16 16 32
16 16 32
16 16 32
16 16 32
16 16 32
16 16 32
16 16 32
16 16 32
16 16 32
16 16 32
16 16 32
16 16 32
16 16 32
255 255 255
255 255 255
16 16 32
16 16 32
16 16 32
16 16 32
16 16 32
16 16 32
16 16 32
16 16 32
16 16 32
16 16 32
16 16 32
16 16 32
16 16 32
16 16 32
16 16 32
16 16 32
16 16 32
16 16 32
16 16 32
16 16 32
16 16 32
16 16 32
16 16 32
16 16 32
16 16 32
16 16 32
16 16 32
16 16 32
16 16 32
16 16 32
255 255 255
255 255 255
16 16 32
16 16 32
16 16 32
16 16 32
16 16 32
16 16 32
16 16 32
16 16 32
16 16 32
16 16 32
16 16 32
16 16 32
16 16 32
16 16 32
255 255 255
255 255 255
255 255 255
255 255 255
255 255 255
255 255 255
255 255 255
255 255 255
255 255 255
255 255 255
16 16 32
16 16 32
16 16 32
16 16 32
16 16 32
16 16 32
255 255 255
255 255 255
255 255 255
255 255 255
255 255 255
255 255 255
255 255 255
255 255 255
255 255 255
255 255 255
16 16 32
16 16 32
16 16 32
16 16 32
16 16 32
16 16 32
255 255 255
255 255 255
255 255 255
255 255 255
255 255 255
255 255 255
255 255 255
255 255 255
255 255 255
255 255 255
16 16 32
16 16 32
16 16 32
16 16 32
16 16 32
16 16 32
255 255 255
255 255 255
16 16 32
16 16 32
16 16 32
16 16 32
16 16 32
16 16 32
16 16 32
16 16 32
16 16 32
16 16 32
16 16 32
16 16 32
16 16 32
16 16 32
16 16 32
16 16 32
255 255 255
255 255 255
255 255 255
255 255 255
255 255 255
255 255 255
16 16 32
16 16 32
16 16 32
16 16 32
16 16 32
16 16 32
16 16 32
16 16 32
16 16 32
16 16 32
255 255 255
255 255 255
255 255 255
255 255 255
255 255 255
255 255 255
16 16 32
16 16 32
16 16 32
16 16 32
16 16 32
16 16 32
16 16 32
16 16 32
16 16 32
16 16 32
255 255 255
255 255 255
255 255 255
255 255 255
255 255 255
255 255 255
16 16 32
16 16 32
16 16 32
16 16 32
16 16 32
16 16 32
16 16 32
16 16 32
16 16 32
16 16 32
255 255 255
255 255 255
255 255 255
255 255 255
255 255 255
255 255 255
16 16 32
16 16 32
16 16 32
16 16 32
16 16 32
16 16 32
16 16 32
16 16 32
16 16 32
16 16 32
16 16 32
16 16 32
16 16 32
16 16 32
16 16 32
16 16 32
16 16 32
16 16 32
16 16 32
16 16 32
16 16 32
16 16 32
16 16 32
16 16 32
16 16 32
16 16 32
16 16 32
16 16 32
16 16 32
16 16 32
16 16 32
16 16 32
16 16 32
16 16 32
16 16 32
16 16 32
16 16 32
16 16 32
16 16 32
16 16 32
255 255 255
255 255 255
16 16 32
16 16 32
16 16 32
16 16 32
16 16 32
16 16 32
255 255 255
255 255 255
16 16 32
16 16 32
16 16 32
16 16 32
16 16 32
16 16 32
16 16 32
16 16 32
16 16 32
16 16 32
16 16 32
16 16 32
16 16 32
16 16 32
16 16 32
16 16 32
16 16 32
16 16 32
16 16 32
16 16 32
16 16 32
16 16 32
255 255 255
255 255 255
16 16 32
16 16 32
16 16 32
16 16 32
16 16 32
16 16 32
255 255 255
255 255 255
16 16 32
16 16 32
16 16 32
16 16 32
16 16 32
16 16 32
255 255 255
255 255 255
16 16 32
16 16 32
16 16 32
16 16 32
16 16 32
16 16 32
16 16 32
16 16 32
16 16 32
16 16 32
16 16 32
16 16 32
16 16 32
16 16 32
16 16 32
16 16 32
255 255 255
255 255 255
16 16 32
16 16 32
255 255 255
255 255 255
16 16 32
16 16 32
16 16 32
16 16 32
16 16 32
16 16 32
16 16 32
16 16 32
255 255 255
255 255 255
16 16 32
16 16 32
16 16 32
16 16 32
16 16 32
16 16 32
16 16 32
16 16 32
16 16 32
16 16 32
16 16 32
16 16 32
16 16 32
16 16 32
16 16 32
16 16 32
255 255 255
255 255 255
255 255 255
255 255 255
255 255 255
255 255 255
16 16 32
16 16 32
16 16 32
16 16 32
16 16 32
16 16 32
16 16 32
16 16 32
16 16 32
16 16 32
255 255 255
255 255 255
255 255 255
255 255 255
255 255 255
255 255 255
16 16 32
16 16 32
16 16 32
16 16 32
16 16 32
16 16 32
16 16 32
16 16 32
16 16 32
16 16 32
255 255 255
255 255 255
255 255 255
255 255 255
255 255 255
255 255 255
16 16 32
16 16 32
16 16 32
16 16 32
16 16 32
16 16 32
16 16 32
16 16 32
16 16 32
16 16 32
255 255 255
255 255 255
255 255 255
255 255 255
255 255 255
255 255 255
16 16 32
16 16 32
16 16 32
16 16 32
16 16 32
16 16 32
16 16 32
16 16 32
16 16 32
16 16 32
16 16 32
16 16 32
16 16 32
16 16 32
16 16 32
16 16 32
16 16 32
16 16 32
16 16 32
16 16 32
16 16 32
16 16 32
16 16 32
16 16 32
16 16 32
16 16 32
16 16 32
16 16 32
16 16 32
16 16 32
16 16 32
16 16 32
16 16 32
16 16 32
16 16 32
16 16 32
16 16 32
16 16 32
16 16 32
16 16 32
255 255 255
255 255 255
255 255 255
255 255 255
255 255 255
255 255 255
255 255 255
255 255 255
255 255 255
255 255 255
16 16 32
16 16 32
16 16 32
16 16 32
16 16 32
16 16 32
255 255 255
255 255 255
16 16 32
16 16 32
16 16 32
16 16 32
16 16 32
16 16 32
255 255 255
255 255 255
16 16 32
16 16 32
16 16 32
16 16 32
16 16 32
16 16 32
255 255 255
255 255 255
255 255 255
255 255 255
255 255 255
255 255 255
255 255 255
255 255 255
255 255 255
255 255 255
16 16 32
16 16 32
16 16 32
16 16 32
16 16 32
16 16 32
16 16 32
16 16 32
16 16 32
16 16 32
255 255 255
255 255 255
16 16 32
16 16 32
16 16 32
16 16 32
16 16 32
16 16 32
16 16 32
16 16 32
16 16 32
16 16 32
255 255 255
255 255 255
255 255 255
255 255 255
255 255 255
255 255 255
255 255 255
255 255 255
255 255 255
255 255 255
16 16 32
16 16 32
16 16 32
16 16 32
16 16 32
16 16 32
255 255 255
255 255 255
16 16 32
16 16 32
16 16 32
16 16 32
16 16 32
16 16 32
255 255 255
255 255 255
16 16 32
16 16 32
16 16 32
16 16 32
16 16 32
16 16 32
255 255 255
255 255 255
255 255 255
255 255 255
255 255 255
255 255 255
255 255 255
255 255 255
255 255 255
255 255 255
16 16 32
16 16 32
16 16 32
16 16 32
16 16 32
16 16 32
16 16 32
16 16 32
16 16 32
16 16 32
16 16 32
16 16 32
16 16 32
16 16 32
16 16 32
16 16 32
16 16 32
16 16 32
16 16 32
16 16 32
16 16 32
16 16 32
255 255 255
255 255 255
16 16 32
16 16 32
16 16 32
16 16 32
16 16 32
16 16 32
255 255 255
255 255 255
16 16 32
16 16 32
16 16 32
16 16 32
16 16 32
16 16 32
16 16 32
16 16 32
255 255 255
255 255 255
255 255 255
255 255 255
255 255 255
255 255 255
16 16 32
16 16 32
16 16 32
16 16 32
16 16 32
16 16 32
16 16 32
16 16 32
255 255 255
255 255 255
255 255 255
255 255 255
255 255 255
255 255 255
255 255 255
255 255 255
255 255 255
255 255 255
16 16 32
16 16 32
16 16 32
16 16 32
16 16 32
16 16 32
255 255 255
255 255 255
255 255 255
255 255 255
255 255 255
255 255 255
255 255 255
255 255 255
255 255 255
255 255 255
16 16 32
16 16 32
16 16 32
16 16 32
16 16 32
16 16 32
255 255 255
255 255 255
255 255 255
255 255 255
255 255 255
255 255 255
255 255 255
255 255 255
16 16 32
16 16 32
16 16 32
16 16 32
16 16 32
16 16 32
16 16 32
16 16 32
16 16 32
16 16 32
16 16 32
16 16 32
16 16 32
16 16 32
16 16 32
16 16 32
16 16 32
16 16 32
16 16 32
16 16 32
16 16 32
16 16 32
16 16 32
16 16 32
16 16 32
16 16 32
16 16 32
16 16 32
16 16 32
16 16 32
16 16 32
16 16 32
16 16 32
16 16 32
16 16 32
16 16 32
16 16 32
16 16 32
16 16 32
16 16 32
16 16 32
16 16 32
16 16 32
16 16 32
16 16 32
16 16 32
16 16 32
16 16 32
16 16 32
16 16 32
16 16 32
16 16 32
16 16 32
16 16 32
16 16 32
16 16 32
16 16 32
16 16 32
16 16 32
16 16 32
16 16 32
16 16 32
16 16 32
16 16 32
16 16 32
16 16 32
16 16 32
16 16 32
16 16 32
16 16 32
16 16 32
16 16 32
16 16 32
16 16 32
16 16 32
16 16 32
16 16 32
16 16 32
16 16 32
16 16 32
16 16 32
16 16 32
16 16 32
16 16 32
16 16 32
16 16 32
16 16 32
16 16 32
16 16 32
16 16 32
16 16 32
16 16 32
16 16 32
16 16 32
16 16 32
16 16 32
16 16 32
16 16 32
16 16 32
16 16 32
16 16 32
16 16 32
16 16 32
16 16 32
16 16 32
16 16 32
16 16 32
16 16 32
16 16 32
16 16 32
16 16 32
16 16 32
16 16 32
16 16 32
16 16 32
16 16 32
16 16 32
16 16 32
16 16 32
16 16 32
16 16 32
16 16 32
16 16 32
16 16 32
16 16 32
16 16 32
16 16 32
16 16 32
16 16 32
16 16 32
16 16 32
16 16 32
16 16 32
16 16 32
16 16 32
16 16 32
16 16 32
16 16 32
16 16 32
16 16 32
16 16 32
16 16 32
16 16 32
16 16 32
16 16 32
16 16 32
16 16 32
16 16 32
16 16 32
16 16 32
16 16 32
16 16 32
16 16 32
16 16 32
16 16 32
16 16 32
16 16 32
16 16 32
16 16 32
16 16 32
16 16 32
16 16 32
16 16 32
16 16 32
16 16 32
16 16 32
16 16 32
16 16 32
16 16 32
16 16 32
16 16 32
16 16 32
16 16 32
16 16 32
16 16 32
16 16 32
16 16 32
16 16 32
16 16 32
16 16 32
16 16 32
16 16 32
16 16 32
16 16 32
16 16 32
16 16 32
16 16 32
16 16 32
16 16 32
16 16 32
16 16 32
16 16 32
16 16 32
16 16 32
16 16 32
16 16 32
16 16 32
16 16 32
16 16 32
16 16 32
16 16 32
16 16 32
16 16 32
16 16 32
16 16 32
16 16 32
16 16 32
16 16 32
16 16 32
16 16 32
16 16 32
16 16 32
16 16 32
16 16 32
16 16 32
16 16 32
16 16 32
16 16 32
16 16 32
16 16 32
16 16 32
16 16 32
16 16 32
16 16 32
16 16 32
16 16 32
16 16 32
16 16 32
16 16 32
16 16 32
16 16 32
16 16 32
16 16 32
16 16 32
16 16 32
16 16 32
16 16 32
16 16 32
16 16 32
16 16 32
16 16 32
16 16 32
16 16 32
16 16 32
16 16 32
16 16 32
16 16 32
16 16 32
16 16 32
16 16 32
16 16 32
16 16 32
16 16 32
16 16 32
16 16 32
16 16 32
16 16 32
16 16 32
16 16 32
16 16 32
16 16 32
16 16 32
16 16 32
16 16 32
16 16 32
16 16 32
16 16 32
16 16 32
16 16 32
16 16 32
16 16 32
16 16 32
16 16 32
16 16 32
16 16 32
16 16 32
16 16 32
16 16 32
16 16 32
16 16 32
16 16 32
16 16 32
16 16 32
16 16 32
16 16 32
16 16 32
16 16 32
16 16 32
16 16 32
16 16 32
16 16 32
16 16 32
16 16 32
16 16 32
16 16 32
16 16 32
16 16 32
16 16 32
16 16 32
16 16 32
16 16 32
16 16 32
16 16 32
16 16 32
16 16 32
16 16 32
16 16 32
16 16 32
16 16 32
16 16 32
16 16 32
16 16 32
16 16 32
16 16 32
16 16 32
16 16 32
16 16 32
16 16 32
16 16 32
16 16 32
16 16 32
16 16 32
16 16 32
16 16 32
16 16 32
16 16 32
16 16 32
16 16 32
16 16 32
16 16 32
16 16 32
16 16 32
16 16 32
16 16 32
16 16 32
16 16 32
16 16 32
16 16 32
16 16 32
16 16 32
16 16 32
16 16 32
16 16 32
16 16 32
16 16 32
16 16 32
16 16 32
16 16 32
16 16 32
16 16 32
16 16 32
16 16 32
16 16 32
16 16 32
16 16 32
16 16 32
16 16 32
16 16 32
16 16 32
16 16 32
16 16 32
16 16 32
16 16 32
16 16 32
16 16 32
16 16 32
16 16 32
16 16 32
16 16 32
16 16 32
16 16 32
16 16 32
16 16 32
16 16 32
16 16 32
16 16 32
16 16 32
16 16 32
16 16 32
16 16 32
16 16 32
16 16 32
16 16 32
16 16 32
16 16 32
16 16 32
16 16 32
16 16 32
16 16 32
16 16 32
16 16 32
16 16 32
16 16 32
16 16 32
16 16 32
16 16 32
16 16 32
16 16 32
16 16 32
16 16 32
16 16 32
16 16 32
16 16 32
16 16 32
16 16 32
16 16 32
16 16 32
16 16 32
16 16 32
16 16 32
16 16 32
16 16 32
16 16 32
16 16 32
16 16 32
16 16 32
16 16 32
16 16 32
16 16 32
16 16 32
16 16 32
16 16 32
16 16 32
16 16 32
16 16 32
16 16 32
16 16 32
16 16 32
16 16 32
16 16 32
16 16 32
16 16 32
16 16 32
16 16 32
16 16 32
16 16 32
16 16 32
16 16 32
16 16 32
16 16 32
16 16 32
16 16 32
16 16 32
16 16 32
16 16 32
16 16 32
16 16 32
16 16 32
16 16 32
16 16 32
16 16 32
16 16 32
16 16 32
16 16 32
16 16 32
16 16 32
16 16 32
16 16 32
16 16 32
16 16 32
16 16 32
16 16 32
16 16 32
16 16 32
16 16 32
16 16 32
16 16 32
16 16 32
16 16 32
16 16 32
16 16 32
16 16 32
16 16 32
16 16 32
16 16 32
16 16 32
16 16 32
16 16 32
16 16 32
16 16 32
16 16 32
16 16 32
16 16 32
16 16 32
16 16 32
16 16 32
16 16 32
16 16 32
16 16 32
16 16 32
16 16 32
16 16 32
16 16 32
16 16 32
16 16 32
16 16 32
16 16 32
16 16 32
16 16 32
16 16 32
16 16 32
16 16 32
16 16 32
16 16 32
16 16 32
16 16 32
16 16 32
16 16 32
16 16 32
16 16 32
16 16 32
16 16 32
16 16 32
16 16 32
16 16 32
16 16 32
16 16 32
16 16 32
16 16 32
16 16 32
16 16 32
16 16 32
16 16 32
16 16 32
16 16 32
16 16 32
16 16 32
16 16 32
16 16 32
16 16 32
16 16 32
16 16 32
16 16 32
16 16 32
16 16 32
16 16 32
16 16 32
16 16 32
16 16 32
16 16 32
16 16 32
16 16 32
16 16 32
16 16 32
16 16 32
16 16 32
16 16 32
16 16 32
16 16 32
16 16 32
16 16 32
16 16 32
16 16 32
16 16 32
16 16 32
16 16 32
16 16 32
16 16 32
16 16 32
16 16 32
16 16 32
16 16 32
16 16 32
16 16 32
16 16 32
16 16 32
16 16 32
16 16 32
16 16 32
16 16 32
16 16 32
16 16 32
16 16 32
16 16 32
16 16 32
16 16 32
16 16 32
16 16 32
16 16 32
16 16 32
16 16 32
16 16 32
16 16 32
16 16 32
16 16 32
16 16 32
16 16 32
16 16 32
16 16 32
16 16 32
16 16 32
16 16 32
16 16 32
16 16 32
16 16 32
16 16 32
16 16 32
16 16 32
16 16 32
16 16 32
16 16 32
16 16 32
16 16 32
16 16 32
16 16 32
16 16 32
16 16 32
16 16 32
16 16 32
16 16 32
16 16 32
16 16 32
16 16 32
16 16 32
16 16 32
16 16 32
16 16 32
16 16 32
16 16 32
16 16 32
16 16 32
16 16 32
16 16 32
16 16 32
16 16 32
16 16 32
16 16 32
16 16 32
16 16 32
16 16 32
16 16 32
16 16 32
16 16 32
16 16 32
16 16 32
16 16 32
16 16 32
16 16 32
16 16 32
16 16 32
16 16 32
16 16 32
16 16 32
16 16 32
16 16 32
16 16 32
16 16 32
16 16 32
16 16 32
16 16 32
16 16 32
16 16 32
16 16 32
16 16 32
16 16 32
16 16 32
16 16 32
16 16 32
16 16 32
16 16 32
16 16 32
16 16 32
16 16 32
16 16 32
16 16 32
16 16 32
16 16 32
16 16 32
16 16 32
16 16 32
16 16 32
16 16 32
16 16 32
16 16 32
16 16 32
16 16 32
16 16 32
16 16 32
16 16 32
16 16 32
16 16 32
16 16 32
16 16 32
16 16 32
16 16 32
16 16 32
16 16 32
16 16 32
16 16 32
16 16 32
16 16 32
16 16 32
16 16 32
16 16 32
16 16 32
16 16 32
16 16 32
16 16 32
16 16 32
16 16 32
16 16 32
16 16 32
16 16 32
16 16 32
16 16 32
16 16 32
16 16 32
16 16 32
16 16 32
16 16 32
16 16 32
16 16 32
16 16 32
16 16 32
16 16 32
16 16 32
16 16 32
16 16 32
16 16 32
16 16 32
16 16 32
16 16 32
16 16 32
16 16 32
16 16 32
16 16 32
16 16 32
16 16 32
16 16 32
16 16 32
16 16 32
16 16 32
16 16 32
16 16 32
16 16 32
16 16 32
16 16 32
16 16 32
16 16 32
16 16 32
16 16 32
16 16 32
16 16 32
16 16 32
16 16 32
16 16 32
16 16 32
16 16 32
16 16 32
16 16 32
16 16 32
16 16 32
16 16 32
16 16 32
16 16 32
16 16 32
16 16 32
16 16 32
16 16 32
16 16 32
16 16 32
16 16 32
16 16 32
16 16 32
16 16 32
16 16 32
16 16 32
16 16 32
16 16 32
16 16 32
16 16 32
16 16 32
16 16 32
16 16 32
16 16 32
16 16 32
16 16 32
16 16 32
16 16 32
16 16 32
16 16 32
16 16 32
16 16 32
16 16 32
16 16 32
16 16 32
16 16 32
16 16 32
16 16 32
16 16 32
16 16 32
16 16 32
16 16 32
16 16 32
16 16 32
16 16 32
16 16 32
16 16 32
16 16 32
16 16 32
16 16 32
16 16 32
16 16 32
16 16 32
16 16 32
16 16 32
16 16 32
16 16 32
16 16 32
16 16 32
16 16 32
16 16 32
16 16 32
16 16 32
16 16 32
16 16 32
16 16 32
16 16 32
16 16 32
16 16 32
16 16 32
16 16 32
16 16 32
16 16 32
16 16 32
16 16 32
16 16 32
16 16 32
16 16 32
16 16 32
16 16 32
16 16 32
16 16 32
16 16 32
16 16 32
16 16 32
16 16 32
16 16 32
16 16 32
16 16 32
16 16 32
16 16 32
16 16 32
16 16 32
16 16 32
16 16 32
16 16 32
16 16 32
16 16 32
16 16 32
16 16 32
16 16 32
16 16 32
16 16 32
16 16 32
16 16 32
16 16 32
16 16 32
16 16 32
16 16 32
16 16 32
16 16 32
16 16 32
16 16 32
16 16 32
16 16 32
16 16 32
16 16 32
16 16 32
16 16 32
16 16 32
16 16 32
16 16 32
16 16 32
16 16 32
16 16 32
16 16 32
16 16 32
16 16 32
16 16 32
16 16 32
16 16 32
16 16 32
16 16 32
16 16 32
16 16 32
16 16 32
16 16 32
16 16 32
16 16 32
16 16 32
16 16 32
16 16 32
16 16 32
16 16 32
16 16 32
16 16 32
16 16 32
16 16 32
16 16 32
16 16 32
16 16 32
16 16 32
16 16 32
16 16 32
16 16 32
16 16 32
16 16 32
16 16 32
16 16 32
16 16 32
16 16 32
16 16 32
16 16 32
16 16 32
16 16 32
16 16 32
16 16 32
16 16 32
16 16 32
16 16 32
16 16 32
16 16 32
16 16 32
16 16 32
16 16 32
16 16 32
16 16 32
16 16 32
16 16 32
16 16 32
16 16 32
16 16 32
16 16 32
16 16 32
16 16 32
16 16 32
16 16 32
16 16 32
16 16 32
16 16 32
16 16 32
16 16 32
16 16 32
16 16 32
16 16 32
16 16 32
16 16 32
16 16 32
16 16 32
16 16 32
16 16 32
16 16 32
16 16 32
16 16 32
16 16 32
16 16 32
16 16 32
16 16 32
16 16 32
16 16 32
16 16 32
16 16 32
16 16 32
16 16 32
16 16 32
16 16 32
16 16 32
16 16 32
16 16 32
16 16 32
16 16 32
16 16 32
16 16 32
16 16 32
16 16 32
16 16 32
16 16 32
16 16 32
16 16 32
16 16 32
16 16 32
16 16 32
16 16 32
16 16 32
16 16 32
16 16 32
16 16 32
16 16 32
16 16 32
16 16 32
16 16 32
16 16 32
16 16 32
16 16 32
16 16 32
16 16 32
16 16 32
16 16 32
16 16 32
16 16 32
16 16 32
16 16 32
16 16 32
16 16 32
16 16 32
16 16 32
16 16 32
16 16 32
16 16 32
16 16 32
16 16 32
16 16 32
16 16 32
16 16 32
16 16 32
16 16 32
16 16 32
16 16 32
16 16 32
16 16 32
16 16 32
16 16 32
16 16 32
16 16 32
16 16 32
16 16 32
16 16 32
16 16 32
16 16 32
16 16 32
16 16 32
16 16 32
16 16 32
16 16 32
16 16 32
16 16 32
16 16 32
16 16 32
16 16 32
16 16 32
16 16 32
16 16 32
16 16 32
16 16 32
16 16 32
16 16 32
16 16 32
16 16 32
16 16 32
16 16 32
16 16 32
16 16 32
16 16 32
16 16 32
16 16 32
16 16 32
16 16 32
16 16 32
16 16 32
16 16 32
16 16 32
16 16 32
16 16 32
16 16 32
16 16 32
16 16 32
16 16 32
16 16 32
16 16 32
16 16 32
16 16 32
16 16 32
16 16 32
16 16 32
16 16 32
16 16 32
16 16 32
16 16 32
16 16 32
16 16 32
16 16 32
16 16 32
16 16 32
16 16 32
16 16 32
16 16 32
16 16 32
16 16 32
16 16 32
16 16 32
16 16 32
16 16 32
16 16 32
16 16 32
16 16 32
16 16 32
16 16 32
16 16 32
16 16 32
16 16 32
16 16 32
16 16 32
16 16 32
16 16 32
16 16 32
16 16 32
16 16 32
16 16 32
16 16 32
16 16 32
16 16 32
16 16 32
16 16 32
16 16 32
16 16 32
16 16 32
16 16 32
16 16 32
16 16 32
16 16 32
16 16 32
16 16 32
16 16 32
16 16 32
16 16 32
16 16 32
16 16 32
16 16 32
16 16 32
16 16 32
16 16 32
16 16 32
16 16 32
16 16 32
16 16 32
16 16 32
16 16 32
16 16 32
16 16 32
16 16 32
16 16 32
16 16 32
16 16 32
16 16 32
16 16 32
16 16 32
16 16 32
16 16 32
16 16 32
16 16 32
16 16 32
16 16 32
16 16 32
16 16 32
16 16 32
16 16 32
16 16 32
16 16 32
16 16 32
16 16 32
16 16 32
16 16 32
16 16 32
16 16 32
16 16 32
16 16 32
16 16 32
16 16 32
16 16 32
16 16 32
16 16 32
16 16 32
16 16 32
16 16 32
16 16 32
16 16 32
16 16 32
16 16 32
16 16 32
16 16 32
16 16 32
16 16 32
16 16 32
16 16 32
16 16 32
16 16 32
16 16 32
16 16 32
16 16 32
16 16 32
16 16 32
16 16 32
16 16 32
16 16 32
16 16 32
16 16 32
16 16 32
16 16 32
16 16 32
16 16 32
16 16 32
16 16 32
16 16 32
16 16 32
16 16 32
16 16 32
16 16 32
16 16 32
16 16 32
16 16 32
16 16 32
16 16 32
16 16 32
16 16 32
16 16 32
16 16 32
16 16 32
16 16 32
16 16 32
16 16 32
16 16 32
16 16 32
16 16 32
16 16 32
16 16 32
16 16 32
16 16 32
16 16 32
16 16 32
16 16 32
16 16 32
16 16 32
16 16 32
16 16 32
16 16 32
16 16 32
16 16 32
16 16 32
16 16 32
16 16 32
16 16 32
16 16 32
16 16 32
16 16 32
16 16 32
16 16 32
16 16 32
16 16 32
16 16 32
16 16 32
16 16 32
16 16 32
16 16 32
16 16 32
16 16 32
16 16 32
16 16 32
16 16 32
16 16 32
16 16 32
16 16 32
16 16 32
16 16 32
16 16 32
16 16 32
16 16 32
16 16 32
16 16 32
16 16 32
16 16 32
16 16 32
16 16 32
16 16 32
16 16 32
16 16 32
16 16 32
16 16 32
16 16 32
16 16 32
16 16 32
16 16 32
16 16 32
16 16 32
16 16 32
16 16 32
16 16 32
16 16 32
16 16 32
16 16 32
16 16 32
16 16 32
16 16 32
16 16 32
16 16 32
16 16 32
16 16 32
16 16 32
16 16 32
16 16 32
16 16 32
16 16 32
16 16 32
16 16 32
16 16 32
16 16 32
16 16 32
16 16 32
16 16 32
16 16 32
16 16 32
16 16 32
16 16 32
16 16 32
16 16 32
16 16 32
16 16 32
16 16 32
16 16 32
16 16 32
16 16 32
16 16 32
16 16 32
16 16 32
16 16 32
16 16 32
16 16 32
16 16 32
16 16 32
16 16 32
16 16 32
16 16 32
16 16 32
16 16 32
16 16 32
16 16 32
16 16 32
16 16 32
16 16 32
16 16 32
16 16 32
16 16 32
16 16 32
16 16 32
16 16 32
16 16 32
16 16 32
16 16 32
16 16 32
16 16 32
16 16 32
16 16 32
16 16 32
16 16 32
16 16 32
16 16 32
16 16 32
16 16 32
16 16 32
16 16 32
16 16 32
16 16 32
16 16 32
16 16 32
16 16 32
16 16 32
16 16 32
16 16 32
16 16 32
16 16 32
16 16 32
16 16 32
16 16 32
16 16 32
16 16 32
16 16 32
16 16 32
16 16 32
16 16 32
16 16 32
16 16 32
16 16 32
16 16 32
16 16 32
16 16 32
16 16 32
16 16 32
16 16 32
16 16 32
16 16 32
16 16 32
16 16 32
16 16 32
16 16 32
16 16 32
16 16 32
16 16 32
16 16 32
16 16 32
16 16 32
16 16 32
16 16 32
16 16 32
16 16 32
16 16 32
16 16 32
16 16 32
16 16 32
16 16 32
16 16 32
16 16 32
16 16 32
16 16 32
16 16 32
16 16 32
16 16 32
16 16 32
16 16 32
16 16 32
16 16 32
16 16 32
16 16 32
16 16 32
16 16 32
16 16 32
16 16 32
16 16 32
16 16 32
16 16 32
16 16 32
16 16 32
16 16 32
16 16 32
16 16 32
16 16 32
16 16 32
16 16 32
16 16 32
16 16 32
16 16 32
16 16 32
16 16 32
16 16 32
16 16 32
16 16 32
16 16 32
16 16 32
16 16 32
16 16 32
16 16 32
16 16 32
16 16 32
16 16 32
16 16 32
16 16 32
16 16 32
16 16 32
16 16 32
16 16 32
16 16 32
16 16 32
16 16 32
16 16 32
16 16 32
16 16 32
16 16 32
16 16 32
16 16 32
16 16 32
16 16 32
16 16 32
16 16 32
16 16 32
16 16 32
16 16 32
16 16 32
16 16 32
16 16 32
16 16 32
16 16 32
16 16 32
16 16 32
16 16 32
16 16 32
16 16 32
16 16 32
16 16 32
16 16 32
16 16 32
16 16 32
16 16 32
16 16 32
16 16 32
16 16 32
16 16 32
16 16 32
16 16 32
16 16 32
16 16 32
16 16 32
16 16 32
16 16 32
16 16 32
16 16 32
16 16 32
16 16 32
16 16 32
16 16 32
16 16 32
16 16 32
16 16 32
16 16 32
16 16 32
16 16 32
16 16 32
16 16 32
16 16 32
16 16 32
16 16 32
16 16 32
16 16 32
16 16 32
16 16 32
16 16 32
16 16 32
16 16 32
16 16 32
16 16 32
16 16 32
16 16 32
16 16 32
16 16 32
16 16 32
16 16 32
16 16 32
16 16 32
16 16 32
16 16 32
16 16 32
16 16 32
16 16 32
16 16 32
16 16 32
16 16 32
16 16 32
16 16 32
16 16 32
16 16 32
16 16 32
16 16 32
16 16 32
16 16 32
16 16 32
16 16 32
16 16 32
16 16 32
16 16 32
16 16 32
16 16 32
16 16 32
16 16 32
16 16 32
16 16 32
16 16 32
16 16 32
16 16 32
16 16 32
16 16 32
16 16 32
16 16 32
16 16 32
16 16 32
16 16 32
16 16 32
16 16 32
16 16 32
16 16 32
16 16 32
16 16 32
16 16 32
16 16 32
16 16 32
16 16 32
16 16 32
16 16 32
16 16 32
16 16 32
16 16 32
16 16 32
16 16 32
16 16 32
16 16 32
16 16 32
16 16 32
16 16 32
16 16 32
16 16 32
16 16 32
16 16 32
16 16 32
16 16 32
16 16 32
16 16 32
16 16 32
16 16 32
16 16 32
16 16 32
16 16 32
16 16 32
16 16 32
16 16 32
16 16 32
16 16 32
16 16 32
16 16 32
16 16 32
16 16 32
16 16 32
16 16 32
16 16 32
16 16 32
16 16 32
16 16 32
16 16 32
16 16 32
16 16 32
16 16 32
16 16 32
16 16 32
16 16 32
16 16 32
16 16 32
16 16 32
16 16 32
16 16 32
16 16 32
16 16 32
16 16 32
16 16 32
16 16 32
16 16 32
16 16 32
16 16 32
16 16 32
16 16 32
16 16 32
16 16 32
16 16 32
16 16 32
16 16 32
16 16 32
16 16 32
16 16 32
16 16 32
16 16 32
16 16 32
16 16 32
16 16 32
16 16 32
16 16 32
16 16 32
16 16 32
16 16 32
16 16 32
16 16 32
16 16 32
16 16 32
16 16 32
16 16 32
16 16 32
16 16 32
16 16 32
16 16 32
16 16 32
16 16 32
16 16 32
16 16 32
16 16 32
16 16 32
16 16 32
16 16 32
16 16 32
16 16 32
16 16 32
16 16 32
16 16 32
16 16 32
16 16 32
16 16 32
16 16 32
16 16 32
16 16 32
16 16 32
16 16 32
16 16 32
16 16 32
16 16 32
16 16 32
16 16 32
16 16 32
16 16 32
16 16 32
16 16 32
16 16 32
16 16 32
16 16 32
16 16 32
16 16 32
16 16 32
16 16 32
16 16 32
16 16 32
16 16 32
16 16 32
16 16 32
16 16 32
16 16 32
16 16 32
16 16 32
16 16 32
16 16 32
16 16 32
16 16 32
16 16 32
16 16 32
16 16 32
16 16 32
16 16 32
16 16 32
16 16 32
16 16 32
16 16 32
16 16 32
16 16 32
16 16 32
16 16 32
16 16 32
16 16 32
16 16 32
16 16 32
16 16 32
16 16 32
16 16 32
16 16 32
16 16 32
16 16 32
16 16 32
16 16 32
16 16 32
16 16 32
16 16 32
16 16 32
16 16 32
16 16 32
16 16 32
16 16 32
16 16 32
16 16 32
16 16 32
16 16 32
16 16 32
16 16 32
16 16 32
16 16 32
16 16 32
16 16 32
16 16 32
16 16 32
16 16 32
16 16 32
16 16 32
16 16 32
16 16 32
16 16 32
16 16 32
16 16 32
16 16 32
16 16 32
16 16 32
16 16 32
16 16 32
16 16 32
16 16 32
16 16 32
16 16 32
16 16 32
16 16 32
16 16 32
16 16 32
16 16 32
16 16 32
16 16 32
16 16 32
16 16 32
16 16 32
16 16 32
16 16 32
16 16 32
16 16 32
16 16 32
16 16 32
16 16 32
16 16 32
16 16 32
16 16 32
16 16 32
16 16 32
16 16 32
16 16 32
16 16 32
16 16 32
16 16 32
16 16 32
16 16 32
16 16 32
16 16 32
16 16 32
16 16 32
16 16 32
16 16 32
16 16 32
16 16 32
16 16 32
16 16 32
16 16 32
16 16 32
16 16 32
16 16 32
16 16 32
16 16 32
16 16 32
16 16 32
16 16 32
16 16 32
16 16 32
16 16 32
16 16 32
16 16 32
16 16 32
16 16 32
16 16 32
16 16 32
16 16 32
16 16 32
16 16 32
16 16 32
16 16 32
16 16 32
16 16 32
16 16 32
16 16 32
16 16 32
16 16 32
16 16 32
16 16 32
16 16 32
16 16 32
16 16 32
16 16 32
16 16 32
16 16 32
16 16 32
16 16 32
16 16 32
16 16 32
16 16 32
16 16 32
16 16 32
16 16 32
16 16 32
16 16 32
16 16 32
16 16 32
16 16 32
16 16 32
16 16 32
16 16 32
16 16 32
16 16 32
16 16 32
16 16 32
16 16 32
16 16 32
16 16 32
16 16 32
16 16 32
16 16 32
16 16 32
16 16 32
16 16 32
16 16 32
16 16 32
16 16 32
16 16 32
16 16 32
16 16 32
16 16 32
16 16 32
16 16 32
16 16 32
16 16 32
16 16 32
16 16 32
16 16 32
16 16 32
16 16 32
16 16 32
16 16 32
16 16 32
16 16 32
16 16 32
16 16 32
16 16 32
16 16 32
16 16 32
16 16 32
16 16 32
16 16 32
16 16 32
16 16 32
16 16 32
16 16 32
16 16 32
16 16 32
16 16 32
16 16 32
16 16 32
16 16 32
16 16 32
16 16 32
16 16 32
16 16 32
16 16 32
16 16 32
16 16 32
16 16 32
16 16 32
16 16 32
16 16 32
16 16 32
16 16 32
16 16 32
16 16 32
16 16 32
16 16 32
16 16 32
16 16 32
16 16 32
16 16 32
16 16 32
16 16 32
16 16 32
16 16 32
16 16 32
16 16 32
16 16 32
16 16 32
16 16 32
16 16 32
16 16 32
16 16 32
16 16 32
16 16 32
16 16 32
16 16 32
16 16 32
16 16 32
16 16 32
16 16 32
16 16 32
16 16 32
16 16 32
16 16 32
16 16 32
16 16 32
16 16 32
16 16 32
16 16 32
16 16 32
16 16 32
16 16 32
16 16 32
16 16 32
16 16 32
16 16 32
16 16 32
16 16 32
16 16 32
16 16 32
16 16 32
16 16 32
16 16 32
16 16 32
16 16 32
16 16 32
16 16 32
16 16 32
16 16 32
16 16 32
16 16 32
16 16 32
16 16 32
16 16 32
16 16 32
16 16 32
16 16 32
16 16 32
16 16 32
16 16 32
16 16 32
16 16 32
16 16 32
16 16 32
16 16 32
16 16 32
16 16 32
16 16 32
16 16 32
16 16 32
16 16 32
16 16 32
16 16 32
16 16 32
16 16 32
16 16 32
16 16 32
16 16 32
16 16 32
16 16 32
16 16 32
16 16 32
16 16 32
16 16 32
16 16 32
16 16 32
16 16 32
16 16 32
16 16 32
16 16 32
16 16 32
16 16 32
16 16 32
16 16 32
16 16 32
16 16 32
16 16 32
16 16 32
16 16 32
16 16 32
16 16 32
16 16 32
16 16 32
16 16 32
16 16 32
16 16 32
16 16 32
16 16 32
16 16 32
16 16 32
16 16 32
16 16 32
16 16 32
16 16 32
16 16 32
16 16 32
16 16 32
16 16 32
16 16 32
16 16 32
16 16 32
16 16 32
16 16 32
16 16 32
16 16 32
16 16 32
16 16 32
16 16 32
16 16 32
16 16 32
16 16 32
16 16 32
16 16 32
16 16 32
16 16 32
16 16 32
16 16 32
16 16 32
16 16 32
16 16 32
16 16 32
16 16 32
16 16 32
16 16 32
16 16 32
16 16 32
16 16 32
16 16 32
16 16 32
16 16 32
16 16 32
16 16 32
16 16 32
16 16 32
16 16 32
16 16 32
16 16 32
16 16 32
16 16 32
16 16 32
16 16 32
16 16 32
16 16 32
16 16 32
16 16 32
16 16 32
16 16 32
16 16 32
16 16 32
16 16 32
16 16 32
16 16 32
16 16 32
16 16 32
16 16 32
16 16 32
16 16 32
16 16 32
16 16 32
16 16 32
16 16 32
16 16 32
16 16 32
16 16 32
16 16 32
16 16 32
16 16 32
16 16 32
16 16 32
16 16 32
16 16 32
16 16 32
16 16 32
16 16 32
16 16 32
16 16 32
16 16 32
16 16 32
16 16 32
16 16 32
16 16 32
16 16 32
16 16 32
16 16 32
16 16 32
16 16 32
16 16 32
16 16 32
16 16 32
16 16 32
16 16 32
16 16 32
16 16 32
16 16 32
16 16 32
16 16 32
16 16 32
16 16 32
16 16 32
16 16 32
16 16 32
16 16 32
16 16 32
16 16 32
16 16 32
16 16 32
16 16 32
16 16 32
16 16 32
16 16 32
16 16 32
16 16 32
16 16 32
16 16 32
16 16 32
16 16 32
16 16 32
16 16 32
16 16 32
16 16 32
16 16 32
16 16 32
16 16 32
16 16 32
16 16 32
16 16 32
16 16 32
16 16 32
16 16 32
16 16 32
16 16 32
16 16 32
16 16 32
16 16 32
16 16 32
16 16 32
16 16 32
16 16 32
16 16 32
16 16 32
16 16 32
16 16 32
16 16 32
16 16 32
16 16 32
16 16 32
16 16 32
16 16 32
16 16 32
16 16 32
16 16 32
16 16 32
16 16 32
16 16 32
16 16 32
16 16 32
16 16 32
16 16 32
16 16 32
16 16 32
16 16 32
16 16 32
16 16 32
16 16 32
16 16 32
16 16 32
16 16 32
16 16 32
16 16 32
16 16 32
16 16 32
16 16 32
16 16 32
16 16 32
16 16 32
16 16 32
16 16 32
16 16 32
16 16 32
16 16 32
16 16 32
16 16 32
16 16 32
16 16 32
16 16 32
16 16 32
16 16 32
16 16 32
16 16 32
16 16 32
16 16 32
16 16 32
16 16 32
16 16 32
16 16 32
16 16 32
16 16 32
16 16 32
16 16 32
16 16 32
16 16 32
16 16 32
16 16 32
16 16 32
16 16 32
16 16 32
16 16 32
16 16 32
16 16 32
16 16 32
16 16 32
16 16 32
16 16 32
16 16 32
16 16 32
16 16 32
16 16 32
16 16 32
16 16 32
16 16 32
16 16 32
16 16 32
16 16 32
16 16 32
16 16 32
16 16 32
16 16 32
16 16 32
16 16 32
16 16 32
16 16 32
16 16 32
16 16 32
16 16 32
16 16 32
16 16 32
16 16 32
16 16 32
16 16 32
16 16 32
16 16 32
16 16 32
16 16 32
16 16 32
16 16 32
16 16 32
16 16 32
16 16 32
16 16 32
16 16 32
16 16 32
16 16 32
16 16 32
16 16 32
16 16 32
16 16 32
16 16 32
16 16 32
16 16 32
16 16 32
16 16 32
16 16 32
16 16 32
16 16 32
16 16 32
16 16 32
16 16 32
